SHIH-XIAN-YANG/Robotic-vitual-system/run/exp7/log/joint_pos_error.txt
# Joint1, Joint2, Joint3, Joint4, Joint5, Joint6
  0.000000,-37.160999,-89.886000,-90.000000,-142.952999,-90.000000
 90.000000, 52.843111,  0.125809,  0.027643,-52.949890,  0.002948
 89.994771, 52.851312,  0.161048,  0.110296,-52.937490,  0.011742
 89.973897, 52.851234,  0.207406,  0.219416,-52.912830,  0.023271
 89.932318, 52.834679,  0.252614,  0.326229,-52.876153,  0.034394
 89.870326, 52.801761,  0.296460,  0.429930,-52.827733,  0.044990
 89.788254, 52.752635,  0.338831,  0.529939,-52.767838,  0.054985
 89.686428, 52.687455,  0.379619,  0.625704,-52.696732,  0.064312
 89.565169, 52.606371,  0.418722,  0.716707,-52.614669,  0.072909
 89.424794, 52.509535,  0.456045,  0.802460,-52.521901,  0.080725
 89.265614, 52.397094,  0.491501,  0.882514,-52.418671,  0.087714
 89.087935, 52.269196,  0.525007,  0.956459,-52.305219,  0.093838
 88.892057, 52.125988,  0.556488,  1.023924,-52.181779,  0.099066
 88.678277, 51.967613,  0.585877,  1.084582,-52.048578,  0.103378
 88.446886, 51.794215,  0.613114,  1.138148,-51.905839,  0.106758
 88.198170, 51.605936,  0.638145,  1.184385,-51.753782,  0.109200
 87.932412, 51.402917,  0.660924,  1.223099,-51.592617,  0.110706
 87.649888, 51.185296,  0.681414,  1.254145,-51.422554,  0.111284
 87.350872, 50.953211,  0.699582,  1.277423,-51.243796,  0.110951
 87.035633, 50.706800,  0.715406,  1.292883,-51.056541,  0.109731
 86.704436, 50.446197,  0.728869,  1.300518,-50.860983,  0.107655
 86.357541, 50.171536,  0.739962,  1.300370,-50.657313,  0.104761
 85.995207, 49.882950,  0.748683,  1.292526,-50.445715,  0.101091
 85.617684, 49.580572,  0.755038,  1.277118,-50.226372,  0.096693
 85.225222, 49.264530,  0.759038,  1.254321,-49.999458,  0.091622
 84.818065, 48.934954,  0.760705,  1.224351,-49.765149,  0.085934
 84.396452, 48.591971,  0.760062,  1.187464,-49.523612,  0.079690
 83.960622, 48.235709,  0.757145,  1.143957,-49.275012,  0.072956
 83.510806, 47.866293,  0.751990,  1.094159,-49.019512,  0.065798
 83.047234, 47.483847,  0.744644,  1.038436,-48.757268,  0.058285
 82.570130, 47.088494,  0.735158,  0.977182,-48.488435,  0.050486
 82.079717, 46.680356,  0.723589,  0.910821,-48.213164,  0.042474
 81.576211, 46.259554,  0.710000,  0.839802,-47.931601,  0.034320
 81.059829, 45.826207,  0.694457,  0.764598,-47.643890,  0.026093
 80.530780, 45.380433,  0.677035,  0.685700,-47.350172,  0.017864
 79.989272, 44.922351,  0.657810,  0.603616,-47.050583,  0.009701
 79.435510, 44.452076,  0.636865,  0.518866,-46.745259,  0.001670
 78.869694, 43.969724,  0.614284,  0.431983,-46.434329, -0.006164
 78.292023, 43.475408,  0.590159,  0.343504,-46.117923, -0.013742
 77.702690, 42.969242,  0.564581,  0.253970,-45.796165, -0.021006
 77.101887, 42.451337,  0.537647,  0.163923,-45.469178, -0.027902
 76.489802, 41.921805,  0.509457,  0.073902,-45.137080, -0.034381
 75.866620, 41.380755,  0.480111, -0.015560,-44.799989, -0.040398
 75.232524, 40.828295,  0.449713, -0.103941,-44.458019, -0.045913
 74.587693, 40.264535,  0.418368, -0.190729,-44.111281, -0.050890
 73.932303, 39.689579,  0.386184, -0.275427,-43.759885, -0.055299
 73.266528, 39.103535,  0.353269, -0.357559,-43.403936, -0.059115
 72.590538, 38.506507,  0.319730, -0.436665,-43.043538, -0.062318
 71.904502, 37.898598,  0.285677, -0.512311,-42.678794, -0.064895
 71.208584, 37.279912,  0.251219, -0.584088,-42.309803, -0.066835
 70.502947, 36.650550,  0.216466, -0.651614,-41.936661, -0.068136
 69.787752, 36.010613,  0.181525, -0.714535,-41.559463, -0.068798
 69.063155, 35.360201,  0.146504, -0.772530,-41.178303, -0.068829
 68.329311, 34.699412,  0.111509, -0.825311,-40.793270, -0.068239
 67.586373, 34.028345,  0.076646, -0.872623,-40.404453, -0.067046
 66.834490, 33.347097,  0.042016, -0.914245,-40.011939, -0.065269
 66.073811, 32.655765,  0.007722, -0.949996,-39.615811, -0.062933
 65.304479, 31.954442, -0.026139, -0.979727,-39.216153, -0.060069
 64.526638, 31.243224, -0.059470, -1.003330,-38.813046, -0.056707
 63.740429, 30.522205, -0.092179, -1.020733,-38.406567, -0.052883
 62.945988, 29.791476, -0.124174, -1.031901,-37.996794, -0.048636
 62.143453, 29.051129, -0.155371, -1.036837,-37.583802, -0.044007
 61.332957, 28.301256, -0.185685, -1.035581,-37.167666, -0.039040
 60.514632, 27.541946, -0.215038, -1.028209,-36.748455, -0.033778
 59.688606, 26.773288, -0.243354, -1.014832,-36.326242, -0.028269
 58.855008, 25.995371, -0.270561, -0.995596,-35.901093, -0.022559
 58.013963, 25.208282, -0.296594, -0.970679,-35.473077, -0.016696
 57.165594, 24.412108, -0.321388, -0.940291,-35.042259, -0.010728
 56.310022, 23.606935, -0.344887, -0.904674,-34.608703, -0.004703
 55.447366, 22.792848, -0.367038, -0.864096,-34.172472,  0.001334
 54.577745, 21.969930, -0.387790, -0.818851,-33.733625,  0.007335
 53.701274, 21.138266, -0.407102, -0.769260,-33.292224,  0.013256
 52.818066, 20.297937, -0.424933, -0.715664,-32.848327,  0.019055
 51.928233, 19.449027, -0.441251, -0.658424,-32.401990,  0.024690
 51.031886, 18.591615, -0.456027, -0.597920,-31.953269,  0.030123
 50.129132, 17.725783, -0.469236, -0.534546,-31.502219,  0.035318
 49.220078, 16.851610, -0.480861, -0.468709,-31.048892,  0.040242
 48.304830, 15.969174, -0.490887, -0.400826,-30.593342,  0.044864
 47.383489, 15.078554, -0.499305, -0.331321,-30.135618,  0.049157
 46.456158, 14.179827, -0.506112, -0.260623,-29.675770,  0.053097
 45.522936, 13.273070, -0.511310, -0.189165,-29.213847,  0.056664
 44.583922, 12.358359, -0.514903, -0.117378,-28.749896,  0.059841
 43.639213, 11.435768, -0.516903, -0.045689,-28.283963,  0.062615
 42.688903, 10.505373, -0.517325,  0.025476,-27.816093,  0.064975
 41.733086,  9.567247, -0.516189,  0.095704,-27.346331,  0.066916
 40.771854,  8.621463, -0.513519,  0.164588,-26.874720,  0.068435
 39.805298,  7.668094, -0.509345,  0.231735,-26.401302,  0.069533
 38.833507,  6.707211, -0.503698,  0.296769,-25.926118,  0.070214
 37.856568,  5.738885, -0.496615,  0.359326,-25.449209,  0.070485
 36.874569,  4.763187, -0.488138,  0.419064,-24.970614,  0.070359
 35.887593,  3.780187, -0.478310,  0.475660,-24.490370,  0.069847
 34.895725,  2.790756, -0.467179,  0.528815,-24.008517,  0.068968
 33.899046,  1.797531, -0.454796,  0.578252,-23.525090,  0.067740
 32.897638,  0.804269, -0.441215,  0.623718,-23.040125,  0.066184
 31.891580, -0.185137, -0.426494,  0.664990,-22.553658,  0.064325
 30.880951, -1.166832, -0.410691,  0.701868,-22.065722,  0.062189
 29.865827, -2.137023, -0.393870,  0.734184,-21.576351,  0.059803
 28.846285, -3.091986, -0.376094,  0.761797,-21.085578,  0.057196
 27.822399, -4.028082, -0.357430,  0.784594,-20.593435,  0.054399
 26.794242, -4.941954, -0.337947,  0.802495,-20.099952,  0.051441
 25.761887, -5.831415, -0.317713,  0.815448,-19.605161,  0.048355
 24.725405, -6.695958, -0.296800,  0.823430,-19.109091,  0.045173
 23.684866, -7.535814, -0.275281,  0.826450,-18.611770,  0.041927
 22.640339, -8.351216, -0.253227,  0.824544,-18.113229,  0.038648
 21.591891, -9.142395, -0.230714,  0.817778,-17.613493,  0.035369
 20.539589, -9.909579, -0.207816,  0.806247,-17.112591,  0.032121
 19.483499,-10.652996, -0.184605,  0.790070,-16.610549,  0.028932
 18.423685,-11.372868, -0.161158,  0.769396,-16.107392,  0.025833
 17.360211,-12.069419, -0.137548,  0.744395,-15.603146,  0.022849
 16.293140,-12.742867, -0.113848,  0.715265,-15.097836,  0.020009
 15.222532,-13.393433, -0.090131,  0.682223,-14.591486,  0.017335
 14.148448,-14.021330, -0.066470,  0.645509,-14.084119,  0.014850
 13.070949,-14.626773, -0.042934,  0.605379,-13.575759,  0.012575
 11.990092,-15.209974, -0.019595,  0.562110,-13.066427,  0.010528
 10.905935,-15.771142,  0.003481,  0.515992,-12.556146,  0.008724
  9.818535,-16.310486,  0.026227,  0.467330,-12.044938,  0.007179
  8.727948,-16.828211,  0.048578,  0.416439,-11.532822,  0.005903
  7.634228,-17.324521,  0.070473,  0.363647,-11.019821,  0.004905
  6.537431,-17.799618,  0.091850,  0.309286,-10.505953,  0.004192
  5.437609,-18.253702,  0.112652,  0.253695, -9.991238,  0.003768
  4.334814,-18.686971,  0.132823,  0.197218, -9.475695,  0.003636
  3.229366,-19.099621,  0.152310,  0.140198, -8.959344,  0.003794
  2.123236,-19.491847,  0.171064,  0.082979, -8.442201,  0.004239
  1.020886,-19.863842,  0.189037,  0.025902, -7.924285,  0.004967
 -0.072163,-20.215795,  0.206185, -0.030697, -7.405614,  0.005971
 -1.150500,-20.547897,  0.222467, -0.086488, -6.886203,  0.007241
 -2.208855,-20.860333,  0.237844, -0.141151, -6.366070,  0.008766
 -3.242132,-21.153290,  0.252281, -0.194373, -5.845231,  0.010534
 -4.245422,-21.426951,  0.265747, -0.245855, -5.323702,  0.012529
 -5.214560,-21.681497,  0.278214, -0.295313, -4.801497,  0.014736
 -6.147335,-21.917109,  0.289656, -0.342475, -4.278633,  0.017138
 -7.043592,-22.133966,  0.300053, -0.387089, -3.755123,  0.019716
 -7.903915,-22.332243,  0.309385, -0.428918, -3.230982,  0.022450
 -8.728887,-22.512116,  0.317638, -0.467745, -2.706224,  0.025321
 -9.519078,-22.673759,  0.324800, -0.503373, -2.180863,  0.028308
-10.275050,-22.817342,  0.330865, -0.535628, -1.654912,  0.031389
-10.997358,-22.943036,  0.335826, -0.564355, -1.128384,  0.034543
-11.686546,-23.051009,  0.339684, -0.589424, -0.602096,  0.037748
-12.343148,-23.141429,  0.342439, -0.610727, -0.078735,  0.040983
-12.967691,-23.214460,  0.344098, -0.628178,  0.437713,  0.044227
-13.560694,-23.270266,  0.344668, -0.641718,  0.943093,  0.047459
-14.122666,-23.309009,  0.344162, -0.651310,  1.433395,  0.050658
-14.654107,-23.330850,  0.342595, -0.656940,  1.904797,  0.053806
-15.155512,-23.335947,  0.339983, -0.658619,  2.354465,  0.056884
-15.627366,-23.324459,  0.336347, -0.656381,  2.781496,  0.059875
-16.070145,-23.296541,  0.331711, -0.650282,  3.186209,  0.062761
-16.484318,-23.252347,  0.326101, -0.640401,  3.569114,  0.065528
-16.870348,-23.192031,  0.319545, -0.626839,  3.930708,  0.068163
-17.228689,-23.115745,  0.312074, -0.609716,  4.271479,  0.070653
-17.559787,-23.023638,  0.303721, -0.589173,  4.591904,  0.072986
-17.864082,-22.915859,  0.294522, -0.565371,  4.892448,  0.075154
-18.142006,-22.792556,  0.284515, -0.538484,  5.173567,  0.077149
-18.393985,-22.653873,  0.273737, -0.508708,  5.435704,  0.078965
-18.620437,-22.499957,  0.262232, -0.476249,  5.679294,  0.080597
-18.821772,-22.330949,  0.250041, -0.441331,  5.904762,  0.082042
-18.998397,-22.146991,  0.237208, -0.404186,  6.112522,  0.083299
-19.150709,-21.948225,  0.223780, -0.365060,  6.302979,  0.084369
-19.279100,-21.734788,  0.209802, -0.324206,  6.476531,  0.085253
-19.383956,-21.506818,  0.195322, -0.281884,  6.633563,  0.085954
-19.465654,-21.264453,  0.180388, -0.238362,  6.774454,  0.086477
-19.524568,-21.007826,  0.165051, -0.193911,  6.899574,  0.086829
-19.561066,-20.737072,  0.149358, -0.148803,  7.009284,  0.087017
-19.575506,-20.452322,  0.133361, -0.103313,  7.103938,  0.087049
-19.568246,-20.153709,  0.117109, -0.057716,  7.183878,  0.086935
-19.539632,-19.841363,  0.100652, -0.012280,  7.249444,  0.086685
-19.490009,-19.515411,  0.084041,  0.032725,  7.300965,  0.086312
-19.419715,-19.175981,  0.067326,  0.077038,  7.338761,  0.085828
-19.329082,-18.823200,  0.050556,  0.120406,  7.363149,  0.085245
-19.218437,-18.457192,  0.033779,  0.162580,  7.374434,  0.084578
-19.088103,-18.078082,  0.017046,  0.203326,  7.372918,  0.083838
-18.938399,-17.685992,  0.000402,  0.242418,  7.358894,  0.083036
-18.769639,-17.281043, -0.016105,  0.279642,  7.332649,  0.082184
-18.582131,-16.863357, -0.032429,  0.314799,  7.294463,  0.081296
-18.376179,-16.433053, -0.048525,  0.347704,  7.244609,  0.080383
-18.152081,-15.990248, -0.064351,  0.378186,  7.183356,  0.079456
-17.910130,-15.535060, -0.079865,  0.406093,  7.110965,  0.078528
-17.650616,-15.067605, -0.095026,  0.431287,  7.027690,  0.077611
-17.373823,-14.587997, -0.109795,  0.453649,  6.933783,  0.076715
-17.080031,-14.096351, -0.124136,  0.473078,  6.829487,  0.075851
-16.769513,-13.592779, -0.138014,  0.489493,  6.715040,  0.075030
-16.442543,-13.077392, -0.151394,  0.502828,  6.590675,  0.074260
-16.099384,-12.550301, -0.164246,  0.513039,  6.456621,  0.073551
-15.740300,-12.011616, -0.176540,  0.520100,  6.313099,  0.072910
-15.365548,-11.461445, -0.188250,  0.524004,  6.160327,  0.072346
-14.975382,-10.899896, -0.199349,  0.524764,  5.998517,  0.071864
-14.570050,-10.327074, -0.209816,  0.522408,  5.827878,  0.071471
-14.149800, -9.743085, -0.219629,  0.516987,  5.648611,  0.071170
-13.714871, -9.148034, -0.228769,  0.508565,  5.460916,  0.070967
-13.265501, -8.542024, -0.237222,  0.497225,  5.264985,  0.070864
-12.801925, -7.925157, -0.244972,  0.483068,  5.061009,  0.070863
-12.324371, -7.297535, -0.252009,  0.466208,  4.849172,  0.070965
-11.833067, -6.659258, -0.258323,  0.446775,  4.629654,  0.071170
-11.328235, -6.010426, -0.263907,  0.424912,  4.402634,  0.071479
-10.810093, -5.351137, -0.268756,  0.400775,  4.168283,  0.071889
-10.278857, -4.681489, -0.272869,  0.374534,  3.926770,  0.072398
 -9.734739, -4.001579, -0.276246,  0.346365,  3.678260,  0.073003
 -9.177947, -3.311971, -0.278887,  0.316458,  3.422914,  0.073700
 -8.608687, -2.614373, -0.280798,  0.285008,  3.160889,  0.074485
 -8.027160, -1.911372, -0.281985,  0.252219,  2.892340,  0.075353
 -7.433564, -1.205761, -0.282458,  0.218300,  2.617416,  0.076297
 -6.828096, -0.500324, -0.282225,  0.183464,  2.336265,  0.077312
 -6.210947,  0.202176, -0.281301,  0.147927,  2.049029,  0.078390
 -5.582306,  0.899006, -0.279699,  0.111908,  1.755851,  0.079525
 -4.942360,  1.587473, -0.277436,  0.075625,  1.456865,  0.080709
 -4.291291,  2.264940, -0.274531,  0.039295,  1.152340,  0.081934
 -3.629398,  2.928828, -0.271003,  0.003135,  0.843294,  0.083193
 -2.957930,  3.576631, -0.266873, -0.032644,  0.531850,  0.084476
 -2.279686,  4.205923, -0.262165, -0.067834,  0.220608,  0.085777
 -1.598176,  4.814602, -0.256903, -0.102233, -0.087867,  0.087087
 -0.916889,  5.401479, -0.251113, -0.135646, -0.391070,  0.088397
 -0.239267,  5.966382, -0.244822, -0.167887, -0.686575,  0.089701
  0.431312,  6.509518, -0.238059, -0.198777, -0.972055,  0.090989
  1.091548,  7.031092, -0.230852, -0.228149, -1.245299,  0.092255
  1.738235,  7.531311, -0.223232, -0.255845, -1.504230,  0.093492
  2.368278,  8.010377, -0.215229, -0.281721, -1.746917,  0.094692
  2.978706,  8.468490, -0.206877, -0.305642, -1.972053,  0.095849
  3.566686,  8.905850, -0.198206, -0.327490, -2.179416,  0.096958
  4.129535,  9.322653, -0.189251, -0.347158, -2.369366,  0.098012
  4.664908,  9.719096, -0.180044, -0.364553, -2.542299,  0.099007
  5.171474, 10.095372, -0.170619, -0.379597, -2.698603,  0.099938
  5.649170, 10.451672, -0.161011, -0.392228, -2.838657,  0.100802
  6.098463, 10.788186, -0.151252, -0.402398, -2.962830,  0.101595
  6.519816, 11.105102, -0.141378, -0.410073, -3.071484,  0.102315
  6.913684, 11.402606, -0.131423, -0.415236, -3.164971,  0.102960
  7.280513, 11.680883, -0.121419, -0.417883, -3.243638,  0.103527
  7.620745, 11.940116, -0.111400, -0.418028, -3.307821,  0.104017
  7.934813, 12.180484, -0.101399, -0.415697, -3.357849,  0.104429
  8.223143, 12.402169, -0.091450, -0.410931, -3.394045,  0.104764
  8.486154, 12.605347, -0.081583, -0.403785, -3.416723,  0.105022
  8.724258, 12.790195, -0.071831, -0.394327, -3.426191,  0.105205
  8.937861, 12.956885, -0.062222, -0.382641, -3.422749,  0.105315
  9.127362, 13.105592, -0.052788, -0.368818, -3.406691,  0.105355
  9.293153, 13.236486, -0.043558, -0.352965, -3.378303,  0.105327
  9.435621, 13.349736, -0.034557, -0.335198, -3.337865,  0.105236
  9.555145, 13.445511, -0.025815, -0.315644, -3.285653,  0.105084
  9.652098, 13.523976, -0.017355, -0.294437, -3.221932,  0.104877
  9.726849, 13.585295, -0.009202, -0.271722, -3.146965,  0.104618
  9.779758, 13.629633, -0.001380, -0.247650, -3.061007,  0.104313
  9.811181, 13.657150,  0.006090, -0.222378, -2.964308,  0.103966
  9.821468, 13.668006,  0.013187, -0.196070, -2.857112,  0.103584
  9.810963, 13.662360,  0.019893, -0.168892, -2.739657,  0.103170
  9.780004, 13.640368,  0.026189, -0.141014, -2.612177,  0.102730
  9.728925, 13.602187,  0.032059, -0.112611, -2.474898,  0.102271
  9.658051, 13.547969,  0.037490, -0.083855, -2.328043,  0.101797
  9.567707, 13.477869,  0.042467, -0.054920, -2.171830,  0.101314
  9.458208, 13.392035,  0.046980, -0.025981, -2.006471,  0.100827
  9.329866, 13.290620,  0.051017,  0.002792, -1.832174,  0.100342
  9.182988, 13.173769,  0.054572,  0.031230, -1.649140,  0.099863
  9.017875, 13.041631,  0.057636,  0.059169, -1.457570,  0.099395
  8.834824, 12.894350,  0.060205,  0.086448, -1.257787,  0.098944
  8.634126, 12.732071,  0.062274,  0.112914, -1.050652,  0.098512
  8.416069, 12.554937,  0.063843,  0.138419, -0.837710,  0.098105
  8.180935, 12.363088,  0.064909,  0.162822, -0.620796,  0.097725
  7.929002, 12.156664,  0.065474,  0.185991, -0.401757,  0.097377
  7.660542, 11.935805,  0.065541,  0.207803, -0.182428,  0.097063
  7.375825, 11.700648,  0.065112,  0.228144,  0.035380,  0.096786
  7.075115, 11.451327,  0.064195,  0.246909,  0.249894,  0.096548
  6.758672, 11.187980,  0.062794,  0.264005,  0.459393,  0.096351
  6.426751, 10.910737,  0.060919,  0.279350,  0.662224,  0.096196
  6.079604, 10.619733,  0.058579,  0.292870,  0.856811,  0.096085
  5.717478, 10.315097,  0.055785,  0.304508,  1.041672,  0.096017
  5.340618,  9.996960,  0.052548,  0.314214,  1.215422,  0.095993
  4.949262,  9.665450,  0.048882,  0.321953,  1.376792,  0.096012
  4.543645,  9.320693,  0.044801,  0.327701,  1.524631,  0.096075
  4.124000,  8.962817,  0.040320,  0.331445,  1.657922,  0.096179
  3.690803,  8.591946,  0.035456,  0.333186,  1.776060,  0.096325
  3.245324,  8.208203,  0.030226,  0.332935,  1.879086,  0.096509
  2.789681,  7.811710,  0.024648,  0.330716,  1.967341,  0.096730
  2.326307,  7.402590,  0.018742,  0.326564,  2.041166,  0.096986
  1.857646,  6.980962,  0.012527,  0.320525,  2.100890,  0.097274
  1.386136,  6.546945,  0.006024,  0.312656,  2.146838,  0.097591
  0.914197,  6.100657, -0.000747,  0.303022,  2.179325,  0.097934
  0.444223,  5.642215, -0.007764,  0.291702,  2.198661,  0.098301
 -0.021437,  5.171734, -0.015004,  0.278780,  2.205146,  0.098687
 -0.480482,  4.689329, -0.022445,  0.264351,  2.199076,  0.099089
 -0.930677,  4.195113, -0.030065,  0.248516,  2.180739,  0.099504
 -1.369859,  3.689411, -0.037840,  0.231386,  2.150416,  0.099927
 -1.795951,  3.173255, -0.045747,  0.213075,  2.108383,  0.100356
 -2.206965,  2.648466, -0.053762,  0.193706,  2.054909,  0.100787
 -2.601019,  2.117161, -0.061863,  0.173404,  1.990255,  0.101215
 -2.976338,  1.581471, -0.070026,  0.152301,  1.914678,  0.101638
 -3.331267,  1.043529, -0.078227,  0.130529,  1.828430,  0.102052
 -3.664274,  0.505459, -0.086444,  0.108225,  1.731755,  0.102453
 -3.973958, -0.030625, -0.094654,  0.085528,  1.624893,  0.102838
 -4.259054, -0.562636, -0.102834,  0.062575,  1.508078,  0.103205
 -4.518681, -1.088514, -0.110961,  0.039506,  1.381566,  0.103549
 -4.752658, -1.606241, -0.119015,  0.016459,  1.245897,  0.103870
 -4.961292, -2.113843, -0.126974, -0.006432,  1.102106,  0.104163
 -5.144997, -2.609400, -0.134817, -0.029030,  0.951498,  0.104428
 -5.304178, -3.091053, -0.142525, -0.051208,  0.795413,  0.104661
 -5.439237, -3.557010, -0.150077, -0.072836,  0.635219,  0.104861
 -5.550565, -4.005556, -0.157454, -0.093794,  0.472298,  0.105027
 -5.638550, -4.435053, -0.164640, -0.113965,  0.308033,  0.105157
 -5.703573, -4.844334, -0.171616, -0.133239,  0.143801,  0.105251
 -5.746009, -5.233097, -0.178366, -0.151510, -0.019044,  0.105308
 -5.766225, -5.601505, -0.184875, -0.168683, -0.179178,  0.105327
 -5.764585, -5.949751, -0.191128, -0.184667, -0.335319,  0.105308
 -5.741445, -6.278022, -0.197111, -0.199381, -0.486235,  0.105253
 -5.697155, -6.586509, -0.202812, -0.212752, -0.630757,  0.105160
 -5.632062, -6.875397, -0.208219, -0.224716, -0.767783,  0.105030
 -5.546504, -7.144871, -0.213320, -0.235217, -0.896293,  0.104865
 -5.440816, -7.395114, -0.218107, -0.244210, -1.015347,  0.104666
 -5.315327, -7.626307, -0.222570, -0.251657, -1.124101,  0.104434
 -5.170359, -7.838630, -0.226703, -0.257533, -1.221805,  0.104171
 -5.006231, -8.032260, -0.230498, -0.261819, -1.307813,  0.103878
 -4.823255, -8.207374, -0.233950, -0.264508, -1.381583,  0.103557
 -4.621740, -8.364146, -0.237055, -0.265601, -1.442684,  0.103211
 -4.401988, -8.502749, -0.239809, -0.265110, -1.490794,  0.102841
 -4.164298, -8.623354, -0.242210, -0.263055, -1.525703,  0.102450
 -3.909061, -8.726132, -0.244257, -0.259466, -1.547321,  0.102040
 -3.637091, -8.811250, -0.245949, -0.254380, -1.555721,  0.101614
 -3.349769, -8.878874, -0.247288, -0.247845, -1.551136,  0.101173
 -3.048744, -8.929171, -0.248276, -0.239915, -1.533863,  0.100721
 -2.735719, -8.962302, -0.248914, -0.230653, -1.504189,  0.100260
 -2.412432, -8.978430, -0.249208, -0.220128, -1.462434,  0.099792
 -2.080652, -8.977716, -0.249161, -0.208416, -1.409033,  0.099321
 -1.742168, -8.960318, -0.248781, -0.195600, -1.344569,  0.098847
 -1.398781, -8.926394, -0.248072, -0.181768, -1.269732,  0.098374
 -1.052291, -8.876100, -0.247043, -0.167013, -1.185290,  0.097904
 -0.704491, -8.809589, -0.245704, -0.151433, -1.092076,  0.097439
 -0.357158, -8.727015, -0.244063, -0.135128, -0.990986,  0.096984
 -0.012043, -8.628528, -0.242131, -0.118204, -0.882966,  0.096541
  0.329137, -8.514277, -0.239920, -0.100768, -0.769006,  0.096112
  0.664707, -8.384413, -0.237443, -0.082928, -0.650131,  0.095701
  0.993041, -8.239080, -0.234711, -0.064794, -0.527392,  0.095310
  1.312572, -8.078425, -0.231739, -0.046478, -0.401855,  0.094941
  1.621797, -7.902592, -0.228540, -0.028089, -0.274597,  0.094597
  1.919284, -7.711723, -0.225128, -0.009737, -0.146689,  0.094278
  2.203680, -7.505961, -0.221518,  0.008470, -0.019195,  0.093986
  2.473714, -7.285444, -0.217727,  0.026425,  0.106839,  0.093723
  2.728207, -7.050312, -0.213768,  0.044025,  0.230398,  0.093489
  2.966071, -6.800702, -0.209658,  0.061169,  0.350498,  0.093286
  3.186316, -6.536751, -0.205413,  0.077762,  0.466200,  0.093113
  3.388057, -6.258592, -0.201050,  0.093711,  0.576615,  0.092971
  3.570510, -5.966361, -0.196584,  0.108929,  0.680910,  0.092859
  3.733001, -5.660188, -0.192033,  0.123334,  0.778313,  0.092778
  3.874966, -5.340206, -0.187412,  0.136849,  0.868122,  0.092727
  3.995951, -5.006544, -0.182739,  0.149405,  0.949708,  0.092705
  4.095614, -4.659330, -0.178030,  0.160937,  1.022517,  0.092711
  4.173725, -4.298692, -0.173301,  0.171389,  1.086078,  0.092744
  4.230193, -3.924809, -0.168568,  0.180711,  1.140000,  0.092802
  4.265124, -3.538280, -0.163848,  0.188860,  1.183979,  0.092884
  4.278801, -3.140399, -0.159156,  0.195801,  1.217798,  0.092988
  4.271569, -2.732805, -0.154507,  0.201507,  1.241325,  0.093112
  4.243769, -2.317164, -0.149917,  0.205956,  1.254517,  0.093254
  4.195735, -1.895162, -0.145400,  0.209137,  1.257415,  0.093412
  4.127796, -1.468498, -0.140971,  0.211045,  1.250145,  0.093584
  4.040372, -1.038878, -0.136643,  0.211682,  1.232916,  0.093768
  3.934086, -0.608006, -0.132430,  0.211059,  1.206014,  0.093961
  3.809718, -0.177579, -0.128344,  0.209194,  1.169801,  0.094161
  3.668130,  0.250717, -0.124399,  0.206111,  1.124714,  0.094365
  3.510260,  0.675220, -0.120605,  0.201842,  1.071252,  0.094571
  3.337116,  1.094292, -0.116973,  0.196426,  1.009978,  0.094778
  3.149770,  1.506328, -0.113515,  0.189907,  0.941513,  0.094982
  2.949352,  1.909764, -0.110239,  0.182335,  0.866525,  0.095181
  2.737045,  2.303079, -0.107155,  0.173769,  0.785729,  0.095374
  2.514076,  2.684802, -0.104271,  0.164268,  0.699875,  0.095559
  2.281708,  3.053519, -0.101596,  0.153900,  0.609746,  0.095732
  2.041239,  3.407877, -0.099134,  0.142736,  0.516148,  0.095894
  1.793988,  3.746588, -0.096894,  0.130850,  0.419904,  0.096042
  1.541293,  4.068435, -0.094881,  0.118321,  0.321847,  0.096174
  1.284502,  4.372276, -0.093098,  0.105230,  0.222812,  0.096289
  1.024967,  4.657311, -0.091551,  0.091662,  0.123632,  0.096387
  0.764035,  4.923360, -0.090241,  0.077701,  0.025128,  0.096465
  0.503043,  5.170577, -0.089172,  0.063434, -0.071897,  0.096524
  0.243312,  5.399139, -0.088346,  0.048949, -0.166664,  0.096563
 -0.013862,  5.609223, -0.087762,  0.034336, -0.258422,  0.096580
 -0.267210,  5.801005, -0.087422,  0.019680, -0.346458,  0.096577
 -0.515501,  5.974657, -0.087324,  0.005070, -0.430098,  0.096552
 -0.757546,  6.130352, -0.087468, -0.009408, -0.508716,  0.096506
 -0.992200,  6.268260, -0.087851, -0.023670, -0.581734,  0.096439
 -1.218372,  6.388549, -0.088471, -0.037635, -0.648631,  0.096351
 -1.435030,  6.491387, -0.089323, -0.051222, -0.708943,  0.096243
 -1.641199,  6.576937, -0.090405, -0.064356, -0.762266,  0.096116
 -1.835973,  6.645365, -0.091711, -0.076963, -0.808262,  0.095970
 -2.018513,  6.696833, -0.093237, -0.088976, -0.846656,  0.095806
 -2.188056,  6.731501, -0.094975, -0.100329, -0.877240,  0.095626
 -2.343911,  6.749528, -0.096920, -0.110962, -0.899875,  0.095430
 -2.485467,  6.751073, -0.099065, -0.120821, -0.914487,  0.095220
 -2.612193,  6.736291, -0.101402, -0.129856, -0.921073,  0.094998
 -2.723640,  6.705337, -0.103924, -0.138022, -0.919692,  0.094764
 -2.819442,  6.658364, -0.106621, -0.145280, -0.910470,  0.094519
 -2.899315,  6.595525, -0.109484, -0.151599, -0.893597,  0.094267
 -2.963063,  6.516969, -0.112506, -0.156950, -0.869321,  0.094007
 -3.010570,  6.422846, -0.115675, -0.161313, -0.837948,  0.093743
 -3.041808,  6.313302, -0.118983, -0.164672, -0.799840,  0.093474
 -3.056827,  6.188485, -0.122418, -0.167020, -0.755407,  0.093204
 -3.055761,  6.048539, -0.125971, -0.168353, -0.705106,  0.092933
 -3.038825,  5.893607, -0.129630, -0.168675, -0.649436,  0.092662
 -3.006308,  5.723832, -0.133385, -0.167995, -0.588934,  0.092394
 -2.958577,  5.539354, -0.137225, -0.166328, -0.524167,  0.092130
 -2.896069,  5.340312, -0.141139, -0.163694, -0.455730,  0.091871
 -2.819292,  5.126846, -0.145115, -0.160121, -0.384239,  0.091619
 -2.728818,  4.899090, -0.149143, -0.155640, -0.310329,  0.091374
 -2.625283,  4.657181, -0.153210, -0.150287, -0.234642,  0.091137
 -2.509378,  4.401253, -0.157306, -0.144103, -0.157828,  0.090911
 -2.381851,  4.131440, -0.161420, -0.137135, -0.080536,  0.090694
 -2.243496,  3.848063, -0.165541, -0.129432, -0.003409,  0.090490
 -2.095153,  3.551917, -0.169657, -0.121048,  0.072920,  0.090297
 -1.937702,  3.244176, -0.173757, -0.112041,  0.147834,  0.090117
 -1.772057,  2.926128, -0.177832, -0.102469,  0.220736,  0.089950
 -1.599163,  2.599093, -0.181871, -0.092397,  0.291055,  0.089797
 -1.419987,  2.264418, -0.185864, -0.081890,  0.358250,  0.089657
 -1.235517,  1.923470, -0.189800, -0.071014,  0.421811,  0.089530
 -1.046755,  1.577631, -0.193671, -0.059838,  0.481269,  0.089418
 -0.854712,  1.228291, -0.197466, -0.048432,  0.536193,  0.089318
 -0.660402,  0.876847, -0.201177, -0.036865,  0.586196,  0.089233
 -0.464837,  0.524692, -0.204796, -0.025207,  0.630939,  0.089160
 -0.269023,  0.173211, -0.208315, -0.013530,  0.670128,  0.089099
 -0.073954, -0.176220, -0.211725, -0.001901,  0.703523,  0.089050
  0.119393, -0.522245, -0.215019,  0.009610,  0.730932,  0.089013
  0.310060, -0.863531, -0.218191,  0.020937,  0.752217,  0.088986
  0.497119, -1.198772, -0.221233,  0.032014,  0.767291,  0.088969
  0.679668, -1.526697, -0.224141,  0.042780,  0.776121,  0.088961
  0.856842, -1.846069, -0.226908,  0.053173,  0.778726,  0.088961
  1.027814, -2.155697, -0.229530,  0.063137,  0.775174,  0.088968
  1.191799, -2.454434, -0.232002,  0.072616,  0.765585,  0.088981
  1.348056, -2.741185, -0.234320,  0.081561,  0.750125,  0.088999
  1.495896, -3.014910, -0.236481,  0.089924,  0.729009,  0.089021
  1.634677, -3.274627, -0.238481,  0.097663,  0.702493,  0.089046
  1.763814, -3.519415, -0.240319,  0.104737,  0.670875,  0.089073
  1.882779, -3.748420, -0.241992,  0.111113,  0.634490,  0.089101
  1.991100, -3.960854, -0.243499,  0.116761,  0.593707,  0.089128
  2.088365, -4.156000, -0.244839,  0.121656,  0.548928,  0.089155
  2.174226, -4.333240, -0.246012,  0.125776,  0.500580,  0.089179
  2.248394, -4.492219, -0.247017,  0.129106,  0.449115,  0.089200
  2.310644, -4.632947, -0.247857,  0.131635,  0.395002,  0.089217
  2.360815, -4.755597, -0.248531,  0.133357,  0.338728,  0.089229
  2.398809, -4.860338, -0.249041,  0.134270,  0.280788,  0.089235
  2.424589, -4.947338, -0.249389,  0.134378,  0.221685,  0.089235
  2.438183, -5.016766, -0.249578,  0.133690,  0.161924,  0.089228
  2.439677, -5.068786, -0.249611,  0.132218,  0.102008,  0.089213
  2.429221, -5.103562, -0.249491,  0.129980,  0.042434,  0.089190
  2.407021, -5.121256, -0.249222,  0.126996, -0.016310,  0.089158
  2.373339, -5.122030, -0.248808,  0.123295, -0.073752,  0.089117
  2.328494, -5.106043, -0.248254,  0.118904, -0.129436,  0.089066
  2.272856, -5.073453, -0.247564,  0.113858, -0.182927,  0.089006
  2.206845, -5.024415, -0.246745,  0.108194, -0.233815,  0.088936
  2.130929, -4.959085, -0.245800,  0.101952, -0.281718,  0.088856
  2.045617, -4.877616, -0.244738,  0.095175, -0.326283,  0.088767
  1.951463, -4.780160, -0.243562,  0.087911, -0.367190,  0.088667
  1.849057, -4.666868, -0.242281,  0.080206, -0.404153,  0.088558
  1.739021, -4.537888, -0.240900,  0.072111, -0.436925,  0.088440
  1.622011, -4.393369, -0.239426,  0.063680, -0.465295,  0.088313
  1.498707, -4.233457, -0.237867,  0.054964, -0.489092,  0.088177
  1.369814, -4.058332, -0.236229,  0.046020, -0.508185,  0.088033
  1.236056, -3.868386, -0.234521,  0.036902, -0.522485,  0.087881
  1.098170, -3.664342, -0.232748,  0.027667, -0.531941,  0.087722
  0.956908, -3.447098, -0.230920,  0.018370, -0.536546,  0.087556
  0.813027, -3.217597, -0.229043,  0.009067, -0.536331,  0.087384
  0.667287, -2.976826, -0.227125, -0.000187, -0.531366,  0.087207
  0.520449, -2.725808, -0.225173, -0.009337, -0.521761,  0.087024
  0.373269, -2.465599, -0.223196, -0.018330, -0.507661,  0.086838
  0.226496, -2.197284, -0.221201, -0.027116, -0.489248,  0.086649
  0.080866, -1.921971, -0.219196, -0.035644, -0.466734,  0.086456
 -0.062899, -1.640789, -0.217187, -0.043867, -0.440364,  0.086262
 -0.204098, -1.354881, -0.215183, -0.051739, -0.410411,  0.086067
 -0.342049, -1.065402, -0.213190, -0.059217, -0.377172,  0.085871
 -0.476097, -0.773510, -0.211217, -0.066263, -0.340970,  0.085675
 -0.605616, -0.480368, -0.209269, -0.072838, -0.302144,  0.085479
 -0.730008, -0.187133, -0.207354, -0.078909, -0.261052,  0.085286
 -0.848713,  0.105046, -0.205477, -0.084446, -0.218065,  0.085094
 -0.961202,  0.395030, -0.203647, -0.089422, -0.173564,  0.084905
 -1.066989,  0.681698, -0.201868, -0.093814, -0.127939,  0.084719
 -1.165625,  0.963950, -0.200147, -0.097601, -0.081580,  0.084537
 -1.256703,  1.240712, -0.198490, -0.100769, -0.034879,  0.084359
 -1.339862,  1.510936, -0.196901, -0.103306,  0.011772,  0.084185
 -1.414784,  1.773611, -0.195387, -0.105203,  0.057993,  0.084016
 -1.481195,  2.027759, -0.193951, -0.106456,  0.103407,  0.083852
 -1.538872,  2.272445, -0.192598, -0.107065,  0.147653,  0.083694
 -1.587635,  2.506777, -0.191333, -0.107034,  0.190383,  0.083542
 -1.627353,  2.729910, -0.190160, -0.106369,  0.231268,  0.083395
 -1.657943,  2.941048, -0.189081, -0.105082,  0.269997,  0.083254
 -1.679368,  3.139447, -0.188101, -0.103187,  0.306284,  0.083119
 -1.691638,  3.324422, -0.187222, -0.100703,  0.339864,  0.082990
 -1.694812,  3.495341, -0.186446, -0.097649,  0.370502,  0.082867
 -1.688989,  3.651634, -0.185777, -0.094052,  0.397986,  0.082749
 -1.674316,  3.792792, -0.185215, -0.089937,  0.422137,  0.082637
 -1.650983,  3.918369, -0.184762, -0.085336,  0.442805,  0.082531
 -1.619220,  4.027983, -0.184420, -0.080281,  0.459869,  0.082429
 -1.579296,  4.121316, -0.184188, -0.074806,  0.473243,  0.082333
 -1.531519,  4.198119, -0.184068, -0.068949,  0.482869,  0.082241
 -1.476233,  4.258213, -0.184060, -0.062748,  0.488724,  0.082153
 -1.413816,  4.301542, -0.184163, -0.056245,  0.490813,  0.082069
 -1.344675,  4.328201, -0.184377, -0.049481,  0.489176,  0.081988
 -1.269247,  4.338347, -0.184701, -0.042498,  0.483879,  0.081911
 -1.187996,  4.332137, -0.185133, -0.035342,  0.475021,  0.081836
 -1.101408,  4.309726, -0.185672, -0.028055,  0.462726,  0.081763
 -1.009990,  4.271267, -0.186317, -0.020683,  0.447147,  0.081691
 -0.914269,  4.216912, -0.187064, -0.013270,  0.428459,  0.081621
 -0.814784,  4.146839, -0.187913, -0.005860,  0.406862,  0.081551
 -0.712088,  4.061326, -0.188859,  0.001502,  0.382577,  0.081482
 -0.606742,  3.960785, -0.189900,  0.008774,  0.355845,  0.081412
 -0.499314,  3.845718, -0.191033,  0.015914,  0.326921,  0.081341
 -0.390375,  3.716677, -0.192254,  0.022880,  0.296076,  0.081269
 -0.280495,  3.574269, -0.193560,  0.029634,  0.263593,  0.081196
 -0.170244,  3.419147, -0.194946,  0.036138,  0.229764,  0.081120
 -0.060184,  3.252008, -0.196409,  0.042356,  0.194888,  0.081042
  0.049130,  3.073595, -0.197945,  0.048254,  0.159268,  0.080962
  0.157153,  2.884686, -0.199548,  0.053802,  0.123211,  0.080878
  0.263356,  2.686096, -0.201215,  0.058969,  0.087019,  0.080790
  0.367223,  2.478674, -0.202940,  0.063731,  0.050993,  0.080699
  0.468260,  2.263296, -0.204719,  0.068062,  0.015430,  0.080604
  0.565991,  2.040862, -0.206547,  0.071943, -0.019384,  0.080505
  0.659963,  1.812295, -0.208419,  0.075355, -0.053172,  0.080401
  0.749750,  1.578536, -0.210329,  0.078283, -0.085670,  0.080293
  0.834949,  1.340537, -0.212273,  0.080715, -0.116627,  0.080180
  0.915190,  1.099263, -0.214246,  0.082643, -0.145811,  0.080063
  0.990129,  0.855684, -0.216242,  0.084060, -0.173006,  0.079941
  1.059455,  0.610770, -0.218256,  0.084964, -0.198015,  0.079814
  1.122888,  0.365493, -0.220283,  0.085355, -0.220664,  0.079683
  1.180184,  0.120818, -0.222317,  0.085236, -0.240799,  0.079547
  1.231132, -0.122301, -0.224354,  0.084614, -0.258290,  0.079406
  1.275554, -0.362919, -0.226389,  0.083498, -0.273031,  0.079261
  1.313309, -0.600111, -0.228416,  0.081900, -0.284940,  0.079112
  1.344292, -0.832971, -0.230431,  0.079835, -0.293958,  0.078959
  1.368433, -1.060615, -0.232429,  0.077321, -0.300053,  0.078803
  1.385696, -1.282187, -0.234405,  0.074376, -0.303216,  0.078642
  1.396084, -1.496861, -0.236354,  0.071024, -0.303463,  0.078479
  1.399631, -1.703842, -0.238272,  0.067288, -0.300834,  0.078312
  1.396406, -1.902374, -0.240156,  0.063195, -0.295391,  0.078143
  1.386514, -2.091736, -0.242000,  0.058774, -0.287220,  0.077971
  1.370088, -2.271251, -0.243801,  0.054054, -0.276427,  0.077797
  1.347296, -2.440283, -0.245554,  0.049065, -0.263138,  0.077621
  1.318334, -2.598243, -0.247258,  0.043842, -0.247499,  0.077444
  1.283428, -2.744590, -0.248907,  0.038417, -0.229672,  0.077266
  1.242830, -2.878831, -0.250498,  0.032824, -0.209836,  0.077086
  1.196819, -3.000525, -0.252030,  0.027099, -0.188182,  0.076907
  1.145695, -3.109282, -0.253499,  0.021277, -0.164915,  0.076727
  1.089783, -3.204767, -0.254902,  0.015394, -0.140250,  0.076547
  1.029427, -3.286698, -0.256237,  0.009484, -0.114410,  0.076367
  0.964988, -3.354850, -0.257503,  0.003583, -0.087625,  0.076188
  0.896844, -3.409053, -0.258697, -0.002273, -0.060128,  0.076010
  0.825387, -3.449190, -0.259817, -0.008051, -0.032157,  0.075833
  0.751021, -3.475205, -0.260862, -0.013718, -0.003948,  0.075657
  0.674158, -3.487094, -0.261832, -0.019240,  0.024262,  0.075483
  0.595219, -3.484909, -0.262725, -0.024588,  0.052243,  0.075311
  0.514628, -3.468758, -0.263540, -0.029731,  0.079766,  0.075141
  0.432814, -3.438803, -0.264278, -0.034641,  0.106611,  0.074973
  0.350207, -3.395258, -0.264937, -0.039292,  0.132569,  0.074806
  0.267232, -3.338390, -0.265518, -0.043658,  0.157437,  0.074643
  0.184314, -3.268513, -0.266022, -0.047718,  0.181027,  0.074481
  0.101871, -3.185995, -0.266448, -0.051451,  0.203164,  0.074322
  0.020312, -3.091248, -0.266798, -0.054838,  0.223686,  0.074165
 -0.059961, -2.984728, -0.267072, -0.057862,  0.242447,  0.074011
 -0.138560, -2.866937, -0.267272, -0.060511,  0.259319,  0.073859
 -0.215111, -2.738414, -0.267398, -0.062772,  0.274191,  0.073709
 -0.289253, -2.599740, -0.267453, -0.064637,  0.286969,  0.073562
 -0.360642, -2.451530, -0.267439, -0.066098,  0.297579,  0.073417
 -0.428955, -2.294431, -0.267356, -0.067152,  0.305965,  0.073274
 -0.493885, -2.129121, -0.267208, -0.067797,  0.312089,  0.073132
 -0.555150, -1.956307, -0.266996, -0.068033,  0.315936,  0.072993
 -0.612486, -1.776719, -0.266723, -0.067864,  0.317506,  0.072855
 -0.665657, -1.591108, -0.266391, -0.067295,  0.316821,  0.072719
 -0.714446, -1.400245, -0.266004, -0.066334,  0.313917,  0.072583
 -0.758666, -1.204913, -0.265564, -0.064991,  0.308853,  0.072449
 -0.798151, -1.005911, -0.265073, -0.063278,  0.301701,  0.072316
 -0.832764, -0.804044, -0.264536, -0.061210,  0.292552,  0.072184
 -0.862393, -0.600124, -0.263955, -0.058802,  0.281509,  0.072052
 -0.886954, -0.394964, -0.263333, -0.056072,  0.268692,  0.071920
 -0.906389, -0.189376, -0.262674, -0.053041,  0.254232,  0.071788
 -0.920666,  0.015829, -0.261981, -0.049730,  0.238273,  0.071656
 -0.929781,  0.219851, -0.261257, -0.046160,  0.220969,  0.071524
 -0.933754,  0.421898, -0.260507, -0.042357,  0.202481,  0.071391
 -0.932633,  0.621192, -0.259733, -0.038346,  0.182981,  0.071257
 -0.926490,  0.816972, -0.258939, -0.034151,  0.162643,  0.071122
 -0.915421,  1.008496, -0.258129, -0.029801,  0.141649,  0.070986
 -0.899547,  1.195042, -0.257305, -0.025323,  0.120180,  0.070849
 -0.879011,  1.375914, -0.256473, -0.020744,  0.098422,  0.070710
 -0.853977,  1.550445, -0.255634, -0.016093,  0.076558,  0.070569
 -0.824632,  1.717994, -0.254793, -0.011399,  0.054771,  0.070427
 -0.791180,  1.877954, -0.253953, -0.006689,  0.033239,  0.070282
 -0.753843,  2.029752, -0.253118, -0.001991,  0.012136,  0.070136
 -0.712863,  2.172850, -0.252290,  0.002667, -0.008368,  0.069987
 -0.668493,  2.306750, -0.251472,  0.007257, -0.028115,  0.069836
 -0.621003,  2.430992, -0.250669,  0.011753, -0.046950,  0.069683
 -0.570675,  2.545156, -0.249883,  0.016130, -0.064732,  0.069528
 -0.517799,  2.648867, -0.249118,  0.020364, -0.081329,  0.069370
 -0.462678,  2.741793, -0.248375,  0.024430, -0.096621,  0.069209
 -0.405619,  2.823644, -0.247657,  0.028306, -0.110500,  0.069047
 -0.346938,  2.894179, -0.246968,  0.031972, -0.122873,  0.068882
 -0.286952,  2.953202, -0.246310,  0.035408, -0.133658,  0.068714
 -0.225983,  3.000562, -0.245685,  0.038596, -0.142789,  0.068544
 -0.164353,  3.036157, -0.245096,  0.041521, -0.150215,  0.068372
 -0.102383,  3.059931, -0.244544,  0.044167, -0.155898,  0.068198
 -0.040392,  3.071873, -0.244032,  0.046523, -0.159818,  0.068022
  0.021306,  3.072021, -0.243561,  0.048578, -0.161965,  0.067844
  0.082402,  3.060459, -0.243133,  0.050322, -0.162350,  0.067663
  0.142593,  3.037313, -0.242749,  0.051749, -0.160992,  0.067481
  0.201587,  3.002758, -0.242412,  0.052854, -0.157929,  0.067298
  0.259098,  2.957010, -0.242121,  0.053633, -0.153210,  0.067113
  0.314855,  2.900327, -0.241878,  0.054087, -0.146898,  0.066926
  0.368597,  2.833009, -0.241685,  0.054215, -0.139067,  0.066738
  0.420077,  2.755395, -0.241540,  0.054021, -0.129804,  0.066549
  0.469064,  2.667864, -0.241446,  0.053510, -0.119206,  0.066359
  0.515341,  2.570828, -0.241403,  0.052687, -0.107378,  0.066169
  0.558707,  2.464735, -0.241410,  0.051562, -0.094437,  0.065977
  0.598981,  2.350066, -0.241468,  0.050144, -0.080505,  0.065785
  0.635998,  2.227331, -0.241577,  0.048444, -0.065711,  0.065593
  0.669611,  2.097069, -0.241736,  0.046477, -0.050188,  0.065400
  0.699693,  1.959844, -0.241945,  0.044256, -0.034076,  0.065207
  0.726137,  1.816244, -0.242204,  0.041798, -0.017515,  0.065014
  0.748855,  1.666877, -0.242511,  0.039120, -0.000648,  0.064822
  0.767780,  1.512369, -0.242866,  0.036240,  0.016381,  0.064629
  0.782863,  1.353364, -0.243268,  0.033177,  0.033430,  0.064437
  0.794078,  1.190517, -0.243716,  0.029951,  0.050359,  0.064245
  0.801415,  1.024494, -0.244208,  0.026584,  0.067029,  0.064054
  0.804888,  0.855968, -0.244744,  0.023097,  0.083307,  0.063863
  0.804528,  0.685619, -0.245321,  0.019512,  0.099065,  0.063673
  0.800385,  0.514128, -0.245938,  0.015851,  0.114181,  0.063483
  0.792528,  0.342176, -0.246594,  0.012136,  0.128539,  0.063295
  0.781043,  0.170440, -0.247287,  0.008391,  0.142032,  0.063107
  0.766035, -0.000407, -0.248014,  0.004638,  0.154562,  0.062920
  0.747623, -0.169702, -0.248774,  0.000898,  0.166039,  0.062733
  0.725945, -0.336790, -0.249564, -0.002805,  0.176385,  0.062547
  0.701151, -0.501032, -0.250383, -0.006451,  0.185531,  0.062363
  0.673405, -0.661805, -0.251229, -0.010018,  0.193418,  0.062178
  0.642885, -0.818500, -0.252099, -0.013486,  0.200000,  0.061995
  0.609780, -0.970533, -0.252991, -0.016837,  0.205242,  0.061812
  0.574290, -1.117339, -0.253902, -0.020050,  0.209121,  0.061630
  0.536625, -1.258381, -0.254831, -0.023109,  0.211623,  0.061449
  0.497002, -1.393144, -0.255775, -0.025998,  0.212750,  0.061268
  0.455645, -1.521145, -0.256731, -0.028701,  0.212511,  0.061087
  0.412786, -1.641928, -0.257697, -0.031204,  0.210928,  0.060907
  0.368659, -1.755072, -0.258671, -0.033495,  0.208034,  0.060727
  0.323504, -1.860185, -0.259651, -0.035562,  0.203873,  0.060547
  0.277560, -1.956913, -0.260633, -0.037395,  0.198496,  0.060368
  0.231069, -2.044934, -0.261616, -0.038987,  0.191967,  0.060188
  0.184273, -2.123964, -0.262597, -0.040331,  0.184355,  0.060008
  0.137411, -2.193757, -0.263574, -0.041421,  0.175739,  0.059828
  0.090720, -2.254104, -0.264544, -0.042254,  0.166206,  0.059648
  0.044434, -2.304835, -0.265506, -0.042827,  0.155847,  0.059467
 -0.001221, -2.345817, -0.266458, -0.043141,  0.144760,  0.059286
 -0.046021, -2.376960, -0.267396, -0.043195,  0.133046,  0.059104
 -0.089754, -2.398210, -0.268320, -0.042994,  0.120813,  0.058922
 -0.132211, -2.409552, -0.269226, -0.042540,  0.108167,  0.058739
 -0.173196, -2.411013, -0.270114, -0.041839,  0.095220,  0.058555
 -0.212522, -2.402656, -0.270981, -0.040899,  0.082083,  0.058370
 -0.250012, -2.384583, -0.271826, -0.039726,  0.068868,  0.058184
 -0.285500, -2.356933, -0.272646, -0.038332,  0.055684,  0.057997
 -0.318835, -2.319880, -0.273441, -0.036726,  0.042639,  0.057809
 -0.349877, -2.273638, -0.274209, -0.034921,  0.029840,  0.057620
 -0.378498, -2.218452, -0.274948, -0.032928,  0.017389,  0.057430
 -0.404587, -2.154600, -0.275658, -0.030763,  0.005383,  0.057238
 -0.428046, -2.082395, -0.276336, -0.028440, -0.006084,  0.057045
 -0.448789, -2.002177, -0.276983, -0.025974, -0.016926,  0.056850
 -0.466750, -1.914319, -0.277596, -0.023381, -0.027063,  0.056654
 -0.481873, -1.819217, -0.278176, -0.020679, -0.036421,  0.056457
 -0.494120, -1.717296, -0.278720, -0.017884, -0.044934,  0.056258
 -0.503466, -1.609003, -0.279230, -0.015015, -0.052544,  0.056058
 -0.509904, -1.494807, -0.279703, -0.012088, -0.059200,  0.055857
 -0.513439, -1.375198, -0.280141, -0.009122, -0.064863,  0.055654
 -0.514092, -1.250683, -0.280541, -0.006135, -0.069498,  0.055450
 -0.511897, -1.121783, -0.280905, -0.003145, -0.073084,  0.055245
 -0.506904, -0.989036, -0.281232, -0.000169, -0.075606,  0.055038
 -0.499174, -0.852989, -0.281523,  0.002775, -0.077057,  0.054830
 -0.488784, -0.714198, -0.281776,  0.005670, -0.077442,  0.054621
 -0.475820, -0.573226, -0.281993,  0.008500, -0.076772,  0.054410
 -0.460384, -0.430642, -0.282174,  0.011248, -0.075068,  0.054199
 -0.442586, -0.287015, -0.282319,  0.013899, -0.072360,  0.053986
 -0.422547, -0.142917, -0.282428,  0.016438, -0.068684,  0.053772
 -0.400398,  0.001086, -0.282503,  0.018852, -0.064084,  0.053558
 -0.376281,  0.144429, -0.282544,  0.021127, -0.058612,  0.053342
 -0.350343,  0.286555, -0.282552,  0.023253, -0.052324,  0.053126
 -0.322740,  0.426916, -0.282528,  0.025217, -0.045286,  0.052909
 -0.293635,  0.564974, -0.282473,  0.027010, -0.037565,  0.052691
 -0.263195,  0.700203, -0.282387,  0.028623, -0.029235,  0.052473
 -0.231592,  0.832095, -0.282272,  0.030049, -0.020374,  0.052254
 -0.199001,  0.960155, -0.282129,  0.031282, -0.011062,  0.052034
 -0.165603,  1.083909, -0.281960,  0.032316, -0.001383,  0.051814
 -0.131577,  1.202903, -0.281765,  0.033147,  0.008578,  0.051594
 -0.097104,  1.316702, -0.281546,  0.033772,  0.018736,  0.051373
 -0.062366,  1.424899, -0.281304,  0.034191,  0.029004,  0.051152
 -0.027543,  1.527108, -0.281041,  0.034403,  0.039294,  0.050931
  0.007188,  1.622971, -0.280759,  0.034408,  0.049523,  0.050710
  0.041649,  1.712158, -0.280458,  0.034210,  0.059607,  0.050488
  0.075670,  1.794366, -0.280141,  0.033812,  0.069464,  0.050267
  0.109083,  1.869322, -0.279809,  0.033218,  0.079017,  0.050045
  0.141725,  1.936783, -0.279463,  0.032434,  0.088192,  0.049823
  0.173441,  1.996539, -0.279106,  0.031466,  0.096918,  0.049602
  0.204081,  2.048409, -0.278738,  0.030323,  0.105129,  0.049380
  0.233502,  2.092246, -0.278362,  0.029013,  0.112766,  0.049158
  0.261571,  2.127935, -0.277979,  0.027546,  0.119774,  0.048936
  0.288162,  2.155394, -0.277591,  0.025932,  0.126104,  0.048715
  0.313158,  2.174573, -0.277199,  0.024183,  0.131713,  0.048493
  0.336452,  2.185456, -0.276805,  0.022309,  0.136567,  0.048272
  0.357948,  2.188059, -0.276410,  0.020325,  0.140635,  0.048050
  0.377558,  2.182430, -0.276017,  0.018242,  0.143897,  0.047828
  0.395207,  2.168650, -0.275626,  0.016074,  0.146335,  0.047607
  0.410830,  2.146831, -0.275239,  0.013834,  0.147943,  0.047385
  0.424372,  2.117115, -0.274858,  0.011538,  0.148718,  0.047163
  0.435791,  2.079674, -0.274484,  0.009199,  0.148668,  0.046941
  0.445055,  2.034710, -0.274118,  0.006831,  0.147803,  0.046719
  0.452145,  1.982453, -0.273762,  0.004449,  0.146143,  0.046497
  0.457051,  1.923160, -0.273417,  0.002067,  0.143713,  0.046275
  0.459775,  1.857111, -0.273084, -0.000301,  0.140544,  0.046052
  0.460330,  1.784616, -0.272764, -0.002641,  0.136674,  0.045830
  0.458741,  1.706003, -0.272459, -0.004939,  0.132143,  0.045606
  0.455043,  1.621624, -0.272170, -0.007183,  0.126999,  0.045383
  0.449279,  1.531851, -0.271896, -0.009359,  0.121293,  0.045159
  0.441505,  1.437074, -0.271641, -0.011456,  0.115081,  0.044934
  0.431784,  1.337701, -0.271403, -0.013462,  0.108420,  0.044710
  0.420190,  1.234153, -0.271184, -0.015366,  0.101373,  0.044484
  0.406805,  1.126867, -0.270985, -0.017158,  0.094002,  0.044258
  0.391717,  1.016289, -0.270807, -0.018829,  0.086374,  0.044031
  0.375025,  0.902878, -0.270649, -0.020370,  0.078554,  0.043804
  0.356832,  0.787096, -0.270513, -0.021773,  0.070611,  0.043576
  0.337248,  0.669417, -0.270398, -0.023031,  0.062611,  0.043347
  0.316389,  0.550314, -0.270305, -0.024140,  0.054620,  0.043117
  0.294376,  0.430265, -0.270235, -0.025093,  0.046706,  0.042887
  0.271334,  0.309747, -0.270187, -0.025887,  0.038931,  0.042656
  0.247392,  0.189237, -0.270162, -0.026519,  0.031358,  0.042424
  0.222681,  0.069207, -0.270159, -0.026987,  0.024047,  0.042191
  0.197334, -0.049875, -0.270179, -0.027291,  0.017053,  0.041957
  0.171487, -0.167548, -0.270222, -0.027429,  0.010430,  0.041722
  0.145277, -0.283362, -0.270287, -0.027403,  0.004227,  0.041486
  0.118838, -0.396875, -0.270374, -0.027216, -0.001512,  0.041249
  0.092307, -0.507657, -0.270482, -0.026869, -0.006745,  0.041012
  0.065818, -0.615294, -0.270612, -0.026368, -0.011437,  0.040773
  0.039502, -0.719386, -0.270763, -0.025715, -0.015557,  0.040533
  0.013490, -0.819548, -0.270934, -0.024918, -0.019079,  0.040293
 -0.012092, -0.915417, -0.271125, -0.023982, -0.021984,  0.040051
 -0.037121, -1.006645, -0.271335, -0.022915, -0.024256,  0.039809
 -0.061480, -1.092908, -0.271563, -0.021723, -0.025885,  0.039565
 -0.085054, -1.173903, -0.271810, -0.020416, -0.026869,  0.039321
 -0.107736, -1.249349, -0.272073, -0.019003, -0.027208,  0.039076
 -0.129424, -1.318989, -0.272352, -0.017493, -0.026908,  0.038829
 -0.150022, -1.382591, -0.272647, -0.015896, -0.025982,  0.038582
 -0.169442, -1.439947, -0.272956, -0.014223, -0.024447,  0.038334
 -0.187601, -1.490877, -0.273279, -0.012484, -0.022324,  0.038086
 -0.204425, -1.535227, -0.273614, -0.010690, -0.019639,  0.037836
 -0.219848, -1.572868, -0.273960, -0.008853, -0.016422,  0.037586
 -0.233811, -1.603700, -0.274317, -0.006984, -0.012709,  0.037335
 -0.246263, -1.627650, -0.274683, -0.005094, -0.008536,  0.037083
 -0.257162, -1.644674, -0.275058, -0.003195, -0.003946,  0.036831
 -0.266475, -1.654751, -0.275440, -0.001298,  0.001019,  0.036578
 -0.274175, -1.657893, -0.275828,  0.000586,  0.006310,  0.036324
 -0.280246, -1.654135, -0.276220,  0.002445,  0.011881,  0.036070
 -0.284680, -1.643541, -0.276617,  0.004270,  0.017680,  0.035815
 -0.287476, -1.626201, -0.277017,  0.006049,  0.023656,  0.035559
 -0.288643, -1.602229, -0.277418,  0.007772,  0.029758,  0.035304
 -0.288197, -1.571766, -0.277820,  0.009430,  0.035933,  0.035047
 -0.286162, -1.534979, -0.278222,  0.011015,  0.042128,  0.034790
 -0.282571, -1.492054, -0.278622,  0.012516,  0.048293,  0.034533
 -0.277463, -1.443204, -0.279019,  0.013927,  0.054377,  0.034275
 -0.270884, -1.388663, -0.279412,  0.015240,  0.060331,  0.034017
 -0.262889, -1.328683, -0.279801,  0.016447,  0.066106,  0.033758
 -0.253537, -1.263539, -0.280184,  0.017545,  0.071659,  0.033500
 -0.242894, -1.193522, -0.280561,  0.018526,  0.076946,  0.033240
 -0.231032, -1.118940, -0.280929,  0.019387,  0.081927,  0.032981
 -0.218028, -1.040120, -0.281289,  0.020123,  0.086565,  0.032721
 -0.203964, -0.957398, -0.281640,  0.020732,  0.090828,  0.032460
 -0.188925, -0.871128, -0.281980,  0.021212,  0.094684,  0.032200
 -0.173003, -0.781672, -0.282309,  0.021561,  0.098109,  0.031939
 -0.156290, -0.689404, -0.282626,  0.021778,  0.101079,  0.031677
 -0.138882, -0.594704, -0.282931,  0.021864,  0.103577,  0.031416
 -0.120877, -0.497962, -0.283222,  0.021820,  0.105588,  0.031154
 -0.102376, -0.399571, -0.283499,  0.021647,  0.107104,  0.030891
 -0.083480, -0.299929, -0.283762,  0.021348,  0.108117,  0.030629
 -0.064290, -0.199434, -0.284009,  0.020926,  0.108628,  0.030366
 -0.044909, -0.098487, -0.284241,  0.020384,  0.108639,  0.030102
 -0.025440,  0.002513, -0.284457,  0.019728,  0.108156,  0.029839
 -0.005982,  0.103170, -0.284656,  0.018962,  0.107191,  0.029574
  0.013365,  0.203092, -0.284838,  0.018093,  0.105759,  0.029310
  0.032503,  0.301892, -0.285004,  0.017126,  0.103877,  0.029045
  0.051336,  0.399191, -0.285151,  0.016068,  0.101568,  0.028779
  0.069772,  0.494617, -0.285282,  0.014927,  0.098856,  0.028513
  0.087721,  0.587811, -0.285394,  0.013710,  0.095770,  0.028247
  0.105098,  0.678422, -0.285489,  0.012426,  0.092340,  0.027980
  0.121820,  0.766114, -0.285565,  0.011082,  0.088599,  0.027712
  0.137811,  0.850563, -0.285624,  0.009688,  0.084583,  0.027444
  0.152997,  0.931461, -0.285665,  0.008251,  0.080327,  0.027176
  0.167311,  1.008516, -0.285689,  0.006782,  0.075871,  0.026907
  0.180689,  1.081454, -0.285694,  0.005288,  0.071254,  0.026637
  0.193076,  1.150016, -0.285682,  0.003780,  0.066516,  0.026366
  0.204420,  1.213966, -0.285653,  0.002267,  0.061697,  0.026095
  0.214675,  1.273085, -0.285608,  0.000756,  0.056839,  0.025824
  0.223803,  1.327175, -0.285545, -0.000742,  0.051981,  0.025551
  0.231770,  1.376061, -0.285467, -0.002219,  0.047164,  0.025278
  0.238549,  1.419586, -0.285372, -0.003667,  0.042425,  0.025004
  0.244122,  1.457619, -0.285263, -0.005077,  0.037804,  0.024730
  0.248472,  1.490049, -0.285138, -0.006442,  0.033336,  0.024455
  0.251593,  1.516788, -0.284999, -0.007753,  0.029055,  0.024179
  0.253484,  1.537772, -0.284846, -0.009004,  0.024993,  0.023902
  0.254149,  1.552959, -0.284680, -0.010187,  0.021182,  0.023624
  0.253599,  1.562331, -0.284502, -0.011298,  0.017648,  0.023346
  0.251851,  1.565891, -0.284311, -0.012329,  0.014415,  0.023067
  0.248929,  1.563668, -0.284109, -0.013275,  0.011507,  0.022787
  0.244861,  1.555710, -0.283896, -0.014133,  0.008942,  0.022507
  0.239681,  1.542090, -0.283673, -0.014897,  0.006737,  0.022225
  0.233427,  1.522900, -0.283441, -0.015565,  0.004902,  0.021943
  0.226145,  1.498256, -0.283201, -0.016134,  0.003449,  0.021660
  0.217882,  1.468292, -0.282952, -0.016600,  0.002383,  0.021376
  0.208692,  1.433164, -0.282697, -0.016963,  0.001708,  0.021092
  0.198631,  1.393045, -0.282435, -0.017222,  0.001422,  0.020807
  0.187761,  1.348130, -0.282167, -0.017376,  0.001522,  0.020521
  0.176145,  1.298626, -0.281894, -0.017425,  0.002002,  0.020234
  0.163851,  1.244762, -0.281618, -0.017371,  0.002851,  0.019946
  0.150948,  1.186778, -0.281338, -0.017214,  0.004058,  0.019658
  0.137507,  1.124932, -0.281055, -0.016957,  0.005606,  0.019369
  0.123602,  1.059494, -0.280771, -0.016603,  0.007477,  0.019080
  0.109307,  0.990744, -0.280485, -0.016154,  0.009652,  0.018789
  0.094700,  0.918977, -0.280199, -0.015615,  0.012107,  0.018498
  0.079856,  0.844495, -0.279913, -0.014989,  0.014817,  0.018207
  0.064852,  0.767609, -0.279629, -0.014282,  0.017758,  0.017914
  0.049764,  0.688638, -0.279345, -0.013497,  0.020899,  0.017621
  0.034668,  0.607906, -0.279065, -0.012642,  0.024213,  0.017328
  0.019640,  0.525742, -0.278787, -0.011721,  0.027669,  0.017034
  0.004753,  0.442478, -0.278512, -0.010741,  0.031236,  0.016739
 -0.009921,  0.358450, -0.278242, -0.009708,  0.034884,  0.016444
 -0.024312,  0.273990, -0.277977, -0.008629,  0.038579,  0.016148
 -0.038352,  0.189435, -0.277716, -0.007511,  0.042291,  0.015851
 -0.051977,  0.105116, -0.277462, -0.006361,  0.045989,  0.015554
 -0.065124,  0.021363, -0.277213, -0.005186,  0.049641,  0.015257
 -0.077734, -0.061502, -0.276972, -0.003993,  0.053219,  0.014958
 -0.089752, -0.143158, -0.276737, -0.002790,  0.056692,  0.014660
 -0.101126, -0.223294, -0.276510, -0.001584,  0.060035,  0.014361
 -0.111809, -0.301606, -0.276291, -0.000381,  0.063220,  0.014061
 -0.121757, -0.377801, -0.276081,  0.000810,  0.066223,  0.013761
 -0.130930, -0.451594, -0.275878,  0.001984,  0.069022,  0.013460
 -0.139294, -0.522714, -0.275684,  0.003132,  0.071596,  0.013159
 -0.146818, -0.590899, -0.275500,  0.004250,  0.073928,  0.012857
 -0.153477, -0.655904, -0.275324,  0.005330,  0.076000,  0.012555
 -0.159250, -0.717496, -0.275158,  0.006366,  0.077799,  0.012253
 -0.164120, -0.775457, -0.275001,  0.007353,  0.079314,  0.011950
 -0.168075, -0.829587, -0.274854,  0.008286,  0.080536,  0.011646
 -0.171110, -0.879698, -0.274716,  0.009160,  0.081459,  0.011342
 -0.173222, -0.925625, -0.274588,  0.009969,  0.082079,  0.011037
 -0.174413, -0.967215, -0.274469,  0.010711,  0.082395,  0.010732
 -0.174692, -1.004337, -0.274360,  0.011381,  0.082408,  0.010427
 -0.174070, -1.036876, -0.274260,  0.011976,  0.082122,  0.010121
 -0.172564, -1.064738, -0.274169,  0.012494,  0.081544,  0.009814
 -0.170193, -1.087846, -0.274088,  0.012932,  0.080682,  0.009507
 -0.166983, -1.106142, -0.274016,  0.013288,  0.079547,  0.009199
 -0.162963, -1.119590, -0.273952,  0.013563,  0.078152,  0.008891
 -0.158164, -1.128171, -0.273897,  0.013753,  0.076511,  0.008583
 -0.152622, -1.131885, -0.273850,  0.013860,  0.074642,  0.008273
 -0.146377, -1.130753, -0.273811,  0.013884,  0.072562,  0.007964
 -0.139470, -1.124812, -0.273780,  0.013826,  0.070291,  0.007653
 -0.131948, -1.114121, -0.273756,  0.013686,  0.067851,  0.007343
 -0.123856, -1.098754, -0.273740,  0.013467,  0.065264,  0.007031
 -0.115246, -1.078805, -0.273729,  0.013171,  0.062552,  0.006719
 -0.106169, -1.054385, -0.273725,  0.012800,  0.059739,  0.006406
 -0.096678, -1.025621, -0.273727,  0.012357,  0.056850,  0.006093
 -0.086829, -0.992657, -0.273734,  0.011846,  0.053909,  0.005779
 -0.076677, -0.955651, -0.273746,  0.011270,  0.050940,  0.005465
 -0.066279, -0.914777, -0.273762,  0.010635,  0.047968,  0.005150
 -0.055692, -0.870223, -0.273783,  0.009943,  0.045018,  0.004834
 -0.044975, -0.822189, -0.273806,  0.009200,  0.042112,  0.004518
 -0.034184, -0.770889, -0.273833,  0.008411,  0.039274,  0.004201
 -0.023377, -0.716546, -0.273862,  0.007580,  0.036525,  0.003883
 -0.012609, -0.659396, -0.273893,  0.006714,  0.033887,  0.003565
 -0.001938, -0.599682, -0.273926,  0.005818,  0.031379,  0.003246
  0.008584, -0.537657, -0.273960,  0.004898,  0.029019,  0.002926
  0.018903, -0.473580, -0.273994,  0.003958,  0.026824,  0.002606
  0.028968, -0.407718, -0.274027,  0.003006,  0.024810,  0.002285
  0.038730, -0.340340, -0.274061,  0.002046,  0.022990,  0.001963
  0.048141, -0.271723, -0.274093,  0.001085,  0.021376,  0.001641
  0.057158, -0.202143, -0.274123,  0.000128,  0.019978,  0.001318
  0.065737, -0.131881, -0.274152, -0.000819,  0.018803,  0.000994
  0.073840, -0.061217, -0.274178, -0.001751,  0.017857,  0.000670
  0.081430,  0.009569, -0.274201, -0.002663,  0.017145,  0.000345
  0.088474,  0.080198, -0.274220, -0.003548,  0.016669,  0.000019
  0.094942,  0.150395, -0.274235, -0.004402,  0.016428, -0.000307
  0.100806,  0.219887, -0.274246, -0.005221,  0.016421, -0.000634
  0.106043,  0.288406, -0.274252, -0.006001,  0.016643, -0.000962
  0.110633,  0.355691, -0.274253, -0.006735,  0.017090, -0.001290
  0.114560,  0.421486, -0.274248, -0.007422,  0.017753, -0.001619
  0.117811,  0.485544, -0.274237, -0.008058,  0.018624, -0.001949
  0.120376,  0.547626, -0.274220, -0.008638,  0.019692, -0.002279
  0.122250,  0.607501, -0.274195, -0.009162,  0.020945, -0.002610
  0.123429,  0.664952, -0.274164, -0.009625,  0.022369, -0.002942
  0.123917,  0.719769, -0.274126, -0.010026,  0.023949, -0.003274
  0.123717,  0.771756, -0.274080, -0.010363,  0.025670, -0.003606
  0.122838,  0.820729, -0.274025, -0.010635,  0.027515, -0.003940
  0.121291,  0.866517, -0.273963, -0.010841,  0.029467, -0.004274
  0.119092,  0.908962, -0.273893, -0.010981,  0.031507, -0.004608
  0.116257,  0.947923, -0.273814, -0.011054,  0.033616, -0.004943
  0.112808,  0.983270, -0.273726, -0.011061,  0.035776, -0.005279
  0.108769,  1.014891, -0.273629, -0.011002,  0.037967, -0.005615
  0.104166,  1.042687, -0.273524, -0.010879,  0.040172, -0.005952
  0.099027,  1.066577, -0.273409, -0.010693,  0.042369, -0.006290
  0.093385,  1.086493, -0.273285, -0.010446,  0.044542, -0.006627
  0.087272,  1.102387, -0.273152, -0.010139,  0.046672, -0.006966
  0.080723,  1.114223, -0.273010, -0.009776,  0.048742, -0.007305
  0.073777,  1.121984, -0.272859, -0.009359,  0.050734, -0.007645
  0.066471,  1.125668, -0.272698, -0.008891,  0.052633, -0.007985
  0.058845,  1.125289, -0.272529, -0.008376,  0.054424, -0.008325
  0.050941,  1.120878, -0.272350, -0.007817,  0.056093, -0.008666
  0.042800,  1.112479, -0.272162, -0.007218,  0.057629, -0.009008
  0.034464,  1.100154, -0.271966, -0.006583,  0.059018, -0.009350
  0.025978,  1.083979, -0.271760, -0.005915,  0.060252, -0.009693
  0.017383,  1.064044, -0.271547, -0.005221,  0.061323, -0.010036
  0.008723,  1.040453, -0.271324, -0.004503,  0.062222, -0.010380
  0.000041,  1.013325, -0.271094, -0.003766,  0.062944, -0.010724
 -0.008620,  0.982791, -0.270855, -0.003015,  0.063487, -0.011069
 -0.017219,  0.948995, -0.270609, -0.002254,  0.063846, -0.011414
 -0.025714,  0.912091, -0.270355, -0.001489,  0.064022, -0.011760
 -0.034066,  0.872246, -0.270093, -0.000723,  0.064014, -0.012106
 -0.042237,  0.829638, -0.269825,  0.000038,  0.063826, -0.012453
 -0.050188,  0.784452, -0.269550,  0.000791,  0.063460, -0.012800
 -0.057884,  0.736884, -0.269268,  0.001531,  0.062922, -0.013148
 -0.065291,  0.687136, -0.268980,  0.002254,  0.062218, -0.013496
 -0.072378,  0.635420, -0.268686,  0.002955,  0.061355, -0.013845
 -0.079114,  0.581951, -0.268386,  0.003631,  0.060343, -0.014195
 -0.085471,  0.526952, -0.268082,  0.004278,  0.059191, -0.014545
 -0.091424,  0.470649, -0.267772,  0.004893,  0.057910, -0.014895
 -0.096950,  0.413271, -0.267458,  0.005472,  0.056512, -0.015246
 -0.102028,  0.355051, -0.267139,  0.006012,  0.055011, -0.015597
 -0.106639,  0.296223, -0.266817,  0.006510,  0.053418, -0.015949
 -0.110769,  0.237021, -0.266491,  0.006965,  0.051748, -0.016302
 -0.114404,  0.177681, -0.266162,  0.007373,  0.050015, -0.016655
 -0.117534,  0.118435, -0.265830,  0.007733,  0.048234, -0.017009
 -0.120151,  0.059516, -0.265495,  0.008043,  0.046419, -0.017363
 -0.122251,  0.001151, -0.265158,  0.008302,  0.044586, -0.017718
 -0.123832, -0.056434, -0.264820,  0.008509,  0.042749, -0.018073
 -0.124893, -0.113020, -0.264479,  0.008664,  0.040923, -0.018429
 -0.125439, -0.168392, -0.264138,  0.008766,  0.039122, -0.018785
 -0.125473, -0.222341, -0.263796,  0.008814,  0.037360, -0.019142
 -0.125006, -0.274667, -0.263453,  0.008810,  0.035650, -0.019499
 -0.124047, -0.325175, -0.263110,  0.008754,  0.034005, -0.019857
 -0.122609, -0.373681, -0.262768,  0.008646,  0.032437, -0.020216
 -0.120708, -0.420009, -0.262425,  0.008489,  0.030957, -0.020575
 -0.118361, -0.463993, -0.262084,  0.008283,  0.029576, -0.020935
 -0.115587, -0.505477, -0.261743,  0.008030,  0.028302, -0.021295
 -0.112407, -0.544316, -0.261403,  0.007733,  0.027145, -0.021656
 -0.108846, -0.580378, -0.261065,  0.007393,  0.026111, -0.022017
 -0.104926, -0.613540, -0.260729,  0.007013,  0.025207, -0.022379
 -0.100676, -0.643693, -0.260394,  0.006595,  0.024436, -0.022742
 -0.096121, -0.670740, -0.260062,  0.006144,  0.023805, -0.023105
 -0.091291, -0.694598, -0.259732,  0.005661,  0.023314, -0.023468
 -0.086217, -0.715196, -0.259404,  0.005150,  0.022965, -0.023832
 -0.080927, -0.732476, -0.259080,  0.004613,  0.022758, -0.024197
 -0.075454, -0.746393, -0.258757,  0.004056,  0.022693, -0.024562
 -0.069829, -0.756919, -0.258438,  0.003481,  0.022767, -0.024928
 -0.064086, -0.764035, -0.258122,  0.002891,  0.022977, -0.025294
 -0.058255, -0.767738, -0.257810,  0.002291,  0.023318, -0.025661
 -0.052369, -0.768037, -0.257500,  0.001684,  0.023785, -0.026028
 -0.046462, -0.764956, -0.257194,  0.001074,  0.024373, -0.026396
 -0.040564, -0.758532, -0.256891,  0.000464,  0.025073, -0.026765
 -0.034707, -0.748812, -0.256591, -0.000142,  0.025877, -0.027134
 -0.028923, -0.735860, -0.256296, -0.000740,  0.026777, -0.027503
 -0.023241, -0.719748, -0.256003, -0.001328,  0.027764, -0.027873
 -0.017690, -0.700562, -0.255714, -0.001900,  0.028827, -0.028243
 -0.012299, -0.678400, -0.255428, -0.002456,  0.029955, -0.028614
 -0.007095, -0.653370, -0.255146, -0.002991,  0.031138, -0.028986
 -0.002103, -0.625591, -0.254867, -0.003502,  0.032365, -0.029358
  0.002652, -0.595190, -0.254592, -0.003986,  0.033624, -0.029730
  0.007148, -0.562307, -0.254319, -0.004442,  0.034903, -0.030103
  0.011362, -0.527088, -0.254050, -0.004867,  0.036191, -0.030476
  0.015276, -0.489688, -0.253784, -0.005257,  0.037477, -0.030850
  0.018872, -0.450269, -0.253520, -0.005613,  0.038750, -0.031224
  0.022134, -0.409000, -0.253260, -0.005931,  0.039998, -0.031599
  0.025048, -0.366057, -0.253002, -0.006211,  0.041210, -0.031974
  0.027602, -0.321620, -0.252746, -0.006451,  0.042378, -0.032350
  0.029786, -0.275875, -0.252493, -0.006650,  0.043490, -0.032726
  0.031591, -0.229009, -0.252241, -0.006807,  0.044538, -0.033103
  0.033012, -0.181216, -0.251992, -0.006923,  0.045514, -0.033480
  0.034044, -0.132689, -0.251744, -0.006996,  0.046409, -0.033857
  0.034686, -0.083624, -0.251498, -0.007027,  0.047217, -0.034235
  0.034937, -0.034218, -0.251253, -0.007016,  0.047932, -0.034613
  0.034799,  0.015332, -0.251010, -0.006963,  0.048549, -0.034992
  0.034277,  0.064832, -0.250767, -0.006870,  0.049063, -0.035371
  0.033375,  0.114086, -0.250524, -0.006737,  0.049470, -0.035750
  0.032102,  0.162904, -0.250283, -0.006566,  0.049769, -0.036130
  0.030466,  0.211096, -0.250041, -0.006358,  0.049958, -0.036511
  0.028480,  0.258477, -0.249800, -0.006115,  0.050035, -0.036891
  0.026155,  0.304868, -0.249558, -0.005838,  0.050001, -0.037273
  0.023506,  0.350093, -0.249315, -0.005529,  0.049858, -0.037654
  0.020549,  0.393982, -0.249072, -0.005192,  0.049608, -0.038036
  0.017300,  0.436372, -0.248828, -0.004827,  0.049253, -0.038419
  0.013778,  0.477107, -0.248583, -0.004437,  0.048797, -0.038801
  0.010003,  0.516040, -0.248336, -0.004026,  0.048244, -0.039185
  0.005995,  0.553029, -0.248087, -0.003596,  0.047600, -0.039568
  0.001775,  0.587942, -0.247837, -0.003149,  0.046871, -0.039952
 -0.002634,  0.620658, -0.247584, -0.002688,  0.046064, -0.040337
 -0.007210,  0.651063, -0.247329, -0.002216,  0.045184, -0.040721
 -0.011929,  0.679053, -0.247072, -0.001737,  0.044241, -0.041107
 -0.016768,  0.704536, -0.246812, -0.001252,  0.043242, -0.041492
 -0.021701,  0.727429, -0.246548, -0.000766,  0.042194, -0.041878
 -0.026706,  0.747660, -0.246282, -0.000280,  0.041108, -0.042265
 -0.031757,  0.765168, -0.246012,  0.000202,  0.039991, -0.042651
 -0.036830,  0.779903, -0.245738,  0.000677,  0.038853, -0.043039
 -0.041902,  0.791827, -0.245461,  0.001143,  0.037703, -0.043426
 -0.046948,  0.800912, -0.245180,  0.001597,  0.036548, -0.043814
 -0.051945,  0.807143, -0.244895,  0.002037,  0.035400, -0.044202
 -0.056871,  0.810514, -0.244606,  0.002460,  0.034265, -0.044591
 -0.061703,  0.811032, -0.244312,  0.002863,  0.033152, -0.044980
 -0.066420,  0.808715, -0.244014,  0.003246,  0.032070, -0.045370
 -0.071002,  0.803591, -0.243711,  0.003604,  0.031027, -0.045759
 -0.075428,  0.795700, -0.243403,  0.003938,  0.030028, -0.046150
 -0.079682,  0.785092, -0.243091,  0.004244,  0.029083, -0.046540
 -0.083744,  0.771827, -0.242774,  0.004522,  0.028195, -0.046931
 -0.087599,  0.755976, -0.242451,  0.004770,  0.027373, -0.047322
 -0.091233,  0.737619, -0.242124,  0.004987,  0.026620, -0.047714
 -0.094631,  0.716844, -0.241792,  0.005172,  0.025941, -0.048106
 -0.097780,  0.693750, -0.241454,  0.005325,  0.025339, -0.048499
 -0.100672,  0.668444, -0.241111,  0.005444,  0.024819, -0.048891
 -0.103295,  0.641039, -0.240763,  0.005530,  0.024381, -0.049285
 -0.105643,  0.611657, -0.240410,  0.005582,  0.024029, -0.049678
 -0.107708,  0.580428, -0.240052,  0.005600,  0.023762, -0.050072
 -0.109486,  0.547486, -0.239689,  0.005585,  0.023582, -0.050466
 -0.110973,  0.512972, -0.239320,  0.005538,  0.023486, -0.050861
 -0.112168,  0.477033, -0.238946,  0.005458,  0.023476, -0.051255
 -0.113070,  0.439817, -0.238567,  0.005346,  0.023547, -0.051651
 -0.113680,  0.401481, -0.238183,  0.005204,  0.023699, -0.052046
 -0.114001,  0.362181, -0.237794,  0.005033,  0.023927, -0.052442
 -0.114038,  0.322079, -0.237400,  0.004834,  0.024228, -0.052838
 -0.113794,  0.281336, -0.237001,  0.004609,  0.024597, -0.053234
 -0.113278,  0.240117, -0.236597,  0.004358,  0.025031, -0.053631
 -0.112497,  0.198585, -0.236189,  0.004085,  0.025523, -0.054028
 -0.111460,  0.156906, -0.235776,  0.003791,  0.026068, -0.054426
 -0.110179,  0.115243, -0.235359,  0.003477,  0.026660, -0.054823
 -0.108663,  0.073760, -0.234937,  0.003146,  0.027292, -0.055221
 -0.106927,  0.032616, -0.234511,  0.002801,  0.027959, -0.055619
 -0.104984, -0.008029, -0.234081,  0.002442,  0.028652, -0.056018
 -0.102847, -0.048020, -0.233647,  0.002073,  0.029366, -0.056417
 -0.100533, -0.087205, -0.233209,  0.001696,  0.030094, -0.056816
 -0.098058, -0.125438, -0.232767,  0.001313,  0.030827, -0.057215
 -0.095436, -0.162574, -0.232322,  0.000927,  0.031561, -0.057615
 -0.092687, -0.198478, -0.231874,  0.000539,  0.032287, -0.058014
 -0.089827, -0.233017, -0.231422,  0.000152,  0.032998, -0.058415
 -0.086875, -0.266066, -0.230967, -0.000231,  0.033690, -0.058815
 -0.083847, -0.297507, -0.230509, -0.000609,  0.034355, -0.059215
 -0.080763, -0.327228, -0.230049, -0.000979,  0.034987, -0.059616
 -0.077641, -0.355125, -0.229585, -0.001339,  0.035582, -0.060017
 -0.074498, -0.381103, -0.229120, -0.001687,  0.036133, -0.060418
 -0.071354, -0.405073, -0.228652, -0.002021,  0.036636, -0.060820
 -0.068225, -0.426956, -0.228182, -0.002339,  0.037088, -0.061221
 -0.065130, -0.446682, -0.227710, -0.002641,  0.037483, -0.061623
 -0.062086, -0.464189, -0.227236, -0.002923,  0.037820, -0.062025
 -0.059108, -0.479425, -0.226760, -0.003185,  0.038094, -0.062427
 -0.056214, -0.492346, -0.226283, -0.003425,  0.038305, -0.062830
 -0.053419, -0.502920, -0.225805, -0.003642,  0.038450, -0.063232
 -0.050738, -0.511120, -0.225325, -0.003835,  0.038529, -0.063635
 -0.048185, -0.516933, -0.224845, -0.004004,  0.038540, -0.064038
 -0.045772, -0.520354, -0.224363, -0.004146,  0.038485, -0.064441
 -0.043513, -0.521386, -0.223881, -0.004263,  0.038363, -0.064845
 -0.041418, -0.520042, -0.223398, -0.004353,  0.038176, -0.065248
 -0.039499, -0.516346, -0.222914, -0.004416,  0.037926, -0.065652
 -0.037764, -0.510329, -0.222431, -0.004453,  0.037614, -0.066055
 -0.036222, -0.502031, -0.221946, -0.004463,  0.037244, -0.066459
 -0.034879, -0.491503, -0.221462, -0.004446,  0.036818, -0.066863
 -0.033744, -0.478800, -0.220978, -0.004403,  0.036341, -0.067268
 -0.032819, -0.463990, -0.220493, -0.004335,  0.035815, -0.067672
 -0.032109, -0.447145, -0.220009, -0.004241,  0.035245, -0.068077
 -0.031618, -0.428348, -0.219525, -0.004124,  0.034636, -0.068481
 -0.031346, -0.407685, -0.219042, -0.003983,  0.033993, -0.068886
 -0.031294, -0.385251, -0.218558, -0.003821,  0.033320, -0.069291
 -0.031461, -0.361149, -0.218075, -0.003637,  0.032622, -0.069696
 -0.031846, -0.335484, -0.217593, -0.003434,  0.031906, -0.070101
 -0.032446, -0.308369, -0.217111, -0.003213,  0.031176, -0.070506
 -0.033256, -0.279921, -0.216630, -0.002976,  0.030438, -0.070911
 -0.034273, -0.250262, -0.216149, -0.002723,  0.029697, -0.071317
 -0.035490, -0.219517, -0.215669, -0.002457,  0.028958, -0.071722
 -0.036901, -0.187816, -0.215189, -0.002180,  0.028227, -0.072128
 -0.038497, -0.155289, -0.214711, -0.001893,  0.027510, -0.072533
 -0.040271, -0.122070, -0.214232, -0.001597,  0.026810, -0.072939
 -0.042212, -0.088297, -0.213755, -0.001296,  0.026132, -0.073345
 -0.044312, -0.054105, -0.213278, -0.000990,  0.025482, -0.073751
 -0.046558, -0.019632, -0.212802, -0.000681,  0.024862, -0.074157
 -0.048941,  0.014984, -0.212327, -0.000372,  0.024278, -0.074563
 -0.051447,  0.049605, -0.211852, -0.000065,  0.023732, -0.074969
 -0.054065,  0.084095, -0.211377,  0.000240,  0.023228, -0.075375
 -0.056782,  0.118319, -0.210904,  0.000540,  0.022768, -0.075781
 -0.059585,  0.152144, -0.210430,  0.000833,  0.022355, -0.076187
 -0.062460,  0.185440, -0.209957,  0.001119,  0.021991, -0.076593
 -0.065394,  0.218078, -0.209485,  0.001394,  0.021677, -0.077000
 -0.068374,  0.249936, -0.209012,  0.001658,  0.021414, -0.077406
 -0.071385,  0.280892, -0.208540,  0.001910,  0.021203, -0.077812
 -0.074414,  0.310832, -0.208068,  0.002147,  0.021044, -0.078218
 -0.077447,  0.339644, -0.207596,  0.002369,  0.020936, -0.078625
 -0.080471,  0.367222, -0.207124,  0.002575,  0.020880, -0.079031
 -0.083473,  0.393467, -0.206652,  0.002763,  0.020874, -0.079437
 -0.086439,  0.418283, -0.206180,  0.002932,  0.020916, -0.079844
 -0.089357,  0.441584, -0.205708,  0.003083,  0.021005, -0.080250
 -0.092215,  0.463288, -0.205235,  0.003213,  0.021139, -0.080656
 -0.095001,  0.483320, -0.204761,  0.003323,  0.021314, -0.081062
 -0.097704,  0.501613, -0.204287,  0.003412,  0.021528, -0.081468
 -0.100313,  0.518106, -0.203813,  0.003480,  0.021778, -0.081874
 -0.102818,  0.532747, -0.203337,  0.003527,  0.022061, -0.082281
 -0.105210,  0.545491, -0.202861,  0.003552,  0.022373, -0.082687
 -0.107480,  0.556300, -0.202383,  0.003556,  0.022709, -0.083092
 -0.109619,  0.565146, -0.201905,  0.003538,  0.023067, -0.083498
 -0.111622,  0.572006, -0.201425,  0.003500,  0.023442, -0.083904
 -0.113481,  0.576866, -0.200944,  0.003442,  0.023829, -0.084310
 -0.115190,  0.579722, -0.200461,  0.003364,  0.024226, -0.084715
 -0.116746,  0.580575, -0.199977,  0.003267,  0.024627, -0.085121
 -0.118143,  0.579435, -0.199491,  0.003152,  0.025028, -0.085526
 -0.119380,  0.576321, -0.199004,  0.003019,  0.025425, -0.085932
 -0.120453,  0.571256, -0.198515,  0.002870,  0.025815, -0.086337
 -0.121361,  0.564276, -0.198023,  0.002705,  0.026193, -0.086742
 -0.122104,  0.555418, -0.197530,  0.002527,  0.026555, -0.087147
 -0.122681,  0.544731, -0.197034,  0.002335,  0.026898, -0.087551
 -0.123095,  0.532269, -0.196536,  0.002132,  0.027219, -0.087956
 -0.123347,  0.518092, -0.196036,  0.001918,  0.027514, -0.088360
 -0.123439,  0.502268, -0.195534,  0.001695,  0.027780, -0.088765
 -0.123376,  0.484868, -0.195028,  0.001465,  0.028016, -0.089169
 -0.123161,  0.465972, -0.194521,  0.001229,  0.028218, -0.089573
 -0.122800,  0.445664, -0.194010,  0.000988,  0.028385, -0.089976
 -0.122297,  0.424032, -0.193497,  0.000744,  0.028514, -0.090380
 -0.121660,  0.401169, -0.192981,  0.000498,  0.028606, -0.090783
 -0.120895,  0.377174, -0.192462,  0.000251,  0.028657, -0.091186
 -0.120010,  0.352147, -0.191941,  0.000007,  0.028669, -0.091589
 -0.119012,  0.326193, -0.191416, -0.000236,  0.028640, -0.091992
 -0.117910,  0.299420, -0.190888, -0.000474,  0.028571, -0.092395
 -0.116713,  0.271937, -0.190357, -0.000707,  0.028462, -0.092797
 -0.115429,  0.243856, -0.189823, -0.000933,  0.028314, -0.093199
 -0.114069,  0.215292, -0.189286, -0.001151,  0.028127, -0.093601
 -0.112642,  0.186358, -0.188746, -0.001359,  0.027902, -0.094002
 -0.111158,  0.157170, -0.188203, -0.001558,  0.027643, -0.094403
 -0.109628,  0.127843, -0.187656, -0.001745,  0.027349, -0.094804
 -0.108060,  0.098493, -0.187106, -0.001919,  0.027024, -0.095205
 -0.106467,  0.069233, -0.186553, -0.002080,  0.026670, -0.095606
 -0.104858,  0.040177, -0.185997, -0.002228,  0.026289, -0.096006
 -0.103242,  0.011437, -0.185437, -0.002360,  0.025884, -0.096406
 -0.101632, -0.016878, -0.184874, -0.002477,  0.025457, -0.096805
 -0.100035, -0.044661, -0.184308, -0.002578,  0.025013, -0.097204
 -0.098462, -0.071807, -0.183739, -0.002662,  0.024553, -0.097603
 -0.096924, -0.098215, -0.183166, -0.002730,  0.024082, -0.098002
 -0.095427, -0.123787, -0.182591, -0.002781,  0.023602, -0.098400
 -0.093983, -0.148431, -0.182012, -0.002815,  0.023117, -0.098798
 -0.092599, -0.172057, -0.181430, -0.002832,  0.022629, -0.099196
 -0.091283, -0.194581, -0.180845, -0.002832,  0.022143, -0.099593
 -0.090043, -0.215922, -0.180257, -0.002815,  0.021661, -0.099990
 -0.088885, -0.236006, -0.179666, -0.002782,  0.021187, -0.100386
 -0.087818, -0.254765, -0.179072, -0.002733,  0.020723, -0.100782
 -0.086846, -0.272135, -0.178475, -0.002668,  0.020272, -0.101178
 -0.085976, -0.288058, -0.177876, -0.002588,  0.019838, -0.101573
 -0.085212, -0.302483, -0.177273, -0.002493,  0.019422, -0.101968
 -0.084558, -0.315366, -0.176668, -0.002385,  0.019027, -0.102363
 -0.084019, -0.326667, -0.176061, -0.002264,  0.018655, -0.102757
 -0.083597, -0.336354, -0.175451, -0.002131,  0.018308, -0.103151
 -0.083295, -0.344402, -0.174838, -0.001986,  0.017987, -0.103544
 -0.083114, -0.350792, -0.174223, -0.001832,  0.017695, -0.103937
 -0.083056, -0.355510, -0.173605, -0.001668,  0.017433, -0.104329
 -0.083122, -0.358551, -0.172985, -0.001496,  0.017200, -0.104721
 -0.083311, -0.359917, -0.172363, -0.001318,  0.016999, -0.105113
 -0.083622, -0.359614, -0.171739, -0.001133,  0.016829, -0.105504
 -0.084054, -0.357657, -0.171113, -0.000944,  0.016690, -0.105895
 -0.084606, -0.354065, -0.170485, -0.000751,  0.016583, -0.106285
 -0.085274, -0.348865, -0.169855, -0.000556,  0.016507, -0.106674
 -0.086056, -0.342090, -0.169223, -0.000360,  0.016461, -0.107063
 -0.086948, -0.333779, -0.168589, -0.000164,  0.016445, -0.107452
 -0.087946, -0.323976, -0.167954,  0.000031,  0.016457, -0.107840
 -0.089045, -0.312731, -0.167317,  0.000223,  0.016496, -0.108228
 -0.090240, -0.300099, -0.166678,  0.000412,  0.016561, -0.108615
 -0.091526, -0.286140, -0.166038,  0.000597,  0.016650, -0.109001
 -0.092897, -0.270919, -0.165397,  0.000776,  0.016761, -0.109387
 -0.094346, -0.254507, -0.164755,  0.000948,  0.016892, -0.109772
 -0.095867, -0.236976, -0.164111,  0.001113,  0.017040, -0.110157
 -0.097453, -0.218405, -0.163466,  0.001270,  0.017205, -0.110542
 -0.099097, -0.198875, -0.162820,  0.001417,  0.017382, -0.110925
 -0.100792, -0.178469, -0.162173,  0.001554,  0.017570, -0.111308
 -0.102531, -0.157275, -0.161524,  0.001680,  0.017767, -0.111691
 -0.104304, -0.135383, -0.160876,  0.001796,  0.017969, -0.112073
 -0.106106, -0.112884, -0.160226,  0.001899,  0.018174, -0.112454
 -0.107928, -0.089873, -0.159575,  0.001990,  0.018380, -0.112835
 -0.109763, -0.066443, -0.158924,  0.002068,  0.018584, -0.113215
 -0.111603, -0.042691, -0.158272,  0.002133,  0.018784, -0.113594
 -0.113439, -0.018713, -0.157619,  0.002184,  0.018977, -0.113973
 -0.115266,  0.005394, -0.156966,  0.002223,  0.019161, -0.114351
 -0.117074,  0.029534, -0.156312,  0.002247,  0.019333, -0.114728
 -0.118858,  0.053610, -0.155657,  0.002258,  0.019493, -0.115105
 -0.120610,  0.077529, -0.155002,  0.002256,  0.019638, -0.115481
 -0.122323,  0.101196, -0.154347,  0.002240,  0.019765, -0.115856
 -0.123992,  0.124519, -0.153691,  0.002211,  0.019874, -0.116231
 -0.125609,  0.147408, -0.153035,  0.002169,  0.019963, -0.116605
 -0.127169,  0.169775, -0.152378,  0.002115,  0.020031, -0.116978
 -0.128666,  0.191536, -0.151721,  0.002049,  0.020077, -0.117350
 -0.130096,  0.212607, -0.151064,  0.001972,  0.020100, -0.117722
 -0.131454,  0.232911, -0.150406,  0.001883,  0.020099, -0.118093
 -0.132736,  0.252372, -0.149748,  0.001785,  0.020075, -0.118463
 -0.133937,  0.270919, -0.149090,  0.001677,  0.020025, -0.118833
 -0.135054,  0.288484, -0.148431,  0.001561,  0.019952, -0.119202
 -0.136085,  0.305004, -0.147772,  0.001436,  0.019854, -0.119570
 -0.137027,  0.320422, -0.147112,  0.001304,  0.019733, -0.119937
 -0.137878,  0.334682, -0.146452,  0.001167,  0.019588, -0.120303
 -0.138637,  0.347736, -0.145792,  0.001023,  0.019421, -0.120669
 -0.139302,  0.359541, -0.145131,  0.000875,  0.019233, -0.121033
 -0.139873,  0.370058, -0.144470,  0.000724,  0.019024, -0.121397
 -0.140351,  0.379254, -0.143809,  0.000570,  0.018795, -0.121760
 -0.140735,  0.387100, -0.143147,  0.000415,  0.018549, -0.122122
 -0.141026,  0.393575, -0.142485,  0.000258,  0.018287, -0.122484
 -0.141226,  0.398662, -0.141822,  0.000102,  0.018010, -0.122844
 -0.141337,  0.402349, -0.141158, -0.000053,  0.017720, -0.123204
 -0.141360,  0.404631, -0.140494, -0.000206,  0.017419, -0.123563
 -0.141299,  0.405508, -0.139829, -0.000356,  0.017109, -0.123920
 -0.141156,  0.404985, -0.139164, -0.000502,  0.016791, -0.124277
 -0.140935,  0.403072, -0.138498, -0.000644,  0.016468, -0.124633
 -0.140639,  0.399787, -0.137831, -0.000780,  0.016142, -0.124989
 -0.140273,  0.395150, -0.137164, -0.000911,  0.015814, -0.125343
 -0.139841,  0.389188, -0.136495, -0.001034,  0.015487, -0.125696
 -0.139347,  0.381933, -0.135826, -0.001150,  0.015162, -0.126049
 -0.138797,  0.373421, -0.135156, -0.001258,  0.014842, -0.126400
 -0.138195,  0.363693, -0.134485, -0.001357,  0.014528, -0.126750
 -0.137547,  0.352795, -0.133813, -0.001447,  0.014221, -0.127100
 -0.136858,  0.340777, -0.133140, -0.001527,  0.013925, -0.127448
 -0.136134,  0.327693, -0.132466, -0.001598,  0.013639, -0.127796
 -0.135380,  0.313600, -0.131791, -0.001658,  0.013366, -0.128142
 -0.134602,  0.298559, -0.131115, -0.001708,  0.013107, -0.128488
 -0.133807,  0.282635, -0.130437, -0.001747,  0.012863, -0.128833
 -0.132999,  0.265896, -0.129758, -0.001776,  0.012635, -0.129176
 -0.132184,  0.248412, -0.129078, -0.001793,  0.012424, -0.129519
 -0.131368,  0.230255, -0.128397, -0.001800,  0.012231, -0.129860
 -0.130558,  0.211501, -0.127714, -0.001796,  0.012056, -0.130200
 -0.129758,  0.192225, -0.127030, -0.001781,  0.011900, -0.130540
 -0.128973,  0.172506, -0.126344, -0.001756,  0.011763, -0.130878
 -0.128210,  0.152424, -0.125657, -0.001721,  0.011645, -0.131215
 -0.127473,  0.132058, -0.124968, -0.001676,  0.011546, -0.131551
 -0.126767,  0.111488, -0.124278, -0.001622,  0.011466, -0.131886
 -0.126096,  0.090797, -0.123586, -0.001559,  0.011405, -0.132220
 -0.125466,  0.070065, -0.122892, -0.001487,  0.011361, -0.132553
 -0.124879,  0.049372, -0.122197, -0.001407,  0.011335, -0.132885
 -0.124341,  0.028798, -0.121500, -0.001320,  0.011326, -0.133216
 -0.123854,  0.008421, -0.120801, -0.001226,  0.011332, -0.133545
 -0.123423, -0.011681, -0.120100, -0.001125,  0.011353, -0.133873
 -0.123049, -0.031433, -0.119398, -0.001020,  0.011387, -0.134200
 -0.122735, -0.050760, -0.118694, -0.000909,  0.011434, -0.134526
 -0.122484, -0.069591, -0.117988, -0.000794,  0.011492, -0.134851
 -0.122297, -0.087857, -0.117280, -0.000676,  0.011560, -0.135175
 -0.122177, -0.105492, -0.116570, -0.000555,  0.011635, -0.135497
 -0.122123, -0.122431, -0.115859, -0.000432,  0.011718, -0.135819
 -0.122137, -0.138616, -0.115145, -0.000307,  0.011806, -0.136139
 -0.122220, -0.153988, -0.114430, -0.000183,  0.011897, -0.136457
 -0.122371, -0.168495, -0.113713, -0.000058,  0.011991, -0.136775
 -0.122591, -0.182087, -0.112993,  0.000065,  0.012086, -0.137091
 -0.122878, -0.194718, -0.112272,  0.000186,  0.012179, -0.137406
 -0.123232, -0.206347, -0.111549,  0.000305,  0.012270, -0.137720
 -0.123651, -0.216936, -0.110824,  0.000421,  0.012358, -0.138033
 -0.124133, -0.226453, -0.110098,  0.000534,  0.012440, -0.138344
 -0.124678, -0.234869, -0.109369,  0.000641,  0.012516, -0.138654
 -0.125282, -0.242160, -0.108638,  0.000744,  0.012584, -0.138963
 -0.125943, -0.248306, -0.107906,  0.000841,  0.012643, -0.139270
 -0.126659, -0.253294, -0.107171,  0.000933,  0.012693, -0.139577
 -0.127425, -0.257112, -0.106435,  0.001017,  0.012731, -0.139881
 -0.128240, -0.259755, -0.105697,  0.001095,  0.012757, -0.140185
 -0.129100, -0.261223, -0.104957,  0.001165,  0.012771, -0.140487
 -0.130000, -0.261519, -0.104216,  0.001228,  0.012772, -0.140788
 -0.130938, -0.260651, -0.103472,  0.001283,  0.012759, -0.141087
 -0.131909, -0.258633, -0.102727,  0.001329,  0.012732, -0.141385
 -0.132909, -0.255482, -0.101981,  0.001368,  0.012690, -0.141682
 -0.133935, -0.251219, -0.101232,  0.001397,  0.012633, -0.141978
 -0.134981, -0.245870, -0.100482,  0.001418,  0.012563, -0.142271
 -0.136043, -0.239465, -0.099730,  0.001431,  0.012477, -0.142564
 -0.137118, -0.232038, -0.098977,  0.001434,  0.012377, -0.142855
 -0.138200, -0.223627, -0.098222,  0.001430,  0.012263, -0.143145
 -0.139286, -0.214272, -0.097466,  0.001417,  0.012136, -0.143433
 -0.140370, -0.204019, -0.096708,  0.001395,  0.011996, -0.143720
 -0.141450, -0.192915, -0.095949,  0.001366,  0.011843, -0.144006
 -0.142520, -0.181011, -0.095189,  0.001329,  0.011679, -0.144290
 -0.143577, -0.168360, -0.094427,  0.001284,  0.011504, -0.144572
 -0.144616, -0.155020, -0.093663,  0.001232,  0.011319, -0.144853
 -0.145634, -0.141047, -0.092899,  0.001174,  0.011125, -0.145133
 -0.146627, -0.126503, -0.092133,  0.001109,  0.010923, -0.145411
 -0.147591, -0.111451, -0.091366,  0.001038,  0.010714, -0.145687
 -0.148524, -0.095953, -0.090598,  0.000962,  0.010500, -0.145963
 -0.149421, -0.080076, -0.089829,  0.000882,  0.010281, -0.146236
 -0.150280, -0.063886, -0.089059,  0.000797,  0.010059, -0.146508
 -0.151099, -0.047448, -0.088287,  0.000708,  0.009835, -0.146779
 -0.151874, -0.030832, -0.087515,  0.000615,  0.009610, -0.147048
 -0.152604, -0.014105, -0.086742,  0.000521,  0.009385, -0.147315
 -0.153286,  0.002666, -0.085968,  0.000424,  0.009161, -0.147581
 -0.153919,  0.019413, -0.085193,  0.000326,  0.008940, -0.147846
 -0.154501,  0.036070, -0.084417,  0.000227,  0.008723, -0.148108
 -0.155032,  0.052570, -0.083641,  0.000127,  0.008511, -0.148370
 -0.155509,  0.068848, -0.082863,  0.000028,  0.008304, -0.148629
 -0.155933,  0.084841, -0.082085, -0.000070,  0.008103, -0.148887
 -0.156303,  0.100487, -0.081307, -0.000166,  0.007911, -0.149144
 -0.156618,  0.115726, -0.080527, -0.000261,  0.007727, -0.149399
 -0.156880,  0.130499, -0.079748, -0.000353,  0.007551, -0.149652
 -0.157088,  0.144751, -0.078967, -0.000441,  0.007386, -0.149903
 -0.157243,  0.158427, -0.078186, -0.000527,  0.007231, -0.150153
 -0.157347,  0.171477, -0.077404, -0.000608,  0.007086, -0.150402
 -0.157399,  0.183854, -0.076622, -0.000684,  0.006953, -0.150648
 -0.157402,  0.195511, -0.075840, -0.000756,  0.006831, -0.150893
 -0.157357,  0.206407, -0.075057, -0.000823,  0.006720, -0.151137
 -0.157266,  0.216502, -0.074273, -0.000883,  0.006621, -0.151379
 -0.157132,  0.225761, -0.073486, -0.000938,  0.006533, -0.151619
 -0.156956,  0.234150, -0.072697, -0.000987,  0.006456, -0.151859
 -0.156742,  0.241642, -0.071903, -0.001030,  0.006390, -0.152098
 -0.156493,  0.248210, -0.071105, -0.001066,  0.006334, -0.152337
 -0.156210,  0.253834, -0.070302, -0.001095,  0.006287, -0.152575
 -0.155898,  0.258497, -0.069492, -0.001117,  0.006249, -0.152813
 -0.155559,  0.262184, -0.068675, -0.001133,  0.006220, -0.153051
 -0.155196,  0.264887, -0.067851, -0.001141,  0.006198, -0.153289
 -0.154812,  0.266599, -0.067019, -0.001143,  0.006184, -0.153526
 -0.154412,  0.267319, -0.066177, -0.001138,  0.006175, -0.153764
 -0.153997,  0.267048, -0.065327, -0.001126,  0.006172, -0.154003
 -0.153572,  0.265794, -0.064467, -0.001108,  0.006173, -0.154241
 -0.153139,  0.263566, -0.063597, -0.001083,  0.006177, -0.154480
 -0.152703,  0.260378, -0.062716, -0.001053,  0.006184, -0.154718
 -0.152265,  0.256246, -0.061824, -0.001016,  0.006193, -0.154957
 -0.151830,  0.251193, -0.060921, -0.000974,  0.006203, -0.155196
 -0.151401,  0.245241, -0.060006, -0.000926,  0.006212, -0.155435
 -0.150980,  0.238420, -0.059080, -0.000874,  0.006221, -0.155673
 -0.150570,  0.230760, -0.058142, -0.000817,  0.006227, -0.155911
 -0.150174,  0.222295, -0.057192, -0.000755,  0.006232, -0.156149
 -0.149795,  0.213063, -0.056231, -0.000690,  0.006232, -0.156385
 -0.149436,  0.203102, -0.055257, -0.000622,  0.006229, -0.156621
 -0.149098,  0.192456, -0.054272, -0.000551,  0.006220, -0.156856
 -0.148785,  0.181169, -0.053274, -0.000477,  0.006206, -0.157090
 -0.148497,  0.169288, -0.052266, -0.000401,  0.006187, -0.157322
 -0.148237,  0.156862, -0.051246, -0.000323,  0.006160, -0.157553
 -0.148007,  0.143942, -0.050215, -0.000245,  0.006127, -0.157781
 -0.147809,  0.130580, -0.049173, -0.000166,  0.006086, -0.158008
 -0.147642,  0.116830, -0.048121, -0.000087,  0.006038, -0.158232
 -0.147509,  0.102747, -0.047058, -0.000008,  0.005981, -0.158453
 -0.147411,  0.088387, -0.045987,  0.000070,  0.005917, -0.158672
 -0.147348,  0.073807, -0.044906,  0.000146,  0.005844, -0.158887
 -0.147321,  0.059062, -0.043816,  0.000221,  0.005763, -0.159099
 -0.147330,  0.044212, -0.042719,  0.000294,  0.005674, -0.159308
 -0.147374,  0.029313, -0.041614,  0.000364,  0.005577, -0.159513
 -0.147455,  0.014421, -0.040502,  0.000432,  0.005472, -0.159714
 -0.147572, -0.000405, -0.039384,  0.000496,  0.005360, -0.159911
 -0.147724, -0.015110, -0.038260,  0.000556,  0.005241, -0.160104
 -0.147910, -0.029639, -0.037132,  0.000613,  0.005114, -0.160292
 -0.148130, -0.043938, -0.036000,  0.000665,  0.004982, -0.160476
 -0.148383, -0.057953, -0.034865,  0.000712,  0.004843, -0.160656
 -0.148667, -0.071634, -0.033727,  0.000755,  0.004699, -0.160830
 -0.148982, -0.084930, -0.032587,  0.000793,  0.004551, -0.161000
 -0.149325, -0.097794, -0.031446,  0.000826,  0.004398, -0.161165
 -0.149695, -0.110180, -0.030306,  0.000854,  0.004241, -0.161325
 -0.150089, -0.122044, -0.029166,  0.000876,  0.004082, -0.161480
 -0.150508, -0.133344, -0.028027,  0.000893,  0.003921, -0.161630
 -0.150947, -0.144042, -0.026891,  0.000904,  0.003758, -0.161776
 -0.151405, -0.154102, -0.025759,  0.000910,  0.003595, -0.161916
 -0.151881, -0.163489, -0.024630,  0.000910,  0.003431, -0.162051
 -0.152371, -0.172174, -0.023507,  0.000905,  0.003269, -0.162182
 -0.152873, -0.180128, -0.022389,  0.000895,  0.003107, -0.162307
 -0.153385, -0.187327, -0.021278,  0.000880,  0.002948, -0.162428
 -0.153905, -0.193750, -0.020174,  0.000859,  0.002791, -0.162545
 -0.154430, -0.199377, -0.019079,  0.000834,  0.002638, -0.162656
 -0.154957, -0.204194, -0.017992,  0.000804,  0.002489, -0.162764
 -0.155485, -0.208189, -0.016916,  0.000769,  0.002344, -0.162867
 -0.156010, -0.211353, -0.015850,  0.000731,  0.002204, -0.162966
 -0.156531, -0.213681, -0.014795,  0.000688,  0.002070, -0.163061
 -0.157045, -0.215171, -0.013752,  0.000642,  0.001941, -0.163153
 -0.157549, -0.215825, -0.012722,  0.000593,  0.001819, -0.163240
 -0.158042, -0.215646, -0.011706,  0.000540,  0.001704, -0.163325
 -0.158522, -0.214643, -0.010703,  0.000485,  0.001595, -0.163406
 -0.158986, -0.212826, -0.009716,  0.000428,  0.001494, -0.163484
 -0.159432, -0.210210, -0.008743,  0.000369,  0.001399, -0.163559
 -0.159858, -0.206812, -0.007786,  0.000308,  0.001313, -0.163631
 -0.160263, -0.202651, -0.006846,  0.000246,  0.001233, -0.163700
 -0.160646, -0.197750, -0.005922,  0.000184,  0.001161, -0.163767
 -0.161003, -0.192136, -0.005015,  0.000121,  0.001097, -0.163832
 -0.161335, -0.185835, -0.004126,  0.000058,  0.001039, -0.163895
 -0.161640, -0.178879, -0.003254, -0.000005,  0.000989, -0.163956
 -0.161916, -0.171301, -0.002402, -0.000067,  0.000945, -0.164015
 -0.162164, -0.163135, -0.001567, -0.000128,  0.000908, -0.164073
 -0.162381, -0.154420, -0.000751, -0.000187,  0.000878, -0.164129
 -0.162567, -0.145193,  0.000045, -0.000245,  0.000853, -0.164183
 -0.162723, -0.135496,  0.000823, -0.000301,  0.000833, -0.164236
 -0.162847, -0.125372,  0.001581, -0.000354,  0.000819, -0.164288
 -0.162939, -0.114863,  0.002320, -0.000404,  0.000809, -0.164339
 -0.162999, -0.104015,  0.003040, -0.000452,  0.000803, -0.164389
 -0.163028, -0.092873,  0.003740, -0.000496,  0.000800, -0.164438
 -0.163026, -0.081485,  0.004421, -0.000537,  0.000801, -0.164487
 -0.162992, -0.069897,  0.005082, -0.000574,  0.000804, -0.164534
 -0.162928, -0.058158,  0.005725, -0.000608,  0.000809, -0.164581
 -0.162834, -0.046315,  0.006348, -0.000637,  0.000815, -0.164627
 -0.162712, -0.034416,  0.006953, -0.000663,  0.000822, -0.164672
 -0.162561, -0.022510,  0.007539, -0.000684,  0.000829, -0.164716
 -0.162383, -0.010643,  0.008107, -0.000701,  0.000836, -0.164760
 -0.162180,  0.001136,  0.008657, -0.000714,  0.000842, -0.164803
 -0.161952,  0.012782,  0.009189, -0.000722,  0.000846, -0.164845
 -0.161701,  0.024249,  0.009705, -0.000726,  0.000849, -0.164887
 -0.161429,  0.035493,  0.010203, -0.000725,  0.000849, -0.164927
 -0.161137,  0.046469,  0.010685, -0.000720,  0.000847, -0.164967
 -0.160826,  0.057137,  0.011151, -0.000711,  0.000842, -0.165006
 -0.160499,  0.067456,  0.011602, -0.000698,  0.000832, -0.165044
 -0.160157,  0.077386,  0.012038, -0.000681,  0.000819, -0.165080
 -0.159801,  0.086891,  0.012460, -0.000660,  0.000802, -0.165116
 -0.159435,  0.095937,  0.012868, -0.000636,  0.000781, -0.165151
 -0.159059,  0.104489,  0.013263, -0.000608,  0.000755, -0.165184
 -0.158676,  0.112517,  0.013646, -0.000576,  0.000724, -0.165216
 -0.158287,  0.119993,  0.014017, -0.000542,  0.000688, -0.165247
 -0.157895,  0.126890,  0.014377, -0.000505,  0.000647, -0.165276
 -0.157500,  0.133185,  0.014726, -0.000465,  0.000601, -0.165304
 -0.157106,  0.138856,  0.015066, -0.000423,  0.000550, -0.165330
 -0.156714,  0.143885,  0.015396, -0.000378,  0.000495, -0.165355
 -0.156325,  0.148256,  0.015719, -0.000332,  0.000434, -0.165377
 -0.155942,  0.151956,  0.016033, -0.000285,  0.000369, -0.165398
 -0.155566,  0.154974,  0.016341, -0.000237,  0.000299, -0.165418
 -0.155199,  0.157302,  0.016643, -0.000187,  0.000225, -0.165435
 -0.154842,  0.158936,  0.016940, -0.000137,  0.000146, -0.165450
 -0.154497,  0.159872,  0.017232, -0.000087,  0.000064, -0.165464
 -0.154166,  0.160113,  0.017521, -0.000037, -0.000021, -0.165475
 -0.153848,  0.159660,  0.017806,  0.000013, -0.000110, -0.165485
 -0.153547,  0.158520,  0.018090,  0.000062, -0.000202, -0.165492
 -0.153262,  0.156702,  0.018372,  0.000111, -0.000296, -0.165498
 -0.152996,  0.154216,  0.018653,  0.000158, -0.000392, -0.165501
 -0.152748,  0.151076,  0.018934,  0.000204, -0.000490, -0.165502
 -0.152520,  0.147298,  0.019216,  0.000247, -0.000589, -0.165501
 -0.152312,  0.142902,  0.019500,  0.000289, -0.000689, -0.165498
 -0.152124,  0.137907,  0.019786,  0.000329, -0.000790, -0.165493
 -0.151959,  0.132337,  0.020075,  0.000367, -0.000891, -0.165486
 -0.151814,  0.126217,  0.020368,  0.000402, -0.000991, -0.165477
 -0.151692,  0.119574,  0.020665,  0.000434, -0.001091, -0.165466
 -0.151591,  0.112437,  0.020968,  0.000463, -0.001189, -0.165453
 -0.151513,  0.104836,  0.021276,  0.000489, -0.001286, -0.165439
 -0.151456,  0.096804,  0.021591,  0.000512, -0.001382, -0.165422
 -0.151421,  0.088375,  0.021913,  0.000532, -0.001475, -0.165404
 -0.151406,  0.079583,  0.022242,  0.000548, -0.001566, -0.165384
 -0.151413,  0.070464,  0.022580,  0.000561, -0.001654, -0.165362
 -0.151440,  0.061057,  0.022927,  0.000570, -0.001739, -0.165338
 -0.151486,  0.051399,  0.023284,  0.000576, -0.001821, -0.165313
 -0.151550,  0.041528,  0.023650,  0.000578, -0.001900, -0.165287
 -0.151633,  0.031484,  0.024027,  0.000577, -0.001975, -0.165259
 -0.151732,  0.021306,  0.024416,  0.000573, -0.002047, -0.165230
 -0.151848,  0.011035,  0.024816,  0.000565, -0.002116, -0.165199
 -0.151978,  0.000710,  0.025228,  0.000554, -0.002180, -0.165167
 -0.152122, -0.009628,  0.025653,  0.000540, -0.002241, -0.165134
 -0.152278, -0.019941,  0.026091,  0.000523, -0.002299, -0.165100
 -0.152445, -0.030188,  0.026542,  0.000503, -0.002353, -0.165064
 -0.152622, -0.040332,  0.027007,  0.000480, -0.002403, -0.165028
 -0.152808, -0.050334,  0.027487,  0.000454, -0.002450, -0.164991
 -0.153001, -0.060157,  0.027981,  0.000426, -0.002494, -0.164952
 -0.153199, -0.069765,  0.028490,  0.000396, -0.002535, -0.164913
 -0.153401, -0.079124,  0.029015,  0.000364, -0.002573, -0.164872
 -0.153607, -0.088199,  0.029555,  0.000330, -0.002609, -0.164831
 -0.153813, -0.096958,  0.030111,  0.000295, -0.002643, -0.164789
 -0.154020, -0.105370,  0.030684,  0.000258, -0.002675, -0.164746
 -0.154225, -0.113405,  0.031273,  0.000220, -0.002705, -0.164702
 -0.154427, -0.121038,  0.031879,  0.000181, -0.002733, -0.164657
 -0.154625, -0.128240,  0.032502,  0.000142, -0.002761, -0.164611
 -0.154817, -0.134990,  0.033142,  0.000102, -0.002789, -0.164564
 -0.155002, -0.141262,  0.033798,  0.000062, -0.002815, -0.164516
 -0.155179, -0.147039,  0.034470,  0.000022, -0.002842, -0.164467
 -0.155346, -0.152300,  0.035157, -0.000018, -0.002868, -0.164417
 -0.155502, -0.157031,  0.035860, -0.000057, -0.002895, -0.164366
 -0.155647, -0.161218,  0.036576, -0.000095, -0.002923, -0.164314
 -0.155779, -0.164848,  0.037307, -0.000133, -0.002951, -0.164261
 -0.155897, -0.167913,  0.038051, -0.000169, -0.002981, -0.164206
 -0.156000, -0.170405,  0.038809, -0.000204, -0.003011, -0.164151
 -0.156088, -0.172320,  0.039578, -0.000237, -0.003044, -0.164094
 -0.156159, -0.173656,  0.040360, -0.000268, -0.003078, -0.164035
 -0.156214, -0.174413,  0.041154, -0.000298, -0.003114, -0.163976
 -0.156251, -0.174592,  0.041959, -0.000325, -0.003152, -0.163914
 -0.156270, -0.174199,  0.042774, -0.000350, -0.003193, -0.163852
 -0.156271, -0.173239,  0.043600, -0.000373, -0.003236, -0.163787
 -0.156253, -0.171723,  0.044435, -0.000393, -0.003282, -0.163721
 -0.156217, -0.169661,  0.045280, -0.000411, -0.003331, -0.163654
 -0.156161, -0.167067,  0.046133, -0.000426, -0.003383, -0.163584
 -0.156087, -0.163955,  0.046995, -0.000439, -0.003437, -0.163513
 -0.155994, -0.160343,  0.047864, -0.000448, -0.003495, -0.163440
 -0.155881, -0.156250,  0.048741, -0.000455, -0.003556, -0.163366
 -0.155750, -0.151696,  0.049625, -0.000460, -0.003621, -0.163289
 -0.155601, -0.146704,  0.050515, -0.000461, -0.003688, -0.163210
 -0.155434, -0.141299,  0.051412, -0.000460, -0.003759, -0.163129
 -0.155250, -0.135504,  0.052315, -0.000456, -0.003833, -0.163046
 -0.155048, -0.129349,  0.053222, -0.000449, -0.003909, -0.162961
 -0.154830, -0.122859,  0.054135, -0.000440, -0.003989, -0.162874
 -0.154596, -0.116066,  0.055053, -0.000428, -0.004072, -0.162784
 -0.154348, -0.108999,  0.055975, -0.000414, -0.004158, -0.162692
 -0.154085, -0.101688,  0.056900, -0.000397, -0.004246, -0.162598
 -0.153808, -0.094167,  0.057830, -0.000379, -0.004338, -0.162501
 -0.153519, -0.086467,  0.058762, -0.000358, -0.004431, -0.162401
 -0.153219, -0.078621,  0.059698, -0.000336, -0.004527, -0.162300
 -0.152907, -0.070664,  0.060636, -0.000311, -0.004625, -0.162195
 -0.152586, -0.062627,  0.061577, -0.000285, -0.004724, -0.162088
 -0.152256, -0.054546,  0.062520, -0.000258, -0.004826, -0.161979
 -0.151918, -0.046452,  0.063465, -0.000230, -0.004929, -0.161866
 -0.151573, -0.038381,  0.064412, -0.000200, -0.005033, -0.161751
 -0.151223, -0.030365,  0.065361, -0.000170, -0.005138, -0.161633
 -0.150867, -0.022436,  0.066311, -0.000139, -0.005245, -0.161513
 -0.150508, -0.014627,  0.067262, -0.000107, -0.005351, -0.161390
 -0.150146, -0.006968,  0.068214, -0.000075, -0.005459, -0.161263
 -0.149783,  0.000508,  0.069167, -0.000043, -0.005567, -0.161135
 -0.149419,  0.007773,  0.070121, -0.000012, -0.005674, -0.161003
 -0.149055,  0.014799,  0.071076,  0.000020, -0.005782, -0.160868
 -0.148692,  0.021557,  0.072031,  0.000051, -0.005890, -0.160730
 -0.148331,  0.028021,  0.072986,  0.000081, -0.005996, -0.160590
 -0.147973,  0.034167,  0.073942,  0.000111, -0.006103, -0.160447
 -0.147619,  0.039970,  0.074899,  0.000140, -0.006208, -0.160300
 -0.147269,  0.045410,  0.075855,  0.000167, -0.006313, -0.160151
 -0.146924,  0.050464,  0.076812,  0.000193, -0.006417, -0.159999
 -0.146586,  0.055116,  0.077769,  0.000218, -0.006519, -0.159844
 -0.146254,  0.059347,  0.078726,  0.000241, -0.006621, -0.159686
 -0.145929,  0.063142,  0.079684,  0.000263, -0.006721, -0.159525
 -0.145611,  0.066488,  0.080641,  0.000282, -0.006820, -0.159362
 -0.145302,  0.069373,  0.081599,  0.000300, -0.006917, -0.159195
 -0.145001,  0.071787,  0.082557,  0.000316, -0.007013, -0.159025
 -0.144709,  0.073723,  0.083515,  0.000330, -0.007107, -0.158853
 -0.144426,  0.075174,  0.084473,  0.000342, -0.007200, -0.158677
 -0.144152,  0.076137,  0.085431,  0.000351, -0.007292, -0.158499
 -0.143888,  0.076610,  0.086390,  0.000359, -0.007382, -0.158318
 -0.143633,  0.076592,  0.087348,  0.000364, -0.007471, -0.158134
 -0.143388,  0.076085,  0.088308,  0.000367, -0.007559, -0.157947
 -0.143152,  0.075094,  0.089267,  0.000367, -0.007645, -0.157758
 -0.142925,  0.073623,  0.090227,  0.000366, -0.007730, -0.157565
 -0.142707,  0.071680,  0.091187,  0.000362, -0.007814, -0.157370
 -0.142499,  0.069275,  0.092148,  0.000357, -0.007898, -0.157172
 -0.142299,  0.066418,  0.093109,  0.000349, -0.007980, -0.156971
 -0.142107,  0.063122,  0.094070,  0.000339, -0.008062, -0.156767
 -0.141923,  0.059402,  0.095033,  0.000328, -0.008143, -0.156561
 -0.141747,  0.055273,  0.095995,  0.000314, -0.008224, -0.156352
 -0.141577,  0.050753,  0.096959,  0.000299, -0.008305, -0.156140
 -0.141414,  0.045860,  0.097923,  0.000282, -0.008385, -0.155925
 -0.141257,  0.040615,  0.098887,  0.000264, -0.008466, -0.155708
 -0.141105,  0.035040,  0.099852,  0.000244, -0.008546, -0.155488
 -0.140957,  0.029156,  0.100818,  0.000224, -0.008627, -0.155265
 -0.140814,  0.022987,  0.101784,  0.000202, -0.008709, -0.155040
 -0.140674,  0.016559,  0.102751,  0.000179, -0.008791, -0.154812
 -0.140536,  0.009895,  0.103719,  0.000155, -0.008873, -0.154582
 -0.140401,  0.003023,  0.104687,  0.000131, -0.008957, -0.154348
 -0.140266, -0.004030,  0.105656,  0.000106, -0.009041, -0.154113
 -0.140132, -0.011238,  0.106625,  0.000081, -0.009126, -0.153874
 -0.139997, -0.018573,  0.107594,  0.000055, -0.009213, -0.153633
 -0.139861, -0.026005,  0.108564,  0.000030, -0.009301, -0.153390
 -0.139723, -0.033508,  0.109534,  0.000005, -0.009390, -0.153144
 -0.139583, -0.041053,  0.110505, -0.000021, -0.009480, -0.152895
 -0.139439, -0.048612,  0.111475, -0.000045, -0.009572, -0.152644
