SHIH-XIAN-YANG/Robotic-vitual-system/run/exp7/log/joint_pos.txt
# Joint1, Joint2, Joint3, Joint4, Joint5, Joint6
  0.000000, -0.004110, -0.011809, -0.027643, -0.003109, -0.002948
  0.005229, -0.012311, -0.047048, -0.110296, -0.015509, -0.011742
  0.026103, -0.012234, -0.093406, -0.219416, -0.040169, -0.023271
  0.067682,  0.004322, -0.138614, -0.326229, -0.076847, -0.034394
  0.129674,  0.037240, -0.182460, -0.429930, -0.125266, -0.044990
  0.211746,  0.086365, -0.224831, -0.529939, -0.185161, -0.054985
  0.313572,  0.151546, -0.265619, -0.625704, -0.256267, -0.064312
  0.434831,  0.232630, -0.304722, -0.716707, -0.338330, -0.072909
  0.575206,  0.329466, -0.342045, -0.802460, -0.431098, -0.080725
  0.734386,  0.441907, -0.377501, -0.882514, -0.534328, -0.087714
  0.912065,  0.569805, -0.411007, -0.956459, -0.647780, -0.093838
  1.107943,  0.713013, -0.442488, -1.023924, -0.771220, -0.099066
  1.321723,  0.871388, -0.471877, -1.084582, -0.904421, -0.103378
  1.553114,  1.044786, -0.499114, -1.138148, -1.047160, -0.106758
  1.801830,  1.233064, -0.524145, -1.184385, -1.199218, -0.109200
  2.067588,  1.436084, -0.546924, -1.223099, -1.360382, -0.110706
  2.350112,  1.653705, -0.567414, -1.254145, -1.530445, -0.111284
  2.649128,  1.885790, -0.585582, -1.277423, -1.709204, -0.110951
  2.964368,  2.132201, -0.601406, -1.292883, -1.896458, -0.109730
  3.295569,  2.392804, -0.614869, -1.300518, -2.092016, -0.107651
  3.642471,  2.667465, -0.625962, -1.300370, -2.295686, -0.104749
  4.004817,  2.956050, -0.634683, -1.292526, -2.507284, -0.101067
  4.382358,  3.258429, -0.641038, -1.277118, -2.726628, -0.096651
  4.774845,  3.574471, -0.645038, -1.254321, -2.953541, -0.091554
  5.182036,  3.904047, -0.646705, -1.224351, -3.187851, -0.085833
  5.603692,  4.247029, -0.646062, -1.187464, -3.429388, -0.079546
  6.039576,  4.603291, -0.643145, -1.143957, -3.677987, -0.072758
  6.489458,  4.972707, -0.637990, -1.094159, -3.933487, -0.065534
  6.953110,  5.355153, -0.630644, -1.038436, -4.195731, -0.057941
  7.430307,  5.750507, -0.621158, -0.977182, -4.464564, -0.050049
  7.920830,  6.158645, -0.609589, -0.910821, -4.739835, -0.041928
  8.424462,  6.579447, -0.596000, -0.839802, -5.021398, -0.033647
  8.940988,  7.012794, -0.580457, -0.764598, -5.309109, -0.025276
  9.470201,  7.458567, -0.563035, -0.685700, -5.602827, -0.016883
 10.011892,  7.916650, -0.543810, -0.603616, -5.902416, -0.008537
 10.565860,  8.386924, -0.522865, -0.518866, -6.207740, -0.000300
 11.131904,  8.869277, -0.500285, -0.431983, -6.518670,  0.007762
 11.709828,  9.363593, -0.476159, -0.343504, -6.835076,  0.015593
 12.299438,  9.869759, -0.450581, -0.253970, -7.156834,  0.023134
 12.900545, 10.387664, -0.423648, -0.163923, -7.483821,  0.030334
 13.512962, 10.917196, -0.395457, -0.073902, -7.815919,  0.037145
 14.136504, 11.458246, -0.366111,  0.015560, -8.153010,  0.043522
 14.770990, 12.010706, -0.335714,  0.103941, -8.494980,  0.049427
 15.416243, 12.574467, -0.304370,  0.190729, -8.841717,  0.054826
 16.072088, 13.149422, -0.272186,  0.275427, -9.193114,  0.059689
 16.738351, 13.735467, -0.239271,  0.357559, -9.549063,  0.063993
 17.414863, 14.332495, -0.205732,  0.436665, -9.909460,  0.067719
 18.101458, 14.940404, -0.171680,  0.512311,-10.274204,  0.070854
 18.797972, 15.559091, -0.137223,  0.584088,-10.643195,  0.073391
 19.504243, 16.188453, -0.102470,  0.651614,-11.016336,  0.075326
 20.220113, 16.828391, -0.067530,  0.714535,-11.393534,  0.076662
 20.945425, 17.478804, -0.032510,  0.772530,-11.774694,  0.077408
 21.680025, 18.139593,  0.002483,  0.825311,-12.159726,  0.077575
 22.423764, 18.810661,  0.037345,  0.872623,-12.548542,  0.077182
 23.176491, 19.491909,  0.071973,  0.914245,-12.941056,  0.076250
 23.938061, 20.183243,  0.106266,  0.949996,-13.337183,  0.074805
 24.708330, 20.884567,  0.140125,  0.979727,-13.736840,  0.072877
 25.487156, 21.595786,  0.173454,  1.003330,-14.139947,  0.070501
 26.274400, 22.316807,  0.206160,  1.020733,-14.546424,  0.067711
 27.069925, 23.047538,  0.238153,  1.031901,-14.956196,  0.064550
 27.873597, 23.787886,  0.269346,  1.036837,-15.369186,  0.061058
 28.685283, 24.537762,  0.299657,  1.035581,-15.785322,  0.057280
 29.504852, 25.297074,  0.329005,  1.028209,-16.204530,  0.053262
 30.332176, 26.065735,  0.357317,  1.014832,-16.626742,  0.049051
 31.167129, 26.843655,  0.384519,  0.995596,-17.051888,  0.044697
 32.009588, 27.630747,  0.410546,  0.970679,-17.479902,  0.040247
 32.859429, 28.426924,  0.435334,  0.940291,-17.910717,  0.035751
 33.716533, 29.232101,  0.458827,  0.904674,-18.344271,  0.031257
 34.580781, 30.046193,  0.480969,  0.864096,-18.780499,  0.026814
 35.452058, 30.869116,  0.501714,  0.818851,-19.219342,  0.022469
 36.330249, 31.700786,  0.521016,  0.769260,-19.660740,  0.018267
 37.215241, 32.541120,  0.538838,  0.715664,-20.104633,  0.014253
 38.106925, 33.390037,  0.555145,  0.658424,-20.550966,  0.010468
 39.005190, 34.247455,  0.569909,  0.597920,-20.999681,  0.006953
 39.909930, 35.113295,  0.583105,  0.534546,-21.450726,  0.003744
 40.821039, 35.987477,  0.594715,  0.468709,-21.904047,  0.000876
 41.738415, 36.869922,  0.604725,  0.400826,-22.359591, -0.001619
 42.661954, 37.760551,  0.613127,  0.331321,-22.817308, -0.003714
 43.591557, 38.659289,  0.619916,  0.260623,-23.277148, -0.005382
 44.527126, 39.566058,  0.625094,  0.189165,-23.739063, -0.006602
 45.468562, 40.480782,  0.628666,  0.117378,-24.203006, -0.007357
 46.415771, 41.403386,  0.630643,  0.045689,-24.668929, -0.007631
 47.368658, 42.333796,  0.631040, -0.025476,-25.136789, -0.007414
 48.327132, 43.271938,  0.629877, -0.095704,-25.606539, -0.006699
 49.291101, 44.217739,  0.627178, -0.164588,-26.078138, -0.005480
 50.260476, 45.171126,  0.622972, -0.231735,-26.551543, -0.003759
 51.235169, 46.132029,  0.617291, -0.296769,-27.026713, -0.001538
 52.215093, 47.100376,  0.610173, -0.359326,-27.503608,  0.001176
 53.200164, 48.076096,  0.601657, -0.419064,-27.982188,  0.004374
 54.190297, 49.059121,  0.591787, -0.475660,-28.462414,  0.008043
 55.185411, 50.048579,  0.580611, -0.528815,-28.944249,  0.012168
 56.185424, 51.041831,  0.568181, -0.578252,-29.427657,  0.016730
 57.190256, 52.035124,  0.554550, -0.623718,-29.912600,  0.021710
 58.199830, 53.024561,  0.539774, -0.664990,-30.399045,  0.027085
 59.214067, 54.006291,  0.523914, -0.701868,-30.886957,  0.032829
 60.232893, 54.976518,  0.507030, -0.734184,-31.376302,  0.038917
 61.256232, 55.931519,  0.489189, -0.761797,-31.867048,  0.045321
 62.284011, 56.867657,  0.470455, -0.784594,-32.359163,  0.052011
 63.316158, 57.781573,  0.450897, -0.802495,-32.852615,  0.058959
 64.352602, 58.671081,  0.430584, -0.815448,-33.347374,  0.066134
 65.393272, 59.535673,  0.409587, -0.823430,-33.843409,  0.073505
 66.438101, 60.375582,  0.387978, -0.826450,-34.340693,  0.081040
 67.487020, 61.191039,  0.365830, -0.824544,-34.839196,  0.088710
 68.539963, 61.982277,  0.343217, -0.817778,-35.338890,  0.096484
 69.596864, 62.749524,  0.320211, -0.806247,-35.839748,  0.104332
 70.657659, 63.493007,  0.296889, -0.790070,-36.341744,  0.112226
 71.722285, 64.212949,  0.273322, -0.769396,-36.844852,  0.120138
 72.790679, 64.909574,  0.249586, -0.744395,-37.349046,  0.128041
 73.862780, 65.583101,  0.225753, -0.715265,-37.854301,  0.135911
 74.938528, 66.233749,  0.201896, -0.682223,-38.360594,  0.143725
 76.017864, 66.861733,  0.178087, -0.645509,-38.867900,  0.151462
 77.100728, 67.467268,  0.154395, -0.605379,-39.376196,  0.159101
 78.187064, 68.050566,  0.130891, -0.562110,-39.885460,  0.166628
 79.276815, 68.611836,  0.107642, -0.515992,-40.395669,  0.174025
 80.369925, 69.151288,  0.084713, -0.467330,-40.906803,  0.181281
 81.466341, 69.669126,  0.062170, -0.416439,-41.418839,  0.188385
 82.566007, 70.165555,  0.040073, -0.363647,-41.931758,  0.195331
 83.668872, 70.640777,  0.018484, -0.309286,-42.445538,  0.202111
 84.774883, 71.094992, -0.002542, -0.253695,-42.960161,  0.208723
 85.883989, 71.528399, -0.022947, -0.197218,-43.475607,  0.215167
 86.995872, 71.941194, -0.042681, -0.140198,-43.991858,  0.221444
 88.108562, 72.333573, -0.061693, -0.082979,-44.508894,  0.227558
 89.217598, 72.705727, -0.079937, -0.025902,-45.026698,  0.233516
 90.317460, 73.057847, -0.097369,  0.030697,-45.545253,  0.239326
 91.402738, 73.390124, -0.113948,  0.086488,-46.064541,  0.244997
 92.468165, 73.702744, -0.129637,  0.141151,-46.584546,  0.250544
 93.508644, 73.995893, -0.144400,  0.194373,-47.105251,  0.255978
 94.519269, 74.269754, -0.158208,  0.245855,-47.626640,  0.261318
 95.495875, 74.524511, -0.171032,  0.295313,-48.148697,  0.266578
 96.436252, 74.760343, -0.182848,  0.342475,-48.671408,  0.271779
 97.340246, 74.977429, -0.193634,  0.387089,-49.194757,  0.276939
 98.208445, 75.175947, -0.203374,  0.428918,-49.718730,  0.282079
 99.041429, 75.356071, -0.212053,  0.467745,-50.243313,  0.287221
 99.839772, 75.517975, -0.219661,  0.503373,-50.768491,  0.292386
100.604037, 75.661831, -0.226189,  0.535628,-51.294251,  0.297598
101.334779, 75.787810, -0.231635,  0.564355,-51.820580,  0.302878
102.032544, 75.896081, -0.235998,  0.589424,-52.346660,  0.308250
102.697867, 75.986811, -0.239280,  0.610727,-52.869805,  0.313736
103.331277, 76.060164, -0.241487,  0.628178,-53.386027,  0.319359
103.933292, 76.116307, -0.242629,  0.641718,-53.891171,  0.325139
104.504424, 76.155401, -0.242719,  0.651310,-54.381229,  0.331100
105.045175, 76.177606, -0.241771,  0.656940,-54.852376,  0.337261
105.556039, 76.183084, -0.239804,  0.658619,-55.301779,  0.343643
106.037503, 76.171990, -0.236840,  0.656381,-55.728533,  0.350263
106.490044, 76.144483, -0.232902,  0.650282,-56.132960,  0.357139
106.914134, 76.100717, -0.228018,  0.640401,-56.515565,  0.364288
107.310235, 76.040846, -0.222216,  0.626839,-56.876849,  0.371724
107.678803, 75.965021, -0.215530,  0.609716,-57.217298,  0.379462
108.020285, 75.873394, -0.207992,  0.589173,-57.537388,  0.387512
108.335123, 75.766113, -0.199639,  0.565371,-57.837584,  0.395887
108.623749, 75.643327, -0.190510,  0.538484,-58.118341,  0.404594
108.886590, 75.505181, -0.180645,  0.508708,-58.380103,  0.413641
109.124066, 75.351822, -0.170086,  0.476249,-58.623303,  0.423033
109.336590, 75.183392, -0.158877,  0.441331,-58.848367,  0.432775
109.524566, 75.000034, -0.147063,  0.404186,-59.055708,  0.442870
109.688396, 74.801889, -0.134690,  0.365060,-59.245731,  0.453317
109.828471, 74.589096, -0.121807,  0.324206,-59.418833,  0.464118
109.945177, 74.361794, -0.108461,  0.281884,-59.575398,  0.475268
110.038896, 74.120121, -0.094703,  0.238362,-59.715806,  0.486765
110.110002, 73.864211, -0.080582,  0.193911,-59.840426,  0.498604
110.158861, 73.594198, -0.066150,  0.148803,-59.949617,  0.510778
110.185836, 73.310218, -0.051458,  0.103313,-60.043734,  0.523281
110.191283, 73.012400, -0.036557,  0.057715,-60.123119,  0.536103
110.175553, 72.700876, -0.021498,  0.012280,-60.188110,  0.549236
110.138989, 72.375776, -0.006334, -0.032725,-60.239035,  0.562668
110.081931, 72.037227,  0.008885, -0.077038,-60.276217,  0.576388
110.004713, 71.685356,  0.024109, -0.120406,-60.299968,  0.590385
109.907661, 71.320290,  0.039286, -0.162580,-60.310596,  0.604647
109.791100, 70.942153,  0.054367, -0.203326,-60.308400,  0.619160
109.655346, 70.551068,  0.069303, -0.242418,-60.293674,  0.633911
109.500711, 70.147157,  0.084047, -0.279642,-60.266704,  0.648888
109.327503, 69.730543,  0.098550, -0.314799,-60.227769,  0.664076
109.136024, 69.301344,  0.112769, -0.347704,-60.177143,  0.679462
108.926571, 68.859680,  0.126658, -0.378186,-60.115093,  0.695034
108.699437, 68.405668,  0.140174, -0.406093,-60.041880,  0.710778
108.454909, 67.939425,  0.153276, -0.431287,-59.957759,  0.726681
108.193270, 67.461066,  0.165924, -0.453649,-59.862979,  0.742732
107.914799, 66.970707,  0.178080, -0.473079,-59.757784,  0.758917
107.619769, 66.468459,  0.189707, -0.489493,-59.642412,  0.775226
107.308450, 65.954436,  0.200771, -0.502828,-59.517095,  0.791647
106.981107, 65.428749,  0.211240, -0.513039,-59.382060,  0.808172
106.638000, 64.891507,  0.221082, -0.520100,-59.237530,  0.824790
106.279387, 64.342821,  0.230271, -0.524004,-59.083721,  0.841493
105.905519, 63.782797,  0.238778, -0.524764,-58.920846,  0.858273
105.516644, 63.211543,  0.246581, -0.522408,-58.749111,  0.875123
105.113007, 62.629166,  0.253658, -0.516987,-58.568719,  0.892037
104.694848, 62.035770,  0.259988, -0.508565,-58.379868,  0.909010
104.262403, 61.431459,  0.265555, -0.497225,-58.182751,  0.926038
103.815904, 60.816336,  0.270343, -0.483068,-57.977557,  0.943117
103.355581, 60.190504,  0.274340, -0.466208,-57.764470,  0.960245
102.881657, 59.554063,  0.277536, -0.446775,-57.543671,  0.977420
102.394355, 58.907114,  0.279922, -0.424912,-57.315335,  0.994642
101.893892, 58.249756,  0.281492, -0.400775,-57.079636,  1.011911
101.380482, 57.582088,  0.282244, -0.374534,-56.836741,  1.029228
100.854336, 56.904206,  0.282176, -0.346365,-56.586815,  1.046595
100.315661, 56.216676,  0.281289, -0.316458,-56.330018,  1.064014
 99.764661, 55.521206,  0.279586, -0.285008,-56.066508,  1.081489
 99.201536, 54.820384,  0.277073, -0.252219,-55.796437,  1.099024
 98.626483, 54.117003,  0.273757, -0.218300,-55.519956,  1.116622
 98.039698, 53.413849,  0.269648, -0.183464,-55.237211,  1.134290
 97.441369, 52.713685,  0.264756, -0.147927,-54.948345,  1.152032
 96.831686, 52.019246,  0.259097, -0.111908,-54.653498,  1.169855
 96.210833, 51.333222,  0.252685, -0.075625,-54.352807,  1.187764
 95.578992, 50.658254,  0.245537, -0.039295,-54.046538,  1.205767
 94.936461, 49.996920,  0.237671, -0.003135,-53.735710,  1.223870
 94.284486, 49.351728,  0.229110,  0.032644,-53.422444,  1.242079
 93.625865, 48.725103,  0.219873,  0.067834,-53.109340,  1.260402
 92.964108, 48.119148,  0.209986,  0.102233,-52.798964,  1.278845
 92.302703, 47.535053,  0.199472,  0.135646,-52.493819,  1.297416
 91.645088, 46.972991,  0.188357,  0.167886,-52.196332,  1.316121
 90.994643, 46.432756,  0.176670,  0.198777,-51.908828,  1.334966
 90.354665, 45.914141,  0.164438,  0.228149,-51.633519,  1.353958
 89.728359, 45.416943,  0.151690,  0.255845,-51.372481,  1.373102
 89.118818, 44.940959,  0.138456,  0.281721,-51.127644,  1.392404
 88.529013, 44.485989,  0.124768,  0.305642,-50.900315,  1.411870
 87.961775, 44.051834,  0.110657,  0.327490,-50.690717,  1.431504
 87.419787, 43.638298,  0.096154,  0.347157,-50.498488,  1.451309
 86.905389, 43.245186,  0.081293,  0.364552,-50.323231,  1.471291
 86.419916, 42.872305,  0.066106,  0.379597,-50.164559,  1.491451
 85.963425, 42.519465,  0.050625,  0.392228,-50.022092,  1.511793
 85.535450, 42.186475,  0.034885,  0.402398,-49.895462,  1.532319
 85.135528, 41.873149,  0.018918,  0.410073,-49.784305,  1.553029
 84.763200, 41.579300,  0.002757,  0.415236,-49.688268,  1.573924
 84.418020, 41.304745, -0.013564,  0.417883,-49.607006,  1.595006
 84.099544, 41.049302, -0.030014,  0.418028,-49.540181,  1.616272
 83.807339, 40.812790, -0.046560,  0.415697,-49.487464,  1.637723
 83.540977, 40.595030, -0.063171,  0.410931,-49.448532,  1.659356
 83.300037, 40.395845, -0.079815,  0.403785,-49.423070,  1.681169
 83.084107, 40.215061, -0.096461,  0.394327,-49.410770,  1.703160
 82.892778, 40.052502, -0.113081,  0.382641,-49.411332,  1.725324
 82.725652, 39.907997, -0.129646,  0.368818,-49.424462,  1.747659
 82.582333, 39.781375, -0.146127,  0.352965,-49.449873,  1.770159
 82.462436, 39.672468, -0.162497,  0.335198,-49.487284,  1.792821
 82.365578, 39.581108, -0.178730,  0.315644,-49.536420,  1.815638
 82.291385, 39.507130, -0.194802,  0.294437,-49.597015,  1.838606
 82.239488, 39.450369, -0.210690,  0.271722,-49.668806,  1.861719
 82.209525, 39.410663, -0.226369,  0.247650,-49.751537,  1.884970
 82.201138, 39.387850, -0.241821,  0.222378,-49.844959,  1.908353
 82.213977, 39.381772, -0.257024,  0.196070,-49.948827,  1.931861
 82.247696, 39.392270, -0.271960,  0.168892,-50.062903,  1.955489
 82.301955, 39.419187, -0.286612,  0.141014,-50.186953,  1.979229
 82.376421, 39.462369, -0.300966,  0.112611,-50.320750,  2.003074
 82.470764, 39.521661, -0.315006,  0.083855,-50.464070,  2.027019
 82.584662, 39.596913, -0.328720,  0.054920,-50.616697,  2.051055
 82.717795, 39.687972, -0.342097,  0.025981,-50.778418,  2.075176
 82.869852, 39.794690, -0.355129, -0.002792,-50.949024,  2.099376
 83.040524, 39.916920, -0.367806, -0.031230,-51.128313,  2.123649
 83.229508, 40.054513, -0.380122, -0.059169,-51.316086,  2.147987
 83.436507, 40.207326, -0.392074, -0.086448,-51.512019,  2.172387
 83.661227, 40.375214, -0.403656, -0.112914,-51.715250,  2.196841
 83.903380, 40.558036, -0.414869, -0.138419,-51.924235,  2.221344
 84.162682, 40.755650, -0.425711, -0.162822,-52.137138,  2.245892
 84.438855, 40.967916, -0.436184, -0.185991,-52.352112,  2.270480
 84.731624, 41.194696, -0.446291, -0.207803,-52.567322,  2.295103
 85.040719, 41.435853, -0.456035, -0.228144,-52.780957,  2.319758
 85.365874, 41.691252, -0.465424, -0.246909,-52.991243,  2.344440
 85.706828, 41.960757, -0.474463, -0.264006,-53.196460,  2.369148
 86.063324, 42.244236, -0.483162, -0.279350,-53.394953,  2.393878
 86.435109, 42.541557, -0.491529, -0.292871,-53.585149,  2.418628
 86.821935, 42.852588, -0.499577, -0.304508,-53.765563,  2.443396
 87.223556, 43.177201, -0.507317, -0.314214,-53.934812,  2.468181
 87.639732, 43.515266, -0.514763, -0.321953,-54.091625,  2.492982
 88.070227, 43.866658, -0.521929, -0.327701,-54.234852,  2.517797
 88.514806, 44.231250, -0.528831, -0.331445,-54.363476,  2.542627
 88.972993, 44.608918, -0.535486, -0.333186,-54.476892,  2.567472
 89.443517, 44.999537, -0.541910, -0.332935,-54.575140,  2.592331
 89.924256, 45.402987, -0.548123, -0.330716,-54.658562,  2.617207
 90.412778, 45.819145, -0.554143, -0.326565,-54.727498,  2.642099
 90.906637, 46.247891, -0.559991, -0.320525,-54.782278,  2.667009
 91.403394, 46.689108, -0.565687, -0.312656,-54.823226,  2.691939
 91.900627, 47.142676, -0.571252, -0.303022,-54.850658,  2.716890
 92.395942, 47.608479, -0.576707, -0.291702,-54.864882,  2.741864
 92.886986, 48.086402, -0.582076, -0.278780,-54.866201,  2.766863
 93.371460, 48.576331, -0.587380, -0.264351,-54.854909,  2.791890
 93.847126, 49.078151, -0.592643, -0.248516,-54.831294,  2.816946
 94.311821, 49.591539, -0.597886, -0.231386,-54.795638,  2.842034
 94.763464, 50.115460, -0.603135, -0.213075,-54.748216,  2.867157
 95.200068, 50.648097, -0.608411, -0.193706,-54.689297,  2.892316
 95.619748, 51.187330, -0.613738, -0.173404,-54.619143,  2.917515
 96.020730, 51.731029, -0.619139, -0.152301,-54.538012,  2.942754
 96.401356, 52.277061, -0.624638, -0.130529,-54.446153,  2.968038
 96.760093, 52.823301, -0.630258, -0.108226,-54.343812,  2.993366
 97.095538, 53.367637, -0.636020, -0.085528,-54.231229,  3.018743
 97.406427, 53.907979, -0.641948, -0.062576,-54.108638,  3.044168
 97.691876, 54.442270, -0.648064, -0.039507,-53.976295,  3.069645
 97.951701, 54.968489, -0.654388, -0.016459,-53.834740,  3.095174
 98.186212, 55.484664, -0.660943,  0.006431,-53.685009,  3.120756
 98.395818, 55.988873, -0.667747,  0.029030,-53.528405,  3.146393
 98.580924, 56.479259, -0.674822,  0.051207,-53.366270,  3.172085
 98.741930, 56.954029, -0.682187,  0.072836,-53.199972,  3.197833
 98.879228, 57.411467, -0.689859,  0.093794,-53.030893,  3.223636
 98.993202, 57.849934, -0.697857,  0.113965,-52.860416,  3.249495
 99.084233, 58.268266, -0.706197,  0.133239,-52.689918,  3.275409
 99.152694, 58.666158, -0.714895,  0.151510,-52.520753,  3.301378
 99.198953, 59.043774, -0.723967,  0.168683,-52.354246,  3.327401
 99.223369, 59.401305, -0.733426,  0.184667,-52.191679,  3.353476
 99.226299, 59.738941, -0.743287,  0.199381,-52.034283,  3.379602
 99.208093, 60.056869, -0.753560,  0.212752,-51.883230,  3.405778
 99.169093, 60.355277, -0.764258,  0.224716,-51.739618,  3.432001
 99.109639, 60.634347, -0.775390,  0.235217,-51.604471,  3.458270
 99.030064, 60.894264, -0.786966,  0.244209,-51.478727,  3.484581
 98.930693, 61.135207, -0.798994,  0.251657,-51.363232,  3.510932
 98.811851, 61.357356, -0.811481,  0.257533,-51.258735,  3.537321
 98.673852, 61.560888, -0.824432,  0.261819,-51.165884,  3.563744
 98.517010, 61.745979, -0.837853,  0.264507,-51.085218,  3.590198
 98.341631, 61.912804, -0.851747,  0.265601,-51.017171,  3.616680
 98.148015, 62.061534, -0.866116,  0.265110,-50.962065,  3.643186
 97.936461, 62.192342, -0.880964,  0.263055,-50.920109,  3.669713
 97.707358, 62.305395, -0.896289,  0.259466,-50.891394,  3.696257
 97.461520, 62.400862, -0.912092,  0.254380,-50.875848,  3.722815
 97.200324, 62.478908, -0.928370,  0.247845,-50.873238,  3.749382
 96.925421, 62.539699, -0.945121,  0.239915,-50.883268,  3.775956
 96.638511, 62.583397, -0.962341,  0.230653,-50.905649,  3.802532
 96.341331, 62.610164, -0.980026,  0.220128,-50.940063,  3.829106
 96.035648, 62.620159, -0.998170,  0.208416,-50.986076,  3.855676
 95.723252, 62.613541, -1.016767,  0.195600,-51.043105,  3.882236
 95.405939, 62.590467, -1.035808,  0.181768,-51.110459,  3.908785
 95.085512, 62.551092, -1.055285,  0.167013,-51.187372,  3.935318
 94.763761, 62.495570, -1.075190,  0.151433,-51.273010,  3.961831
 94.442464, 62.424053, -1.095511,  0.135128,-51.366478,  3.988323
 94.123372, 62.336694, -1.116239,  0.118204,-51.466829,  4.014789
 93.808201, 62.233641, -1.137361,  0.100768,-51.573074,  4.041226
 93.498628, 62.115042, -1.158866,  0.082928,-51.684188,  4.067633
 93.196276, 61.981045, -1.180740,  0.064794,-51.799120,  4.094007
 92.902714, 61.831794, -1.202970,  0.046478,-51.916803,  4.120344
 92.619444, 61.667434, -1.225542,  0.028088,-52.036162,  4.146644
 92.347898, 61.488108, -1.248441,  0.009737,-52.156125,  4.172904
 92.089429, 61.293956, -1.271653, -0.008470,-52.275627,  4.199123
 91.845308, 61.085119, -1.295162, -0.026425,-52.393625,  4.225299
 91.616714, 60.861736, -1.318953, -0.044025,-52.509100,  4.251432
 91.404735, 60.623944, -1.343008, -0.061169,-52.621072,  4.277521
 91.210360, 60.371878, -1.367313, -0.077762,-52.728600,  4.303564
 91.034476, 60.105675, -1.391851, -0.093711,-52.830795,  4.329563
 90.877865, 59.825467, -1.416605, -0.108929,-52.926824,  4.355516
 90.741201, 59.531386, -1.441559, -0.123334,-53.015917,  4.381424
 90.625049, 59.223564, -1.466695, -0.136849,-53.097371,  4.407288
 90.529862, 58.902130, -1.491997, -0.149405,-53.170556,  4.433108
 90.455982, 58.567213, -1.517450, -0.160937,-53.234919,  4.458885
 90.403639, 58.218940, -1.543035, -0.171389,-53.289988,  4.484620
 90.372924, 57.857490, -1.568737, -0.180711,-53.335374,  4.510315
 90.363731, 57.483461, -1.594539, -0.188861,-53.370772,  4.535971
 90.375777, 57.098149, -1.620427, -0.195802,-53.395965,  4.561590
 90.408716, 56.703192, -1.646383, -0.201507,-53.410821,  4.587174
 90.462208, 56.300256, -1.672394, -0.205956,-53.415297,  4.612724
 90.535919, 55.891027, -1.698443, -0.209137,-53.409435,  4.638242
 90.629519, 55.477203, -1.724518, -0.211045,-53.393361,  4.663731
 90.742589, 55.060491, -1.750602, -0.211682,-53.367282,  4.689193
 90.874505, 54.642594, -1.776685, -0.211060,-53.331486,  4.714630
 91.024487, 54.225211, -1.802751, -0.209194,-53.286336,  4.740044
 91.191673, 53.810025, -1.828789, -0.206111,-53.232266,  4.765438
 91.375125, 53.398700, -1.854787, -0.201843,-53.169778,  4.790813
 91.573835, 52.992873, -1.880735, -0.196426,-53.099434,  4.816173
 91.786730, 52.594149, -1.906620, -0.189907,-53.021854,  4.841518
 92.012681, 52.204093, -1.932433, -0.182336,-52.937708,  4.866852
 92.250505, 51.824225, -1.958166, -0.173769,-52.847709,  4.892176
 92.498975, 51.456015, -1.983809, -0.164268,-52.752610,  4.917492
 92.756827, 51.100878, -2.009355, -0.153900,-52.653191,  4.942802
 93.022763, 50.760168, -2.034797, -0.142736,-52.550260,  4.968108
 93.295464, 50.435171, -2.060128, -0.130850,-52.444639,  4.993411
 93.573593, 50.127105, -2.085343, -0.118321,-52.337162,  5.018712
 93.855800, 49.837112, -2.110436, -0.105231,-52.228664,  5.044013
 94.140735, 49.565991, -2.135405, -0.091662,-52.119977,  5.069315
 94.427049, 49.313922, -2.160245, -0.077701,-52.011923,  5.094619
 94.713406, 49.080753, -2.184954, -0.063434,-51.905305,  5.119925
 94.998485, 48.866305, -2.209530, -0.048950,-51.800902,  5.145234
 95.280989, 48.670400, -2.233972, -0.034336,-51.699465,  5.170547
 95.559650, 48.492865, -2.258280, -0.019680,-51.601707,  5.195864
 95.833237, 48.333524, -2.282455, -0.005070,-51.508302,  5.221184
 96.100559, 48.192207, -2.306497,  0.009408,-51.419878,  5.246507
 96.360473, 48.068744, -2.330408,  0.023670,-51.337010,  5.271834
 96.611888, 47.962965, -2.354191,  0.037635,-51.260220,  5.297164
 96.853769, 47.874704, -2.377849,  0.051222,-51.189974,  5.322496
 97.085144, 47.803795, -2.401385,  0.064356,-51.126673,  5.347829
 97.305105, 47.750074, -2.424806,  0.076963,-51.070658,  5.373163
 97.512815, 47.713379, -2.448115,  0.088976,-51.022203,  5.398496
 97.707509, 47.693550, -2.471319,  0.100328,-50.981515,  5.423827
 97.888497, 47.690427, -2.494423,  0.110962,-50.948735,  5.449155
 98.055167, 47.703852, -2.517435,  0.120821,-50.923935,  5.474479
 98.206988, 47.733668, -2.540362,  0.129855,-50.907120,  5.499797
 98.343512, 47.779722, -2.563211,  0.138021,-50.898231,  5.525108
 98.464371, 47.841860, -2.585992,  0.145280,-50.897139,  5.550410
 98.569283, 47.919929, -2.608712,  0.151598,-50.903659,  5.575701
 98.658051, 48.013780, -2.631382,  0.156950,-50.917539,  5.600981
 98.730559, 48.123264, -2.654009,  0.161312,-50.938475,  5.626246
 98.786778, 48.248232, -2.676605,  0.164672,-50.966105,  5.651496
 98.826759, 48.388539, -2.699178,  0.167020,-51.000019,  5.676729
 98.850637, 48.544039, -2.721740,  0.168353,-51.039759,  5.701943
 98.858623, 48.714589, -2.744301,  0.168675,-51.084828,  5.727136
 98.851010, 48.900048, -2.766871,  0.167995,-51.134688,  5.752308
 98.828163, 49.100274, -2.789462,  0.166327,-51.188772,  5.777456
 98.790519, 49.315127, -2.812084,  0.163694,-51.246486,  5.802579
 98.738586, 49.544471, -2.834749,  0.160121,-51.307211,  5.827676
 98.672937, 49.788167, -2.857467,  0.155640,-51.370317,  5.852745
 98.594205, 50.046080, -2.880249,  0.150286,-51.435158,  5.877786
 98.503085, 50.318077, -2.903107,  0.144103,-51.501086,  5.902796
 98.400321, 50.604023, -2.926052,  0.137135,-51.567453,  5.927776
 98.286709, 50.903596, -2.949094,  0.129432,-51.633614,  5.952724
 98.163090, 51.216002, -2.972245,  0.121048,-51.698936,  5.977639
 98.030341, 51.540067, -2.995514,  0.112040,-51.762804,  6.002522
 97.889378, 51.874503, -3.018912,  0.102469,-51.824620,  6.027370
 97.741144, 52.217989, -3.042450,  0.092397,-51.883814,  6.052185
 97.586608, 52.569178, -3.066138,  0.081890,-51.939842,  6.076965
 97.426757, 52.926704, -3.089984,  0.071014,-51.992199,  6.101710
 97.262594, 53.289184, -3.113999,  0.059838,-52.040412,  6.126421
 97.095127, 53.655227, -3.138192,  0.048431,-52.084052,  6.151097
 96.925372, 54.023439, -3.162571,  0.036864,-52.122732,  6.175738
 96.754342, 54.392425, -3.187145,  0.025207,-52.156112,  6.200346
 96.583040, 54.760798, -3.211921,  0.013529,-52.183900,  6.224919
 96.412463, 55.127185, -3.236908,  0.001901,-52.205854,  6.249459
 96.243586, 55.490229, -3.262112, -0.009610,-52.221784,  6.273966
 96.077366, 55.848597, -3.287540, -0.020937,-52.231551,  6.298440
 95.914734, 56.200983, -3.313199, -0.032015,-52.235068,  6.322883
 95.756589, 56.546113, -3.339093, -0.042780,-52.232302,  6.347296
 95.603797, 56.882755, -3.365229, -0.053174,-52.223273,  6.371678
 95.457184, 57.209714, -3.391611, -0.063137,-52.208048,  6.396031
 95.317537, 57.525844, -3.418244, -0.072617,-52.186748,  6.420355
 95.185595, 57.830051, -3.445130, -0.081561,-52.159540,  6.444653
 95.062049, 58.121294, -3.472275, -0.089925,-52.126637,  6.468923
 94.947538, 58.398591, -3.499679, -0.097663,-52.088295,  6.493169
 94.842648, 58.661020, -3.527346, -0.104737,-52.044814,  6.517390
 94.747909, 58.907728, -3.555277, -0.111114,-51.996527,  6.541587
 94.663790, 59.137927, -3.583474, -0.116762,-51.943806,  6.565761
 94.590704, 59.350900, -3.611937, -0.121656,-51.887051,  6.589914
 94.528999, 59.546028, -3.640666, -0.125776,-51.826689,  6.614046
 94.478965, 59.722956, -3.669661, -0.129106,-51.763173,  6.638158
 94.440824, 59.881696, -3.698921, -0.131635,-51.696972,  6.662251
 94.414739, 60.022418, -3.728445, -0.133357,-51.628572,  6.686326
 94.400809, 60.145292, -3.758231, -0.134270,-51.558469,  6.710383
 94.399068, 60.250487, -3.788277, -0.134379,-51.487166,  6.734422
 94.409491, 60.338170, -3.818581, -0.133690,-51.415168,  6.758446
 94.431988, 60.408506, -3.849137, -0.132218,-51.342979,  6.782453
 94.466413, 60.461660, -3.879945, -0.129980,-51.271095,  6.806444
 94.512558, 60.497792, -3.910999, -0.126997,-51.200004,  6.830421
 94.570160, 60.517065, -3.942294, -0.123295,-51.130178,  6.854382
 94.638901, 60.519637, -3.973827, -0.118904,-51.062075,  6.878329
 94.718411, 60.505665, -4.005592, -0.113858,-50.996128,  6.902262
 94.808270, 60.475308, -4.037584, -0.108194,-50.932747,  6.926179
 94.908010, 60.428718, -4.069796, -0.101952,-50.872316,  6.950082
 95.017120, 60.366049, -4.102223, -0.095176,-50.815188,  6.973971
 95.135048, 60.287454, -4.134859, -0.087911,-50.761681,  6.997844
 95.261204, 60.193082, -4.167696, -0.080206,-50.712081,  7.021702
 95.394964, 60.083082, -4.200729, -0.072112,-50.666638,  7.045545
 95.535674, 59.957603, -4.233949, -0.063680,-50.625561,  7.069372
 95.682652, 59.816790, -4.267350, -0.054965,-50.589022,  7.093182
 95.835194, 59.660824, -4.300925, -0.046020,-50.557151,  7.116976
 95.992577, 59.490097, -4.334665, -0.036902,-50.530039,  7.140752
 96.154061, 59.305331, -4.368564, -0.027667,-50.507734,  7.164510
 96.318897, 59.107424, -4.402613, -0.018370,-50.490246,  7.188249
 96.486326, 58.897320, -4.436805, -0.009067,-50.477544,  7.211969
 96.655588, 58.676005, -4.471131,  0.000186,-50.469556,  7.235668
 96.825923, 58.444502, -4.505585,  0.009337,-50.466173,  7.259347
 96.996573, 58.203867, -4.540158,  0.018330,-50.467251,  7.283004
 97.166790, 57.955184, -4.574842,  0.027116,-50.472608,  7.306638
 97.335839, 57.699563, -4.609630,  0.035644,-50.482031,  7.330249
 97.502996, 57.438131, -4.644513,  0.043867,-50.495276,  7.353835
 97.667561, 57.172032, -4.679485,  0.051739,-50.512070,  7.377397
 97.828851, 56.902419, -4.714538,  0.059217,-50.532115,  7.400932
 97.986213, 56.630454, -4.749664,  0.066263,-50.555091,  7.424441
 98.139018, 56.357295, -4.784857,  0.072838,-50.580656,  7.447923
 98.286670, 56.084101, -4.820109,  0.078909,-50.608453,  7.471376
 98.428608, 55.812023, -4.855413,  0.084446,-50.638112,  7.494801
 98.564304, 55.542197, -4.890763,  0.089422,-50.669250,  7.518196
 98.693269, 55.275745, -4.926153,  0.093814,-50.701481,  7.541561
 98.815057, 55.013766, -4.961576,  0.097601,-50.734412,  7.564896
 98.929260, 54.757336, -4.997026,  0.100769,-50.767650,  7.588199
 99.035517, 54.507500, -5.032498,  0.103306,-50.800808,  7.611470
 99.133508, 54.265272, -5.067987,  0.105202,-50.833501,  7.634709
 99.222962, 54.031627, -5.103487,  0.106456,-50.865354,  7.657915
 99.303654, 53.807502, -5.138993,  0.107065,-50.896007,  7.681088
 99.375404, 53.593788, -5.174502,  0.107033,-50.925112,  7.704228
 99.438081, 53.391331, -5.210009,  0.106369,-50.952339,  7.727334
 99.491602, 53.200926, -5.245510,  0.105082,-50.977378,  7.750406
 99.535931, 53.023316, -5.281003,  0.103187,-50.999942,  7.773444
 99.571076, 52.859187, -5.316483,  0.100702,-51.019767,  7.796448
 99.597096, 52.709171, -5.351948,  0.097649,-51.036618,  7.819418
 99.614092, 52.573837, -5.387396,  0.094052,-51.050283,  7.842354
 99.622209, 52.453695, -5.422824,  0.089937,-51.060584,  7.865256
 99.621638, 52.349190, -5.458232,  0.085336,-51.067369,  7.888124
 99.612607, 52.260705, -5.493617,  0.080280,-51.070519,  7.910958
 99.595387, 52.188557, -5.528978,  0.074806,-51.069948,  7.933758
 99.570285, 52.132994, -5.564316,  0.068948,-51.065597,  7.956525
 99.537645, 52.094198, -5.599629,  0.062748,-51.057444,  7.979259
 99.497844, 52.072221, -5.634917,  0.056245,-51.045495,  8.001960
 99.451291, 52.066971, -5.670182,  0.049481,-51.029787,  8.024628
 99.398421, 52.078289, -5.705424,  0.042498,-51.010390,  8.047264
 99.339699, 52.106019, -5.740643,  0.035342,-50.987400,  8.069868
 99.275610, 52.150005, -5.775841,  0.028055,-50.960943,  8.092440
 99.206662, 52.210095, -5.811021,  0.020683,-50.931170,  8.114981
 99.133381, 52.286136, -5.846182,  0.013270,-50.898259,  8.137491
 99.056306, 52.377951, -5.881329,  0.005860,-50.862408,  8.159970
 98.975990, 52.485260, -5.916463, -0.001502,-50.823840,  8.182420
 98.892993, 52.607652, -5.951587, -0.008774,-50.782793,  8.204839
 98.807885, 52.744626, -5.986704, -0.015914,-50.739525,  8.227230
 98.721235, 52.895627, -6.021818, -0.022880,-50.694306,  8.249591
 98.633614, 53.060051, -6.056932, -0.029634,-50.647420,  8.271923
 98.545591, 53.237244, -6.092049, -0.036138,-50.599158,  8.294227
 98.457729, 53.426507, -6.127173, -0.042356,-50.549819,  8.316503
 98.370582, 53.627099, -6.162309, -0.048254,-50.499708,  8.338750
 98.284695, 53.838242, -6.197460, -0.053802,-50.449129,  8.360970
 98.200597, 54.059119, -6.232631, -0.058970,-50.398386,  8.383163
 98.118804, 54.288882, -6.267827, -0.063731,-50.347782,  8.405328
 98.039809, 54.526657, -6.303052, -0.068062,-50.297610,  8.427466
 97.964090, 54.771540, -6.338311, -0.071943,-50.248159,  8.449577
 97.892098, 55.022610, -6.373608, -0.075355,-50.199705,  8.471660
 97.824260, 55.278926, -6.408949, -0.078283,-50.152513,  8.493717
 97.760977, 55.539535, -6.444338, -0.080716,-50.106832,  8.515747
 97.702622, 55.803473, -6.479780, -0.082643,-50.062897,  8.537749
 97.649536, 56.069769, -6.515281, -0.084060,-50.020923,  8.559725
 97.602032, 56.337453, -6.550845, -0.084964,-49.981106,  8.581673
 97.560388, 56.605553, -6.586477, -0.085355,-49.943622,  8.603593
 97.524849, 56.873105, -6.622182, -0.085236,-49.908624,  8.625487
 97.495626, 57.139153, -6.657965, -0.084614,-49.876241,  8.647352
 97.472897, 57.402754, -6.693831, -0.083498,-49.846581,  8.669189
 97.456801, 57.662981, -6.729785, -0.081901,-49.819727,  8.690998
 97.447446, 57.918928, -6.765831, -0.079836,-49.795735,  8.712778
 97.444899, 58.169712, -6.801974, -0.077321,-49.774639,  8.734530
 97.449197, 58.414476, -6.838219, -0.074376,-49.756449,  8.756252
 97.460338, 58.652394, -6.874569, -0.071024,-49.741147,  8.777944
 97.478287, 58.882673, -6.911029, -0.067288,-49.728694,  8.799606
 97.502974, 59.104553, -6.947603, -0.063196,-49.719028,  8.821238
 97.534296, 59.317316, -6.984295, -0.058774,-49.712064,  8.842839
 97.572117, 59.520283, -7.021108, -0.054054,-49.707696,  8.864408
 97.616271, 59.712820, -7.058047, -0.049066,-49.705796,  8.885946
 97.666562, 59.894336, -7.095114, -0.043842,-49.706221,  8.907452
 97.722762, 60.064291, -7.132314, -0.038417,-49.708807,  8.928925
 97.784621, 60.222191, -7.169647, -0.032825,-49.713376,  8.950365
 97.851860, 60.367594, -7.207118, -0.027100,-49.719737,  8.971772
 97.924176, 60.500113, -7.244729, -0.021277,-49.727686,  8.993145
 98.001247, 60.619410, -7.282483, -0.015394,-49.737007,  9.014483
 98.082728, 60.725205, -7.320381, -0.009484,-49.747477,  9.035787
 98.168256, 60.817272, -7.358425, -0.003584,-49.758867,  9.057056
 98.257455, 60.895439, -7.396617,  0.002273,-49.770943,  9.078289
 98.349932, 60.959593, -7.434958,  0.008051,-49.783469,  9.099487
 98.445284, 61.009674, -7.473449,  0.013717,-49.796207,  9.120648
 98.543098, 61.045679, -7.512092,  0.019240,-49.808922,  9.141773
 98.642954, 61.067662, -7.550887,  0.024588,-49.821382,  9.162861
 98.744425, 61.075728, -7.589834,  0.029731,-49.833360,  9.183912
 98.847084, 61.070041, -7.628934,  0.034641,-49.844636,  9.204926
 98.950502, 61.050813, -7.668186,  0.039291,-49.854999,  9.225902
 99.054251, 61.018312, -7.707591,  0.043658,-49.864249,  9.246841
 99.157908, 60.972853, -7.747147,  0.047718,-49.872196,  9.267741
 99.261055, 60.914802, -7.786855,  0.051451,-49.878666,  9.288604
 99.363281, 60.844571, -7.826712,  0.054837,-49.883497,  9.309428
 99.464186, 60.762617, -7.866718,  0.057862,-49.886544,  9.330214
 99.563381, 60.669441, -7.906872,  0.060511,-49.887678,  9.350962
 99.660491, 60.565583, -7.947172,  0.062772,-49.886788,  9.371671
 99.755155, 60.451622, -7.987616,  0.064636,-49.883780,  9.392341
 99.847031, 60.328174, -8.028202,  0.066098,-49.878581,  9.412973
 99.935794, 60.195887, -8.068928,  0.067151,-49.871135,  9.433566
100.021138, 60.055438, -8.109792,  0.067796,-49.861404,  9.454121
100.102779, 59.907533, -8.150791,  0.068032,-49.849373,  9.474637
100.180456, 59.752902, -8.191923,  0.067863,-49.835042,  9.495115
100.253929, 59.592297, -8.233184,  0.067295,-49.818433,  9.515554
100.322984, 59.426488, -8.274572,  0.066334,-49.799583,  9.535955
100.387432, 59.256259, -8.316084,  0.064991,-49.778550,  9.556317
100.447108, 59.082408, -8.357716,  0.063278,-49.755408,  9.576642
100.501875, 58.905740, -8.399466,  0.061209,-49.730245,  9.596928
100.551621, 58.727066, -8.441329,  0.058801,-49.703166,  9.617176
100.596260, 58.547200, -8.483303,  0.056072,-49.674292,  9.637386
100.635735, 58.366956, -8.525383,  0.053041,-49.643753,  9.657558
100.670015, 58.187140, -8.567567,  0.049729,-49.611693,  9.677693
100.699094, 58.008555, -8.609850,  0.046160,-49.578266,  9.697790
100.722994, 57.831993, -8.652229,  0.042357,-49.543634,  9.717849
100.741760, 57.658230, -8.694701,  0.038345,-49.507968,  9.737871
100.755467, 57.488029, -8.737260,  0.034151,-49.471444,  9.757855
100.764209, 57.322131, -8.779904,  0.029801,-49.434242,  9.777802
100.768107, 57.161258, -8.822629,  0.025323,-49.396544,  9.797712
100.767305, 57.006105, -8.865431,  0.020744,-49.358537,  9.817585
100.761966, 56.857341, -8.908306,  0.016093,-49.320402,  9.837420
100.752276, 56.715605, -8.951250,  0.011398,-49.282324,  9.857218
100.738441, 56.581504, -8.994261,  0.006688,-49.244481,  9.876979
100.720682, 56.455612, -9.037334,  0.001990,-49.207047,  9.896703
100.699239, 56.338465, -9.080466, -0.002667,-49.170190,  9.916389
100.674368, 56.230563, -9.123653, -0.007257,-49.134072,  9.936038
100.646337, 56.132365, -9.166892, -0.011754,-49.098845,  9.955650
100.615427, 56.044291, -9.210179, -0.016131,-49.064651,  9.975225
100.581930, 55.966715, -9.253512, -0.020364,-49.031622,  9.994762
100.546148, 55.899971, -9.296887, -0.024430,-48.999879, 10.014261
100.508388, 55.844346, -9.340302, -0.028306,-48.969529, 10.033723
100.468966, 55.800083, -9.383753, -0.031972,-48.940667, 10.053146
100.428198, 55.767378, -9.427237, -0.035408,-48.913373, 10.072532
100.386408, 55.746380, -9.470753, -0.038597,-48.887713, 10.091880
100.343915, 55.737193, -9.514297, -0.041521,-48.863740, 10.111189
100.301041, 55.739872, -9.557868, -0.044168,-48.841491, 10.130460
100.258106, 55.754427, -9.601462, -0.046524,-48.820987, 10.149692
100.215422, 55.780821, -9.645079, -0.048578,-48.802236, 10.168885
100.173300, 55.818970, -9.688715, -0.050322,-48.785230, 10.188039
100.132041, 55.868747, -9.732370, -0.051749,-48.769948, 10.207153
100.091938, 55.929978, -9.776041, -0.052854,-48.756353, 10.226228
100.053277, 56.002446, -9.819728, -0.053634,-48.744396, 10.245262
100.016328, 56.085893, -9.863429, -0.054087,-48.734014, 10.264257
 99.981352, 56.180019, -9.907143, -0.054216,-48.725133, 10.283211
 99.948596, 56.284485, -9.950868, -0.054022,-48.717666, 10.302124
 99.918291, 56.398912, -9.994605, -0.053510,-48.711517, 10.320996
 99.890655, 56.522888,-10.038353, -0.052688,-48.706580, 10.339827
 99.865886, 56.655964,-10.082111, -0.051562,-48.702739, 10.358617
 99.844168, 56.797659,-10.125878, -0.050144,-48.699872, 10.377364
 99.825665, 56.947464,-10.169655, -0.048445,-48.697851, 10.396070
 99.810523, 57.104839,-10.213442, -0.046477,-48.696540, 10.414733
 99.798868, 57.269220,-10.257239, -0.044257,-48.695803, 10.433354
 99.790809, 57.440020,-10.301046, -0.041799,-48.695498, 10.451932
 99.786433, 57.616629,-10.344864, -0.039120,-48.695482, 10.470467
 99.785807, 57.798421,-10.388692, -0.036240,-48.695611, 10.488958
 99.788980, 57.984754,-10.432533, -0.033177,-48.695745, 10.507406
 99.795977, 58.174971,-10.476387, -0.029952,-48.695742, 10.525810
 99.806808, 58.368406,-10.520255, -0.026585,-48.695464, 10.544170
 99.821461, 58.564387,-10.564137, -0.023098,-48.694779, 10.562486
 99.839902, 58.762232,-10.608036, -0.019512,-48.693558, 10.580758
 99.862083, 58.961262,-10.651952, -0.015851,-48.691678, 10.598985
 99.887934, 59.160795,-10.695888, -0.012137,-48.689026, 10.617167
 99.917369, 59.360154,-10.739844, -0.008392,-48.685494, 10.635305
 99.950282, 59.558665,-10.783822, -0.004638,-48.680983, 10.653397
 99.986554, 59.755665,-10.827824, -0.000899,-48.675405, 10.671445
100.026049, 59.950501,-10.871851,  0.002804,-48.668679, 10.689447
100.068615, 60.142532,-10.915906,  0.006450,-48.660739, 10.707403
100.114088, 60.331134,-10.959991,  0.010017,-48.651526, 10.725314
100.162290, 60.515700,-11.004107,  0.013486,-48.640993, 10.743180
100.213032, 60.695645,-11.048257,  0.016836,-48.629105, 10.761000
100.266113, 60.870404,-11.092442,  0.020050,-48.615840, 10.778774
100.321325, 61.039439,-11.136665,  0.023109,-48.601185, 10.796502
100.378449, 61.202236,-11.180927,  0.025998,-48.585139, 10.814184
100.437262, 61.358312,-11.225232,  0.028701,-48.567713, 10.831820
100.497531, 61.507210,-11.269580,  0.031204,-48.548931, 10.849410
100.559022, 61.648509,-11.313975,  0.033494,-48.528824, 10.866955
100.621496, 61.781818,-11.358418,  0.035561,-48.507435, 10.884453
100.684712, 61.906781,-11.402912,  0.037395,-48.484818, 10.901904
100.748429, 62.023077,-11.447458,  0.038987,-48.461035, 10.919310
100.812405, 62.130422,-11.492059,  0.040330,-48.436156, 10.936670
100.876400, 62.228570,-11.536716,  0.041420,-48.410261, 10.953983
100.940177, 62.317311,-11.581433,  0.042253,-48.383435, 10.971250
101.003503, 62.396475,-11.626210,  0.042827,-48.355770, 10.988470
101.066151, 62.465931,-11.671050,  0.043140,-48.327364, 11.005644
101.127898, 62.525586,-11.715954,  0.043195,-48.298320, 11.022772
101.188529, 62.575387,-11.760925,  0.042993,-48.268743, 11.039853
101.247838, 62.615320,-11.805964,  0.042540,-48.238743, 11.056888
101.305628, 62.645409,-11.851072,  0.041839,-48.208428, 11.073877
101.361710, 62.665720,-11.896252,  0.040898,-48.177912, 11.090818
101.415909, 62.676353,-11.941505,  0.039726,-48.147305, 11.107713
101.468059, 62.677447,-11.986832,  0.038332,-48.116718, 11.124562
101.518008, 62.669178,-12.032235,  0.036726,-48.086259, 11.141363
101.565615, 62.651757,-12.077714,  0.034920,-48.056034, 11.158118
101.610753, 62.625430,-12.123271,  0.032928,-48.026145, 11.174826
101.653311, 62.590475,-12.168908,  0.030763,-47.996691, 11.191487
101.693190, 62.547205,-12.214624,  0.028439,-47.967764, 11.208100
101.730306, 62.495960,-12.260421,  0.025973,-47.939451, 11.224667
101.764590, 62.437112,-12.306299,  0.023381,-47.911833, 11.241186
101.795987, 62.371058,-12.352260,  0.020679,-47.884983, 11.257658
101.824459, 62.298222,-12.398303,  0.017884,-47.858967, 11.274082
101.849983, 62.219051,-12.444429,  0.015014,-47.833845, 11.290458
101.872548, 62.134015,-12.490638,  0.012088,-47.809665, 11.306786
101.892160, 62.043602,-12.536930,  0.009122,-47.786469, 11.323067
101.908841, 61.948320,-12.583306,  0.006135,-47.764290, 11.339299
101.922625, 61.848691,-12.629766,  0.003144,-47.743150, 11.355483
101.933560, 61.745250,-12.676309,  0.000168,-47.723066, 11.371619
101.941709, 61.638546,-12.722934, -0.002776,-47.704042, 11.387706
101.947148, 61.529134,-12.769642, -0.005671,-47.686075, 11.403744
101.949963, 61.417578,-12.816433, -0.008500,-47.669153, 11.419733
101.950255, 61.304446,-12.863305, -0.011248,-47.653256, 11.435673
101.948134, 61.190307,-12.910258, -0.013899,-47.638354, 11.451563
101.943722, 61.075732,-12.957291, -0.016438,-47.624411, 11.467404
101.937150, 60.961289,-13.004403, -0.018852,-47.611383, 11.483195
101.928559, 60.847540,-13.051593, -0.021128,-47.599219, 11.498936
101.918095, 60.735045,-13.098861, -0.023253,-47.587861, 11.514627
101.905916, 60.624350,-13.146204, -0.025217,-47.577246, 11.530267
101.892183, 60.515993,-13.193623, -0.027010,-47.567305, 11.545857
101.877063, 60.410500,-13.241115, -0.028624,-47.557964, 11.561396
101.860729, 60.308379,-13.288679, -0.030050,-47.549147, 11.576884
101.843356, 60.210125,-13.336314, -0.031282,-47.540773, 11.592321
101.825123, 60.116212,-13.384018, -0.032316,-47.532759, 11.607706
101.806211, 60.027094,-13.431790, -0.033147,-47.525019, 11.623040
101.786800, 59.943204,-13.479628, -0.033773,-47.517467, 11.638322
101.767071, 59.864952,-13.527530, -0.034191,-47.510018, 11.653552
101.747204, 59.792721,-13.575495, -0.034403,-47.502585, 11.668730
101.727378, 59.726870,-13.623521, -0.034409,-47.495083, 11.683856
101.707768, 59.667730,-13.671606, -0.034211,-47.487429, 11.698929
101.688546, 59.615603,-13.719749, -0.033812,-47.479542, 11.713949
101.669879, 59.570761,-13.767946, -0.033218,-47.471343, 11.728917
101.651929, 59.533447,-13.816198, -0.032434,-47.462760, 11.743831
101.634853, 59.503873,-13.864501, -0.031467,-47.453721, 11.758693
101.618799, 59.482217,-13.912854, -0.030324,-47.444161, 11.773500
101.603910, 59.468628,-13.961255, -0.029014,-47.434021, 11.788255
101.590320, 59.463219,-14.009702, -0.027547,-47.423245, 11.802955
101.578155, 59.466074,-14.058194, -0.025933,-47.411786, 11.817602
101.567530, 59.477242,-14.106727, -0.024183,-47.399600, 11.832195
101.558553, 59.496738,-14.155302, -0.022310,-47.386653, 11.846734
101.551320, 59.524547,-14.203914, -0.020325,-47.372915, 11.861218
101.545918, 59.560620,-14.252564, -0.018242,-47.358364, 11.875649
101.542423, 59.604876,-14.301249, -0.016074,-47.342986, 11.890024
101.540900, 59.657204,-14.349966, -0.013835,-47.326771, 11.904345
101.541403, 59.717462,-14.398716, -0.011538,-47.309719, 11.918612
101.543973, 59.785475,-14.447495, -0.009199,-47.291836, 11.932823
101.548644, 59.861044,-14.496303, -0.006831,-47.273134, 11.946980
101.555434, 59.943937,-14.545137, -0.004449,-47.253633, 11.961081
101.564352, 60.033899,-14.593996, -0.002067,-47.233357, 11.975128
101.575397, 60.130646,-14.642879,  0.000301,-47.212337, 11.989119
101.588554, 60.233872,-14.691784,  0.002640,-47.190611, 12.003055
101.603800, 60.343247,-14.740710,  0.004939,-47.168221, 12.016935
101.621100, 60.458419,-14.789656,  0.007183,-47.145215, 12.030760
101.640409, 60.579015,-14.838619,  0.009359,-47.121642, 12.044529
101.661672, 60.704646,-14.887600,  0.011456,-47.097559, 12.058242
101.684825, 60.834905,-14.936597,  0.013462,-47.073024, 12.071900
101.709795, 60.969368,-14.985609,  0.015366,-47.048099, 12.085502
101.736500, 61.107600,-15.034635,  0.017158,-47.022847, 12.099047
101.764850, 61.249154,-15.083674,  0.018828,-46.997334, 12.112536
101.794748, 61.393572,-15.132726,  0.020369,-46.971627, 12.125969
101.826090, 61.540390,-15.181789,  0.021772,-46.945793, 12.139346
101.858765, 61.689135,-15.230863,  0.023031,-46.919900, 12.152666
101.892658, 61.839334,-15.279948,  0.024139,-46.894014, 12.165930
101.927647, 61.990509,-15.329042,  0.025092,-46.868201, 12.179137
101.963608, 62.142181,-15.378145,  0.025887,-46.842525, 12.192287
102.000412, 62.293875,-15.427258,  0.026519,-46.817049, 12.205381
102.037926, 62.445119,-15.476379,  0.026987,-46.791832, 12.218417
102.076018, 62.595443,-15.525509,  0.027290,-46.766931, 12.231396
102.114552, 62.744388,-15.574647,  0.027428,-46.742399, 12.244317
102.153391, 62.891502,-15.623794,  0.027403,-46.718284, 12.257182
102.192399, 63.036344,-15.672949,  0.027215,-46.694633, 12.269988
102.231442, 63.178483,-15.722112,  0.026869,-46.671486, 12.282737
102.270383, 63.317506,-15.771283,  0.026367,-46.648878, 12.295428
102.309092, 63.453012,-15.820464,  0.025715,-46.626841, 12.308061
102.347439, 63.584616,-15.869653,  0.024918,-46.605401, 12.320636
102.385296, 63.711955,-15.918851,  0.023982,-46.584577, 12.333153
102.422541, 63.834682,-15.968059,  0.022914,-46.564385, 12.345611
102.459055, 63.952471,-16.017277,  0.021723,-46.544835, 12.358011
102.494726, 64.065019,-16.066505,  0.020416,-46.525930, 12.370352
102.529445, 64.172046,-16.115745,  0.019003,-46.507669, 12.382633
102.563109, 64.273294,-16.164996,  0.017493,-46.490047, 12.394856
102.595624, 64.368530,-16.214259,  0.015896,-46.473050, 12.407020
102.626899, 64.457549,-16.263534,  0.014222,-46.456663, 12.419124
102.656854, 64.540169,-16.312824,  0.012483,-46.440864, 12.431168
102.685414, 64.616234,-16.362127,  0.010690,-46.425627, 12.443153
102.712511, 64.685618,-16.411445,  0.008852,-46.410922, 12.455077
102.738087, 64.748220,-16.460779,  0.006983,-46.396714, 12.466942
102.762092, 64.803966,-16.510129,  0.005093,-46.382965, 12.478746
102.784482, 64.852811,-16.559497,  0.003194,-46.369635, 12.490489
102.805224, 64.894737,-16.608883,  0.001297,-46.356680, 12.502172
102.824293, 64.929752,-16.658287, -0.000586,-46.344053, 12.513794
102.841671, 64.957894,-16.707711, -0.002446,-46.331706, 12.525355
102.857350, 64.979226,-16.757156, -0.004270,-46.319589, 12.536855
102.871329, 64.993836,-16.806623, -0.006049,-46.307651, 12.548294
102.883617, 65.001841,-16.856111, -0.007773,-46.295839, 12.559671
102.894229, 65.003380,-16.905623, -0.009431,-46.284102, 12.570986
102.903191, 64.998619,-16.955158, -0.011015,-46.272387, 12.582239
102.910534, 64.987747,-17.004718, -0.012517,-46.260644, 12.593430
102.916297, 64.970974,-17.054304, -0.013927,-46.248822, 12.604559
102.920526, 64.948534,-17.103916, -0.015240,-46.236871, 12.615625
102.923276, 64.920680,-17.153556, -0.016448,-46.224745, 12.626629
102.924606, 64.887686,-17.203223, -0.017545,-46.212398, 12.637570
102.924582, 64.849844,-17.252918, -0.018526,-46.199788, 12.648449
102.923276, 64.807462,-17.302643, -0.019387,-46.186875, 12.659264
102.920763, 64.760864,-17.352398, -0.020124,-46.173622, 12.670015
102.917127, 64.710390,-17.402183, -0.020733,-46.159995, 12.680704
102.912453, 64.656390,-17.451999, -0.021213,-46.145966, 12.691329
102.906831, 64.599229,-17.501847, -0.021561,-46.131508, 12.701890
102.900354, 64.539278,-17.551727, -0.021779,-46.116599, 12.712387
102.893118, 64.476920,-17.601640, -0.021865,-46.101221, 12.722820
102.885220, 64.412543,-17.651586, -0.021821,-46.085360, 12.733190
102.876761, 64.346539,-17.701565, -0.021648,-46.069006, 12.743494
102.867843, 64.279307,-17.751577, -0.021348,-46.052155, 12.753735
102.858566, 64.211245,-17.801624, -0.020926,-46.034805, 12.763910
102.849033, 64.142754,-17.851705, -0.020385,-46.016958, 12.774021
102.839346, 64.074233,-17.901821, -0.019728,-45.998623, 12.784068
102.829604, 64.006076,-17.951970, -0.018963,-45.979809, 12.794049
102.819909, 63.938677,-18.002155, -0.018093,-45.960533, 12.803965
102.810357, 63.872422,-18.052374, -0.017126,-45.940811, 12.813815
102.801044, 63.807690,-18.102628, -0.016069,-45.920667, 12.823601
102.792062, 63.744852,-18.152917, -0.014928,-45.900126, 12.833320
102.783500, 63.684269,-18.203240, -0.013711,-45.879214, 12.842974
102.775444, 63.626289,-18.253597, -0.012426,-45.857964, 12.852563
102.767976, 63.571251,-18.303988, -0.011083,-45.836409, 12.862085
102.761174, 63.519476,-18.354413, -0.009688,-45.814583, 12.871541
102.755109, 63.471273,-18.404872, -0.008252,-45.792523, 12.880931
102.749850, 63.426934,-18.455364, -0.006782,-45.770269, 12.890254
102.745459, 63.386734,-18.505888, -0.005289,-45.747859, 12.899511
102.741992, 63.350930,-18.556445, -0.003781,-45.725333, 12.908702
102.739501, 63.319758,-18.607033, -0.002267,-45.702734, 12.917825
102.738031, 63.293438,-18.657652, -0.000757,-45.680100, 12.926882
102.737620, 63.272166,-18.708302,  0.000742,-45.657474, 12.935872
102.738303, 63.256119,-18.758982,  0.002219,-45.634894, 12.944794
102.740104, 63.245453,-18.809691,  0.003667,-45.612399, 12.953650
102.743045, 63.240299,-18.860429,  0.005077,-45.590029, 12.962437
102.747140, 63.240767,-18.911194,  0.006441,-45.567817, 12.971158
102.752395, 63.246945,-18.961987,  0.007752,-45.545801, 12.979810
102.758812, 63.258899,-19.012805,  0.009003,-45.524011, 12.988394
102.766386, 63.276668,-19.063649,  0.010187,-45.502477, 12.996911
102.775106, 63.300271,-19.114518,  0.011297,-45.481228, 13.005359
102.784954, 63.329705,-19.165410,  0.012328,-45.460289, 13.013739
102.795908, 63.364941,-19.216324,  0.013275,-45.439681, 13.022051
102.807938, 63.405930,-19.267261,  0.014132,-45.419424, 13.030293
102.821011, 63.452600,-19.318218,  0.014897,-45.399534, 13.038467
102.835088, 63.504858,-19.369194,  0.015565,-45.380023, 13.046572
102.850123, 63.562588,-19.420190,  0.016133,-45.360901, 13.054608
102.866069, 63.625656,-19.471203,  0.016600,-45.342175, 13.062575
102.882872, 63.693907,-19.522233,  0.016963,-45.323847, 13.070472
102.900475, 63.767165,-19.573279,  0.017221,-45.305917, 13.078300
102.918817, 63.845238,-19.624340,  0.017375,-45.288382, 13.086058
102.937834, 63.927916,-19.675414,  0.017425,-45.271234, 13.093745
102.957458, 64.014973,-19.726500,  0.017370,-45.254466, 13.101363
102.977621, 64.106165,-19.777599,  0.017214,-45.238063, 13.108911
102.998250, 64.201237,-19.828708,  0.016957,-45.222010, 13.116388
103.019272, 64.299919,-19.879826,  0.016603,-45.206291, 13.123794
103.040612, 64.401928,-19.930954,  0.016154,-45.190883, 13.131130
103.062193, 64.506971,-19.982088,  0.015615,-45.175766, 13.138395
103.083939, 64.614746,-20.033230,  0.014989,-45.160913, 13.145589
103.105774, 64.724940,-20.084377,  0.014281,-45.146300, 13.152711
103.127619, 64.837236,-20.135528,  0.013497,-45.131897, 13.159762
103.149401, 64.951308,-20.186684,  0.012641,-45.117677, 13.166742
103.171042, 65.066828,-20.237842,  0.011720,-45.103609, 13.173649
103.192470, 65.183464,-20.289002,  0.010740,-45.089663, 13.180485
103.213613, 65.300879,-20.340163,  0.009708,-45.075806, 13.187248
103.234399, 65.418741,-20.391324,  0.008629,-45.062008, 13.193940
103.254761, 65.536714,-20.442485,  0.007511,-45.048237, 13.200558
103.274635, 65.654465,-20.493645,  0.006361,-45.034462, 13.207104
103.293958, 65.771666,-20.544802,  0.005185,-45.020653, 13.213578
103.312670, 65.887992,-20.595957,  0.003993,-45.006779, 13.219978
103.330717, 66.003125,-20.647107,  0.002790,-44.992813, 13.226305
103.348046, 66.116752,-20.698254,  0.001583,-44.978727, 13.232559
103.364609, 66.228569,-20.749396,  0.000381,-44.964494, 13.238740
103.380364, 66.338283,-20.800532, -0.000811,-44.950091, 13.244847
103.395270, 66.445610,-20.851663, -0.001984,-44.935495, 13.250880
103.409292, 66.550276,-20.902786, -0.003133,-44.920686, 13.256839
103.422399, 66.652022,-20.953903, -0.004250,-44.905646, 13.262724
103.434567, 66.750600,-21.005012, -0.005330,-44.890358, 13.268535
103.445773, 66.845779,-21.056113, -0.006367,-44.874809, 13.274271
103.456002, 66.937340,-21.107206, -0.007354,-44.858989, 13.279933
103.465240, 67.025082,-21.158290, -0.008287,-44.842887, 13.285520
103.473483, 67.108820,-21.209365, -0.009160,-44.826498, 13.291032
103.480727, 67.188385,-21.260430, -0.009970,-44.809819, 13.296469
103.486976, 67.263626,-21.311486, -0.010711,-44.792849, 13.301831
103.492236, 67.334411,-21.362532, -0.011381,-44.775588, 13.307117
103.496519, 67.400625,-21.413569, -0.011977,-44.758041, 13.312328
103.499841, 67.462174,-21.464594, -0.012494,-44.740215, 13.317463
103.502223, 67.518981,-21.515610, -0.012932,-44.722118, 13.322523
103.503689, 67.570988,-21.566615, -0.013289,-44.703761, 13.327506
103.504267, 67.618158,-21.617609, -0.013563,-44.685157, 13.332414
103.503991, 67.660473,-21.668593, -0.013754,-44.666321, 13.337245
103.502894, 67.697931,-21.719567, -0.013861,-44.647269, 13.341999
103.501017, 67.730555,-21.770530, -0.013885,-44.628021, 13.346677
103.498402, 67.758381,-21.821482, -0.013827,-44.608596, 13.351279
103.495093, 67.781467,-21.872424, -0.013687,-44.589015, 13.355803
103.491138, 67.799888,-21.923355, -0.013468,-44.569301, 13.360251
103.486586, 67.813737,-21.974276, -0.013171,-44.549477, 13.364621
103.481489, 67.823126,-22.025187, -0.012800,-44.529566, 13.368914
103.475901, 67.828180,-22.076088, -0.012357,-44.509592, 13.373130
103.469875, 67.829044,-22.126978, -0.011846,-44.489582, 13.377267
103.463469, 67.825876,-22.177860, -0.011271,-44.469558, 13.381328
103.456738, 67.818849,-22.228731, -0.010635,-44.449546, 13.385310
103.449740, 67.808152,-22.279593, -0.009943,-44.429570, 13.389214
103.442532, 67.793984,-22.330446, -0.009200,-44.409653, 13.393040
103.435172, 67.776559,-22.381290, -0.008411,-44.389820, 13.396787
103.427716, 67.756101,-22.432126, -0.007581,-44.370090, 13.400456
103.420220, 67.732843,-22.482952, -0.006715,-44.350487, 13.404047
103.412741, 67.707031,-22.533771, -0.005819,-44.331029, 13.407558
103.405332, 67.678916,-22.584581, -0.004898,-44.311735, 13.410991
103.398047, 67.648757,-22.635384, -0.003959,-44.292621, 13.414344
103.390935, 67.616820,-22.686179, -0.003006,-44.273704, 13.417618
103.384046, 67.583376,-22.736967, -0.002047,-44.254997, 13.420813
103.377427, 67.548700,-22.787747, -0.001085,-44.236512, 13.423928
103.371123, 67.513069,-22.838521, -0.000128,-44.218259, 13.426963
103.365175, 67.476764,-22.889287,  0.000819,-44.200245, 13.429919
103.359623, 67.440063,-22.940048,  0.001751,-44.182477, 13.432794
103.354503, 67.403248,-22.990802,  0.002662,-44.164959, 13.435589
103.349848, 67.366597,-23.041549,  0.003547,-44.147693, 13.438304
103.345688, 67.330384,-23.092291,  0.004402,-44.130679, 13.440938
103.342050, 67.294883,-23.143027,  0.005221,-44.113916, 13.443491
103.338958, 67.260361,-23.193757,  0.006000,-44.097399, 13.445964
103.336431, 67.227079,-23.244482,  0.006735,-44.081123, 13.448355
103.334485, 67.195293,-23.295201,  0.007422,-44.065082, 13.450665
103.333134, 67.165251,-23.345915,  0.008057,-44.049265, 13.452894
103.332386, 67.137190,-23.396624,  0.008638,-44.033662, 13.455041
103.332247, 67.111340,-23.447327,  0.009161,-44.018262, 13.457107
103.332720, 67.087921,-23.498026,  0.009624,-44.003051, 13.459091
103.333802, 67.067141,-23.548719,  0.010025,-43.988013, 13.460993
103.335488, 67.049196,-23.599406,  0.010362,-43.973134, 13.462812
103.337771, 67.034269,-23.650089,  0.010634,-43.958397, 13.464550
103.340639, 67.022533,-23.700766,  0.010841,-43.943785, 13.466205
103.344076, 67.014142,-23.751438,  0.010980,-43.929279, 13.467777
103.348065, 67.009241,-23.802105,  0.011054,-43.914860, 13.469266
103.352585, 67.007958,-23.852766,  0.011060,-43.900511, 13.470672
103.357611, 67.010405,-23.903421,  0.011002,-43.886212, 13.471995
103.363117, 67.016680,-23.954070,  0.010879,-43.871944, 13.473235
103.369075, 67.026866,-24.004713,  0.010693,-43.857688, 13.474392
103.375452, 67.041028,-24.055350,  0.010445,-43.843427, 13.475465
103.382215, 67.059216,-24.105980,  0.010139,-43.829141, 13.476453
103.389330, 67.081465,-24.156604,  0.009776,-43.814813, 13.477358
103.396757, 67.107791,-24.207220,  0.009359,-43.800428, 13.478179
103.404460, 67.138197,-24.257829,  0.008891,-43.785969, 13.478916
103.412397, 67.172668,-24.308431,  0.008376,-43.771421, 13.479568
103.420528, 67.211175,-24.359024,  0.007817,-43.756771, 13.480136
103.428810, 67.253670,-24.409608,  0.007217,-43.742006, 13.480619
103.437202, 67.300094,-24.460184,  0.006582,-43.727115, 13.481017
103.445659, 67.350370,-24.510751,  0.005915,-43.712089, 13.481330
103.454138, 67.404408,-24.561307,  0.005220,-43.696919, 13.481557
103.462596, 67.462102,-24.611854,  0.004502,-43.681597, 13.481700
103.470990, 67.523335,-24.662390,  0.003765,-43.666120, 13.481756
103.479278, 67.587975,-24.712914,  0.003014,-43.650482, 13.481727
103.487417, 67.655878,-24.763428,  0.002254,-43.634681, 13.481613
103.495366, 67.726890,-24.813928,  0.001489,-43.618718, 13.481412
103.503085, 67.800842,-24.864416,  0.000723,-43.602592, 13.481125
103.510535, 67.877559,-24.914891, -0.000039,-43.586305, 13.480752
103.517680, 67.956853,-24.965352, -0.000792,-43.569862, 13.480292
103.524482, 68.038529,-25.015799, -0.001532,-43.553267, 13.479746
103.530908, 68.122385,-25.066230, -0.002254,-43.536527, 13.479113
103.536926, 68.208209,-25.116646, -0.002956,-43.519650, 13.478394
103.542506, 68.295784,-25.167046, -0.003632,-43.502645, 13.477587
103.547619, 68.384889,-25.217428, -0.004279,-43.485521, 13.476693
103.552240, 68.475298,-25.267793, -0.004893,-43.468290, 13.475711
103.556346, 68.566780,-25.318141, -0.005472,-43.450963, 13.474643
103.559916, 68.659102,-25.368469, -0.006012,-43.433554, 13.473486
103.562931, 68.752031,-25.418778, -0.006511,-43.416075, 13.472242
103.565376, 68.845332,-25.469067, -0.006965,-43.398541, 13.470910
103.567238, 68.938769,-25.519335, -0.007373,-43.380967, 13.469490
103.568506, 69.032110,-25.569582, -0.007733,-43.363366, 13.467981
103.569172, 69.125122,-25.619807, -0.008044,-43.345754, 13.466384
103.569232, 69.217576,-25.670009, -0.008303,-43.328145, 13.464699
103.568684, 69.309249,-25.720188, -0.008510,-43.310555, 13.462925
103.567526, 69.399919,-25.770344, -0.008664,-43.292998, 13.461062
103.565764, 69.489372,-25.820475, -0.008766,-43.275488, 13.459110
103.563401, 69.577400,-25.870580, -0.008815,-43.258041, 13.457070
103.560446, 69.663800,-25.920660, -0.008810,-43.240668, 13.454940
103.556909, 69.748379,-25.970714, -0.008754,-43.223383, 13.452720
103.552804, 69.830952,-26.020741, -0.008647,-43.206198, 13.450411
103.548145, 69.911343,-26.070740, -0.008489,-43.189124, 13.448012
103.542949, 69.989385,-26.120711, -0.008283,-43.172172, 13.445524
103.537237, 70.064923,-26.170653, -0.008031,-43.155351, 13.442945
103.531028, 70.137812,-26.220566, -0.007733,-43.138670, 13.440277
103.524346, 70.207918,-26.270450, -0.007393,-43.122135, 13.437518
103.517215, 70.275120,-26.320303, -0.007013,-43.105753, 13.434668
103.509662, 70.339307,-26.370125, -0.006596,-43.089530, 13.431729
103.501714, 70.400383,-26.419916, -0.006144,-43.073468, 13.428698
103.493399, 70.458264,-26.469675, -0.005661,-43.057571, 13.425577
103.484748, 70.512879,-26.519402, -0.005150,-43.041841, 13.422364
103.475790, 70.564170,-26.569096, -0.004614,-43.026276, 13.419061
103.466557, 70.612093,-26.618756, -0.004057,-43.010877, 13.415666
103.457080, 70.656617,-26.668383, -0.003481,-42.995641, 13.412179
103.447392, 70.697724,-26.717976, -0.002892,-42.980566, 13.408602
103.437525, 70.735412,-26.767535, -0.002292,-42.965647, 13.404932
103.427511, 70.769690,-26.817059, -0.001685,-42.950878, 13.401171
103.417382, 70.800579,-26.866547, -0.001074,-42.936254, 13.397317
103.407170, 70.828118,-26.916000, -0.000465,-42.921767, 13.393371
103.396907, 70.852354,-26.965417,  0.000141,-42.907409, 13.389333
103.386622, 70.873349,-27.014797,  0.000740,-42.893172, 13.385203
103.376347, 70.891176,-27.064142,  0.001327,-42.879047, 13.380980
103.366110, 70.905922,-27.113449,  0.001900,-42.865022, 13.376664
103.355940, 70.917683,-27.162719,  0.002455,-42.851089, 13.372255
103.345862, 70.926567,-27.211952,  0.002990,-42.837235, 13.367754
103.335904, 70.932693,-27.261147,  0.003501,-42.823451, 13.363159
103.326088, 70.936188,-27.310304,  0.003986,-42.809724, 13.358471
103.316438, 70.937192,-27.359423,  0.004442,-42.796043, 13.353689
103.306975, 70.935850,-27.408504,  0.004866,-42.782397, 13.348814
103.297718, 70.932317,-27.457547,  0.005257,-42.768775, 13.343845
103.288685, 70.926756,-27.506550,  0.005612,-42.755164, 13.338782
103.279891, 70.919334,-27.555515,  0.005931,-42.741555, 13.333625
103.271351, 70.910228,-27.604441,  0.006210,-42.727937, 13.328374
103.263076, 70.899618,-27.653328,  0.006450,-42.714299, 13.323029
103.255076, 70.887687,-27.702175,  0.006649,-42.700633, 13.317589
103.247360, 70.874626,-27.750984,  0.006807,-42.686929, 13.312054
103.239933, 70.860627,-27.799752,  0.006922,-42.673179, 13.306425
103.232800, 70.845882,-27.848481,  0.006995,-42.659375, 13.300701
103.225961, 70.830587,-27.897170,  0.007026,-42.645510, 13.294882
103.219418, 70.814940,-27.945820,  0.007015,-42.631579, 13.288968
103.213168, 70.799136,-27.994429,  0.006963,-42.617577, 13.282959
103.207206, 70.783370,-28.042999,  0.006869,-42.603498, 13.276854
103.201528, 70.767838,-28.091528,  0.006737,-42.589340, 13.270654
103.196126, 70.752729,-28.140018,  0.006566,-42.575100, 13.264358
103.190989, 70.738233,-28.188467,  0.006358,-42.560777, 13.257966
103.186107, 70.724534,-28.236875,  0.006114,-42.546370, 13.251479
103.181467, 70.711813,-28.285244,  0.005837,-42.531879, 13.244895
103.177054, 70.700244,-28.333572,  0.005529,-42.517307, 13.238215
103.172853, 70.689997,-28.381860,  0.005191,-42.502654, 13.231439
103.168847, 70.681235,-28.430107,  0.004826,-42.487924, 13.224566
103.165017, 70.674114,-28.478313,  0.004437,-42.473120, 13.217597
103.161343, 70.668781,-28.526479,  0.004026,-42.458248, 13.210531
103.157805, 70.665377,-28.574604,  0.003595,-42.443313, 13.203368
103.154381, 70.664033,-28.622688,  0.003148,-42.428320, 13.196109
103.151049, 70.664872,-28.670731,  0.002687,-42.413277, 13.188752
103.147786, 70.668006,-28.718733,  0.002216,-42.398190, 13.181298
103.144569, 70.673540,-28.766694,  0.001736,-42.383067, 13.173747
103.141373, 70.681565,-28.814614,  0.001252,-42.367916, 13.166098
103.138174, 70.692164,-28.862493,  0.000765,-42.352745, 13.158351
103.134948, 70.705409,-28.910330,  0.000280,-42.337564, 13.150507
103.131671, 70.721360,-28.958125, -0.000202,-42.322381, 13.142566
103.128317, 70.740067,-29.005880, -0.000678,-42.307204, 13.134526
103.124863, 70.761569,-29.053592, -0.001144,-42.292044, 13.126388
103.121285, 70.785893,-29.101262, -0.001598,-42.276910, 13.118152
103.117560, 70.813054,-29.148891, -0.002038,-42.261809, 13.109818
103.113665, 70.843056,-29.196477, -0.002460,-42.246751, 13.101385
103.109576, 70.875894,-29.244021, -0.002864,-42.231744, 13.092854
103.105274, 70.911549,-29.291522, -0.003246,-42.216797, 13.084224
103.100737, 70.949993,-29.338981, -0.003605,-42.201917, 13.075495
103.095946, 70.991184,-29.386396, -0.003938,-42.187112, 13.066668
103.090882, 71.035075,-29.433769, -0.004245,-42.172388, 13.057741
103.085528, 71.081603,-29.481098, -0.004523,-42.157753, 13.048715
103.079867, 71.130698,-29.528383, -0.004771,-42.143211, 13.039590
103.073884, 71.182280,-29.575625, -0.004988,-42.128768, 13.030366
103.067566, 71.236260,-29.622823, -0.005173,-42.114429, 13.021042
103.060901, 71.292539,-29.669976, -0.005325,-42.100197, 13.011619
103.053876, 71.351011,-29.717085, -0.005445,-42.086075, 13.002096
103.046483, 71.411561,-29.764149, -0.005530,-42.072067, 12.992473
103.038715, 71.474066,-29.811167, -0.005582,-42.058173, 12.982751
103.030563, 71.538399,-29.858140, -0.005601,-42.044395, 12.972928
103.022024, 71.604423,-29.905067, -0.005586,-42.030733, 12.963005
103.013094, 71.671998,-29.951949, -0.005538,-42.017187, 12.952982
103.003770, 71.740977,-29.998783, -0.005458,-42.003754, 12.942858
102.994053, 71.811210,-30.045571, -0.005347,-41.990435, 12.932634
102.983943, 71.882542,-30.092312, -0.005205,-41.977225, 12.922310
102.973444, 71.954815,-30.139005, -0.005034,-41.964123, 12.911885
102.962558, 72.027868,-30.185650, -0.004835,-41.951124, 12.901359
102.951291, 72.101539,-30.232247, -0.004609,-41.938224, 12.890732
102.939650, 72.175664,-30.278795, -0.004359,-41.925418, 12.880004
102.927643, 72.250078,-30.325294, -0.004086,-41.912702, 12.869175
102.915279, 72.324615,-30.371743, -0.003791,-41.900069, 12.858244
102.902568, 72.399113,-30.418143, -0.003478,-41.887513, 12.847213
102.889522, 72.473407,-30.464492, -0.003147,-41.875029, 12.836080
102.876153, 72.547338,-30.510790, -0.002801,-41.862610, 12.824845
102.862475, 72.620745,-30.557037, -0.002443,-41.850249, 12.813509
102.848502, 72.693474,-30.603232, -0.002074,-41.837940, 12.802072
102.834249, 72.765372,-30.649376, -0.001697,-41.825674, 12.790532
102.819732, 72.836292,-30.695466, -0.001314,-41.813447, 12.778890
102.804968, 72.906091,-30.741504, -0.000927,-41.801250, 12.767147
102.789974, 72.974632,-30.787488, -0.000539,-41.789077, 12.755301
102.774766, 73.041782,-30.833419, -0.000153,-41.776921, 12.743353
102.759363, 73.107416,-30.879294,  0.000230,-41.764776, 12.731303
102.743782, 73.171415,-30.925115,  0.000608,-41.752636, 12.719150
102.728042, 73.233667,-30.970881,  0.000978,-41.740496, 12.706895
102.712161, 73.294069,-31.016591,  0.001338,-41.728348, 12.694538
102.696157, 73.352524,-31.062244,  0.001686,-41.716189, 12.682077
102.680048, 73.408945,-31.107841,  0.002020,-41.704014, 12.669514
102.663852, 73.463251,-31.153380,  0.002339,-41.691819, 12.656848
102.647586, 73.515372,-31.198862,  0.002640,-41.679600, 12.644079
102.631267, 73.565245,-31.244285,  0.002922,-41.667353, 12.631207
102.614913, 73.612820,-31.289650,  0.003184,-41.655077, 12.618232
102.598538, 73.658051,-31.334956,  0.003424,-41.642769, 12.605154
102.582159, 73.700905,-31.380202,  0.003641,-41.630427, 12.591973
102.565790, 73.741357,-31.425388,  0.003835,-41.618050, 12.578688
102.549445, 73.779393,-31.470514,  0.004003,-41.605639, 12.565299
102.533138, 73.815006,-31.515579,  0.004146,-41.593193, 12.551807
102.516880, 73.848201,-31.560582,  0.004262,-41.580713, 12.538212
102.500683, 73.878990,-31.605524,  0.004353,-41.568200, 12.524513
102.484557, 73.907396,-31.650403,  0.004416,-41.555657, 12.510710
102.468511, 73.933450,-31.695219,  0.004453,-41.543084, 12.496803
102.452554, 73.957193,-31.739973,  0.004462,-41.530485, 12.482792
102.436693, 73.978674,-31.784662,  0.004446,-41.517863, 12.468678
102.420934, 73.997949,-31.829288,  0.004403,-41.505222, 12.454459
102.405282, 74.015085,-31.873850,  0.004334,-41.492565, 12.440136
102.389741, 74.030155,-31.918346,  0.004241,-41.479898, 12.425709
102.374314, 74.043240,-31.962778,  0.004123,-41.467223, 12.411177
102.359001, 74.054426,-32.007144,  0.003983,-41.454547, 12.396542
102.343804, 74.063810,-32.051444,  0.003820,-41.441875, 12.381801
102.328721, 74.071491,-32.095677,  0.003637,-41.429210, 12.366957
102.313752, 74.077577,-32.139844,  0.003434,-41.416560, 12.352007
102.298893, 74.082179,-32.183944,  0.003213,-41.403929, 12.336954
102.284140, 74.085415,-32.227977,  0.002975,-41.391323, 12.321795
102.269488, 74.087405,-32.271942,  0.002723,-41.378748, 12.306532
102.254932, 74.088275,-32.315838,  0.002457,-41.366208, 12.291164
102.240464, 74.088154,-32.359666,  0.002179,-41.353708, 12.275691
102.226077, 74.087172,-32.403426,  0.001892,-41.341256, 12.260113
102.211762, 74.085465,-32.447116,  0.001597,-41.328854, 12.244430
102.197509, 74.083166,-32.490737,  0.001295,-41.316508, 12.228642
102.183310, 74.080414,-32.534289,  0.000989,-41.304222, 12.212749
102.169153, 74.077344,-32.577770,  0.000681,-41.292001, 12.196751
102.155026, 74.074096,-32.621181,  0.000372,-41.279848, 12.180648
102.140917, 74.070806,-32.664522,  0.000064,-41.267768, 12.164439
102.126815, 74.067610,-32.707791, -0.000241,-41.255763, 12.148125
102.112707, 74.064643,-32.750990, -0.000540,-41.243835, 12.131706
102.098579, 74.062038,-32.794117, -0.000834,-41.231988, 12.115182
102.084418, 74.059925,-32.837173, -0.001119,-41.220224, 12.098551
102.070210, 74.058431,-32.880157, -0.001395,-41.208543, 12.081816
102.055942, 74.057680,-32.923069, -0.001659,-41.196947, 12.064975
102.041600, 74.057792,-32.965908, -0.001910,-41.185437, 12.048028
102.027171, 74.058882,-33.008675, -0.002148,-41.174013, 12.030976
102.012640, 74.061060,-33.051369, -0.002370,-41.162674, 12.013817
101.997993, 74.064434,-33.093990, -0.002575,-41.151420, 11.996554
101.983219, 74.069101,-33.136537, -0.002763,-41.140251, 11.979184
101.968304, 74.075157,-33.179012, -0.002933,-41.129163, 11.961709
101.953235, 74.082689,-33.221412, -0.003083,-41.118157, 11.944128
101.937999, 74.091777,-33.263739, -0.003213,-41.107229, 11.926441
101.922586, 74.102497,-33.305991, -0.003323,-41.096377, 11.908648
101.906984, 74.114915,-33.348169, -0.003413,-41.085598, 11.890749
101.891182, 74.129091,-33.390273, -0.003480,-41.074889, 11.872744
101.875170, 74.145079,-33.432301, -0.003527,-41.064247, 11.854633
101.858939, 74.162921,-33.474255, -0.003552,-41.053667, 11.836416
101.842480, 74.182657,-33.516134, -0.003556,-41.043148, 11.818093
101.825785, 74.204314,-33.557937, -0.003539,-41.032683, 11.799664
101.808846, 74.227914,-33.599665, -0.003501,-41.022270, 11.781129
101.791658, 74.253471,-33.641317, -0.003443,-41.011905, 11.762488
101.774215, 74.280990,-33.682893, -0.003365,-41.001582, 11.743740
101.756511, 74.310468,-33.724393, -0.003267,-40.991298, 11.724887
101.738544, 74.341895,-33.765816, -0.003152,-40.981049, 11.705927
101.720309, 74.375253,-33.807163, -0.003019,-40.970831, 11.686861
101.701804, 74.410517,-33.848433, -0.002870,-40.960639, 11.667688
101.683029, 74.447653,-33.889626, -0.002706,-40.950470, 11.648410
101.663982, 74.486621,-33.930742, -0.002527,-40.940320, 11.629025
101.644664, 74.527373,-33.971781, -0.002336,-40.930186, 11.609534
101.625075, 74.569855,-34.012741, -0.002132,-40.920063, 11.589937
101.605219, 74.614006,-34.053624, -0.001919,-40.909950, 11.570233
101.585097, 74.659759,-34.094429, -0.001696,-40.899843, 11.550423
101.564714, 74.707041,-34.135156, -0.001466,-40.889739, 11.530507
101.544072, 74.755773,-34.175804, -0.001229,-40.879637, 11.510484
101.523178, 74.805871,-34.216373, -0.000988,-40.869534, 11.490355
101.502037, 74.857245,-34.256863, -0.000744,-40.859429, 11.470120
101.480655, 74.909802,-34.297274, -0.000498,-40.849320, 11.449779
101.459039, 74.963445,-34.337606, -0.000252,-40.839206, 11.429331
101.437196, 75.018072,-34.377857, -0.000007,-40.829088, 11.408776
101.415135, 75.073577,-34.418029,  0.000235,-40.818963, 11.388116
101.392864, 75.129853,-34.458121,  0.000473,-40.808833, 11.367349
101.370391, 75.186790,-34.498132,  0.000706,-40.798698, 11.346476
101.347726, 75.244275,-34.538062,  0.000932,-40.788559, 11.325497
101.324879, 75.302195,-34.577911,  0.001150,-40.778416, 11.304411
101.301858, 75.360436,-34.617678,  0.001359,-40.768270, 11.283219
101.278675, 75.418880,-34.657365,  0.001557,-40.758124, 11.261921
101.255339, 75.477413,-34.696969,  0.001744,-40.747979, 11.240516
101.231860, 75.535919,-34.736491,  0.001919,-40.737838, 11.219005
101.208250, 75.594284,-34.775930,  0.002080,-40.727702, 11.197388
101.184517, 75.652394,-34.815287,  0.002227,-40.717575, 11.175665
101.160673, 75.710136,-34.854560,  0.002360,-40.707458, 11.153836
101.136727, 75.767402,-34.893750,  0.002476,-40.697356, 11.131901
101.112689, 75.824084,-34.932856,  0.002577,-40.687270, 11.109859
101.088570, 75.880076,-34.971879,  0.002662,-40.677204, 11.087712
101.064379, 75.935278,-35.010816,  0.002730,-40.667162, 11.065458
101.040125, 75.989593,-35.049669,  0.002781,-40.657146, 11.043098
101.015817, 76.042925,-35.088437,  0.002815,-40.647159, 11.020632
100.991464, 76.095186,-35.127120,  0.002832,-40.637206, 10.998061
100.967073, 76.146290,-35.165717,  0.002832,-40.627289, 10.975383
100.942652, 76.196158,-35.204227,  0.002815,-40.617412, 10.952600
100.918209, 76.244715,-35.242652,  0.002782,-40.607577, 10.929710
100.893751, 76.291892,-35.280989,  0.002732,-40.597787, 10.906715
100.869282, 76.337625,-35.319240,  0.002667,-40.588047, 10.883614
100.844810, 76.381857,-35.357402,  0.002587,-40.578357, 10.860408
100.820338, 76.424535,-35.395477,  0.002493,-40.568721, 10.837095
100.795872, 76.465615,-35.433464,  0.002384,-40.559141, 10.813677
100.771415, 76.505057,-35.471362,  0.002263,-40.549620, 10.790154
100.746971, 76.542829,-35.509171,  0.002130,-40.540159, 10.766525
100.722541, 76.578904,-35.546891,  0.001986,-40.530759, 10.742790
100.698127, 76.613264,-35.584521,  0.001831,-40.521423, 10.718950
100.673732, 76.645896,-35.622061,  0.001668,-40.512152, 10.695005
100.649355, 76.676794,-35.659510,  0.001496,-40.502946, 10.670954
100.624996, 76.705958,-35.696869,  0.001317,-40.493806, 10.646799
100.600655, 76.733395,-35.734136,  0.001133,-40.484732, 10.622538
100.576331, 76.759119,-35.771312,  0.000944,-40.475726, 10.598171
100.552021, 76.783150,-35.808396,  0.000751,-40.466786, 10.573700
100.527724, 76.805514,-35.845387,  0.000556,-40.457912, 10.549124
100.503435, 76.826244,-35.882286,  0.000360,-40.449104, 10.524443
100.479153, 76.845377,-35.919091,  0.000164,-40.440360, 10.499657
100.454871, 76.862959,-35.955803, -0.000031,-40.431681, 10.474766
100.430587, 76.879038,-35.992422, -0.000224,-40.423063, 10.449770
100.406295, 76.893670,-36.028946, -0.000413,-40.414507, 10.424670
100.381990, 76.906914,-36.065375, -0.000597,-40.406009, 10.399466
100.357666, 76.918835,-36.101709, -0.000776,-40.397569, 10.374156
100.333316, 76.929503,-36.137948, -0.000949,-40.389184, 10.348743
100.308934, 76.938991,-36.174092, -0.001113,-40.380851, 10.323225
100.284514, 76.947377,-36.210139, -0.001270,-40.372570, 10.297603
100.260049, 76.954740,-36.246090, -0.001417,-40.364337, 10.271877
100.235530, 76.961166,-36.281944, -0.001554,-40.356150, 10.246047
100.210952, 76.966740,-36.317700, -0.001681,-40.348006, 10.220112
100.186306, 76.971554,-36.353360, -0.001796,-40.339903, 10.194074
100.161585, 76.975697,-36.388921, -0.001899,-40.331838, 10.167933
100.136781, 76.979263,-36.424384, -0.001990,-40.323809, 10.141687
100.111886, 76.982347,-36.459749, -0.002068,-40.315814, 10.115338
100.086894, 76.985044,-36.495014, -0.002133,-40.307849, 10.088886
100.061796, 76.987450,-36.530181, -0.002185,-40.299912, 10.062330
100.036585, 76.989662,-36.565248, -0.002223,-40.292002, 10.035671
100.011254, 76.991776,-36.600215, -0.002247,-40.284115, 10.008908
 99.985796, 76.993887,-36.635081, -0.002258,-40.276251,  9.982043
 99.960204, 76.996090,-36.669847, -0.002256,-40.268406,  9.955075
 99.934471, 76.998479,-36.704512, -0.002240,-40.260579,  9.928004
 99.908591, 77.001145,-36.739076, -0.002211,-40.252769,  9.900830
 99.882558, 77.004178,-36.773539, -0.002170,-40.244974,  9.873554
 99.856366, 77.007666,-36.807899, -0.002115,-40.237193,  9.846175
 99.830010, 77.011693,-36.842158, -0.002049,-40.229425,  9.818694
 99.803485, 77.016341,-36.876314, -0.001972,-40.221669,  9.791111
 99.776786, 77.021688,-36.910367, -0.001884,-40.213924,  9.763426
 99.749910, 77.027810,-36.944317, -0.001786,-40.206190,  9.735638
 99.722853, 77.034777,-36.978164, -0.001678,-40.198467,  9.707749
 99.695611, 77.042657,-37.011907, -0.001561,-40.190754,  9.679758
 99.668181, 77.051512,-37.045546, -0.001437,-40.183052,  9.651666
 99.640562, 77.061401,-37.079081, -0.001305,-40.175361,  9.623472
 99.612752, 77.072377,-37.112512, -0.001167,-40.167681,  9.595177
 99.584749, 77.084488,-37.145837, -0.001024,-40.160015,  9.566781
 99.556552, 77.097778,-37.179058, -0.000876,-40.152361,  9.538284
 99.528161, 77.112286,-37.212174, -0.000725,-40.144722,  9.509685
 99.499577, 77.128043,-37.245184, -0.000571,-40.137098,  9.480987
 99.470799, 77.145078,-37.278088, -0.000415,-40.129491,  9.452187
 99.441830, 77.163413,-37.310886, -0.000259,-40.121903,  9.423288
 99.412669, 77.183064,-37.343578, -0.000103,-40.114335,  9.394287
 99.383320, 77.204042,-37.376163,  0.000052,-40.106788,  9.365187
 99.353785, 77.226352,-37.408641,  0.000205,-40.099265,  9.335987
 99.324066, 77.249995,-37.441013,  0.000356,-40.091768,  9.306687
 99.294166, 77.274964,-37.473277,  0.000502,-40.084298,  9.277288
 99.264090, 77.301249,-37.505433,  0.000644,-40.076857,  9.247789
 99.233841, 77.328833,-37.537482,  0.000780,-40.069447,  9.218191
 99.203424, 77.357695,-37.569423,  0.000910,-40.062071,  9.188494
 99.172842, 77.387806,-37.601255,  0.001034,-40.054729,  9.158697
 99.142101, 77.419136,-37.632979,  0.001149,-40.047425,  9.128802
 99.111206, 77.451648,-37.664594,  0.001257,-40.040159,  9.098809
 99.080161, 77.485300,-37.696100,  0.001356,-40.032934,  9.068717
 99.048973, 77.520046,-37.727497,  0.001446,-40.025751,  9.038526
 99.017648, 77.555837,-37.758785,  0.001527,-40.018613,  9.008238
 98.986190, 77.592618,-37.789962,  0.001597,-40.011520,  8.977852
 98.954605, 77.630330,-37.821030,  0.001658,-40.004473,  8.947368
 98.922901, 77.668914,-37.851988,  0.001708,-39.997475,  8.916787
 98.891082, 77.708303,-37.882836,  0.001747,-39.990527,  8.886108
 98.859154, 77.748429,-37.913573,  0.001775,-39.983628,  8.855332
 98.827124, 77.789223,-37.944199,  0.001793,-39.976781,  8.824459
 98.794998, 77.830612,-37.974714,  0.001800,-39.969986,  8.793490
 98.762781, 77.872520,-38.005118,  0.001796,-39.963243,  8.762424
 98.730479, 77.914870,-38.035410,  0.001781,-39.956554,  8.731262
 98.698098, 77.957584,-38.065590,  0.001756,-39.949917,  8.700003
 98.665644, 78.000582,-38.095659,  0.001721,-39.943334,  8.668649
 98.633120, 78.043785,-38.125616,  0.001676,-39.936803,  8.637199
 98.600533, 78.087110,-38.155460,  0.001622,-39.930326,  8.605654
 98.567888, 78.130477,-38.185191,  0.001559,-39.923901,  8.574013
 98.535189, 78.173805,-38.214810,  0.001487,-39.917528,  8.542277
 98.502441, 78.217013,-38.244315,  0.001407,-39.911207,  8.510446
 98.469646, 78.260021,-38.273707,  0.001320,-39.904936,  8.478521
 98.436811, 78.302749,-38.302986,  0.001225,-39.898714,  8.446501
 98.403937, 78.345121,-38.332150,  0.001125,-39.892541,  8.414388
 98.371028, 78.387061,-38.361201,  0.001019,-39.886415,  8.382180
 98.338087, 78.428494,-38.390137,  0.000908,-39.880336,  8.349878
 98.305116, 78.469348,-38.418959,  0.000794,-39.874301,  8.317483
 98.272117, 78.509555,-38.447666,  0.000675,-39.868309,  8.284995
 98.239093, 78.549046,-38.476258,  0.000554,-39.862360,  8.252414
 98.206044, 78.587759,-38.504735,  0.000431,-39.856450,  8.219740
 98.172972, 78.625633,-38.533096,  0.000307,-39.850580,  8.186973
 98.139877, 78.662611,-38.561342,  0.000182,-39.844747,  8.154115
 98.106760, 78.698639,-38.589471,  0.000058,-39.838949,  8.121164
 98.073620, 78.733667,-38.617484, -0.000065,-39.833186,  8.088121
 98.040458, 78.767649,-38.645381, -0.000187,-39.827455,  8.054987
 98.007272, 78.800544,-38.673161, -0.000306,-39.821756,  8.021761
 97.974062, 78.832313,-38.700824, -0.000422,-39.816085,  7.988445
 97.940826, 78.862925,-38.728369, -0.000534,-39.810443,  7.955038
 97.907563, 78.892349,-38.755797, -0.000642,-39.804828,  7.921540
 97.874270, 78.920561,-38.783108, -0.000745,-39.799238,  7.887952
 97.840946, 78.947543,-38.810300, -0.000842,-39.793673,  7.854273
 97.807587, 78.973278,-38.837374, -0.000933,-39.788131,  7.820506
 97.774192, 78.997757,-38.864329, -0.001018,-39.782611,  7.786648
 97.740757, 79.020973,-38.891165, -0.001095,-39.777112,  7.752702
 97.707279, 79.042926,-38.917882, -0.001166,-39.771633,  7.718666
 97.673755, 79.063619,-38.944480, -0.001228,-39.766175,  7.684542
 97.640180, 79.083059,-38.970958, -0.001283,-39.760735,  7.650330
 97.606553, 79.101261,-38.997316, -0.001330,-39.755314,  7.616029
 97.572868, 79.118240,-39.023554, -0.001368,-39.749912,  7.581641
 97.539122, 79.134018,-39.049671, -0.001397,-39.744528,  7.547165
 97.505311, 79.148620,-39.075668, -0.001419,-39.739162,  7.512602
 97.471431, 79.162077,-39.101543, -0.001431,-39.733814,  7.477952
 97.437478, 79.174422,-39.127297, -0.001435,-39.728485,  7.443216
 97.403448, 79.185691,-39.152930, -0.001430,-39.723174,  7.408393
 97.369336, 79.195927,-39.178441, -0.001417,-39.717882,  7.373484
 97.335139, 79.205172,-39.203829, -0.001395,-39.712610,  7.338489
 97.300853, 79.213476,-39.229095, -0.001366,-39.707358,  7.303409
 97.266474, 79.220888,-39.254239, -0.001329,-39.702127,  7.268243
 97.231998, 79.227462,-39.279259, -0.001284,-39.696917,  7.232993
 97.197421, 79.233253,-39.304156, -0.001233,-39.691730,  7.197658
 97.162741, 79.238320,-39.328930, -0.001174,-39.686567,  7.162239
 97.127953, 79.242723,-39.353580, -0.001109,-39.681428,  7.126736
 97.093054, 79.246524,-39.378106, -0.001039,-39.676314,  7.091150
 97.058041, 79.249787,-39.402507, -0.000963,-39.671227,  7.055480
 97.022912, 79.252577,-39.426784, -0.000882,-39.666167,  7.019727
 96.987664, 79.254960,-39.450936, -0.000797,-39.661137,  6.983892
 96.952294, 79.257002,-39.474963, -0.000708,-39.656136,  6.947974
 96.916801, 79.258770,-39.498865, -0.000616,-39.651166,  6.911975
 96.881182, 79.260333,-39.522640, -0.000521,-39.646229,  6.875893
 96.845436, 79.261757,-39.546290, -0.000424,-39.641325,  6.839731
 96.809560, 79.263110,-39.569814, -0.000326,-39.636455,  6.803487
 96.773556, 79.264458,-39.593211, -0.000227,-39.631621,  6.767163
 96.737420, 79.265867,-39.616481, -0.000128,-39.626824,  6.730758
 96.701153, 79.267401,-39.639624, -0.000029,-39.622064,  6.694274
 96.664755, 79.269125,-39.662641,  0.000069,-39.617342,  6.657709
 96.628225, 79.271099,-39.685529,  0.000166,-39.612659,  6.621066
 96.591563, 79.273383,-39.708290,  0.000260,-39.608017,  6.584343
 96.554770, 79.276036,-39.730923,  0.000352,-39.603415,  6.547542
 96.517848, 79.279114,-39.753427,  0.000441,-39.598854,  6.510663
 96.480796, 79.282669,-39.775803,  0.000526,-39.594335,  6.473706
 96.443616, 79.286752,-39.798051,  0.000607,-39.589859,  6.436671
 96.406310, 79.291411,-39.820169,  0.000684,-39.585424,  6.399560
 96.368879, 79.296691,-39.842158,  0.000756,-39.581033,  6.362371
 96.331326, 79.302634,-39.864018,  0.000822,-39.576684,  6.325106
 96.293652, 79.309277,-39.885748,  0.000883,-39.572378,  6.287765
 96.255860, 79.316657,-39.907348,  0.000938,-39.568115,  6.250348
 96.217952, 79.324804,-39.928817,  0.000987,-39.563895,  6.212856
 96.179932, 79.333747,-39.950157,  0.001029,-39.559717,  6.175288
 96.141802, 79.343510,-39.971366,  0.001065,-39.555581,  6.137646
 96.103566, 79.354112,-39.992443,  0.001094,-39.551486,  6.099930
 96.065225, 79.365571,-40.013390,  0.001117,-39.547433,  6.062140
 96.026785, 79.377899,-40.034206,  0.001132,-39.543421,  6.024277
 95.988247, 79.391105,-40.054889,  0.001141,-39.539448,  5.986340
 95.949616, 79.405193,-40.075441,  0.001143,-39.535515,  5.948330
 95.910895, 79.420166,-40.095860,  0.001138,-39.531621,  5.910248
 95.872088, 79.436019,-40.116147,  0.001126,-39.527764,  5.872094
 95.833198, 79.452746,-40.136300,  0.001108,-39.523944,  5.833867
 95.794228, 79.470336,-40.156320,  0.001083,-39.520161,  5.795569
 95.755184, 79.488775,-40.176207,  0.001052,-39.516413,  5.757199
 95.716067, 79.508044,-40.195959,  0.001016,-39.512699,  5.718758
 95.676881, 79.528123,-40.215576,  0.000974,-39.509020,  5.680247
 95.637630, 79.548986,-40.235059,  0.000926,-39.505373,  5.641664
 95.598318, 79.570604,-40.254405,  0.000874,-39.501758,  5.603011
 95.558947, 79.592946,-40.273616,  0.000816,-39.498174,  5.564288
 95.519521, 79.615978,-40.292689,  0.000755,-39.494621,  5.525495
 95.480042, 79.639661,-40.311626,  0.000690,-39.491098,  5.486633
 95.440515, 79.663956,-40.330424,  0.000622,-39.487604,  5.447700
 95.400941, 79.688819,-40.349084,  0.000550,-39.484138,  5.408699
 95.361323, 79.714205,-40.367605,  0.000476,-39.480699,  5.369628
 95.321663, 79.740067,-40.385985,  0.000401,-39.477288,  5.330489
 95.281965, 79.766354,-40.404225,  0.000323,-39.473904,  5.291281
 95.242230, 79.793017,-40.422324,  0.000245,-39.470545,  5.252004
 95.202460, 79.820002,-40.440281,  0.000166,-39.467213,  5.212659
 95.162657, 79.847255,-40.458094,  0.000087,-39.463906,  5.173247
 95.122823, 79.874720,-40.475764,  0.000008,-39.460624,  5.133766
 95.082958, 79.902342,-40.493290, -0.000070,-39.457367,  5.094219
 95.043065, 79.930063,-40.510670, -0.000147,-39.454136,  5.054604
 95.003143, 79.957825,-40.527904, -0.000222,-39.450929,  5.014922
 94.963195, 79.985573,-40.544991, -0.000294,-39.447747,  4.975174
 94.923221, 80.013246,-40.561930, -0.000365,-39.444591,  4.935359
 94.883220, 80.040789,-40.578721, -0.000432,-39.441459,  4.895479
 94.843194, 80.068145,-40.595361, -0.000496,-39.438353,  4.855534
 94.803142, 80.095256,-40.611851, -0.000556,-39.435273,  4.815523
 94.763065, 80.122068,-40.628190, -0.000613,-39.432219,  4.775447
 94.722961, 80.148525,-40.644376, -0.000665,-39.429191,  4.735307
 94.682831, 80.174576,-40.660409, -0.000713,-39.426190,  4.695104
 94.642674, 80.200168,-40.676288, -0.000756,-39.423217,  4.654837
 94.602488, 80.225252,-40.692012, -0.000794,-39.420271,  4.614507
 94.562274, 80.249779,-40.707580, -0.000826,-39.417354,  4.574115
 94.522030, 80.273703,-40.722991, -0.000854,-39.414466,  4.533661
 94.481755, 80.296981,-40.738245, -0.000876,-39.411608,  4.493146
 94.441447, 80.319571,-40.753340, -0.000893,-39.408780,  4.452570
 94.401105, 80.341434,-40.768275, -0.000904,-39.405982,  4.411934
 94.360728, 80.362534,-40.783051, -0.000910,-39.403217,  4.371239
 94.320314, 80.382838,-40.797665, -0.000911,-39.400483,  4.330485
 94.279862, 80.402313,-40.812118, -0.000906,-39.397782,  4.289673
 94.239369, 80.420934,-40.826408, -0.000895,-39.395114,  4.248803
 94.198834, 80.438675,-40.840535, -0.000880,-39.392481,  4.207877
 94.158255, 80.455514,-40.854499, -0.000859,-39.389881,  4.166895
 94.117631, 80.471434,-40.868297, -0.000834,-39.387317,  4.125857
 94.076959, 80.486418,-40.881931, -0.000804,-39.384788,  4.084766
 94.036237, 80.500456,-40.895399, -0.000770,-39.382295,  4.043620
 93.995465, 80.513539,-40.908700, -0.000731,-39.379839,  4.002421
 93.954640, 80.525662,-40.921835, -0.000688,-39.377419,  3.961171
 93.913761, 80.536823,-40.934802, -0.000642,-39.375037,  3.919869
 93.872825, 80.547023,-40.947602, -0.000593,-39.372691,  3.878516
 93.831831, 80.556267,-40.960233, -0.000540,-39.370383,  3.837114
 93.790779, 80.564562,-40.972696, -0.000485,-39.368113,  3.795663
 93.749665, 80.571921,-40.984991, -0.000428,-39.365881,  3.754164
 93.708490, 80.578357,-40.997116, -0.000369,-39.363686,  3.712617
 93.667251, 80.583888,-41.009072, -0.000308,-39.361529,  3.671024
 93.625948, 80.588533,-41.020859, -0.000246,-39.359410,  3.629385
 93.584580, 80.592316,-41.032476, -0.000184,-39.357328,  3.587702
 93.543145, 80.595263,-41.043923, -0.000121,-39.355284,  3.545975
 93.501644, 80.597401,-41.055201, -0.000058,-39.353277,  3.504204
 93.460075, 80.598762,-41.066310,  0.000005,-39.351306,  3.462391
 93.418438, 80.599380,-41.077249,  0.000067,-39.349372,  3.420537
 93.376732, 80.599289,-41.088019,  0.000128,-39.347474,  3.378641
 93.334958, 80.598527,-41.098620,  0.000187,-39.345612,  3.336706
 93.293115, 80.597133,-41.109052,  0.000245,-39.343784,  3.294731
 93.251204, 80.595149,-41.119316,  0.000300,-39.341991,  3.252718
 93.209225, 80.592617,-41.129411,  0.000354,-39.340232,  3.210667
 93.167179, 80.589581,-41.139339,  0.000404,-39.338507,  3.168579
 93.125065, 80.586087,-41.149099,  0.000452,-39.336813,  3.126455
 93.082884, 80.582180,-41.158693,  0.000496,-39.335152,  3.084295
 93.040639, 80.577908,-41.168121,  0.000537,-39.333522,  3.042100
 92.998329, 80.573319,-41.177383,  0.000574,-39.331923,  2.999871
 92.955955, 80.568460,-41.186480,  0.000608,-39.330354,  2.957608
 92.913520, 80.563381,-41.195413,  0.000637,-39.328814,  2.915312
 92.871024, 80.558128,-41.204183,  0.000663,-39.327302,  2.872984
 92.828469, 80.552752,-41.212790,  0.000684,-39.325818,  2.830624
 92.785857, 80.547299,-41.221236,  0.000701,-39.324362,  2.788234
 92.743189, 80.541818,-41.229520,  0.000713,-39.322931,  2.745812
 92.700468, 80.536355,-41.237644,  0.000722,-39.321527,  2.703361
 92.657695, 80.530956,-41.245610,  0.000725,-39.320147,  2.660881
 92.614873, 80.525666,-41.253417,  0.000725,-39.318793,  2.618371
 92.572004, 80.520529,-41.261068,  0.000720,-39.317462,  2.575834
 92.529089, 80.515588,-41.268562,  0.000711,-39.316154,  2.533269
 92.486131, 80.510883,-41.275902,  0.000698,-39.314870,  2.490676
 92.443133, 80.506453,-41.283088,  0.000681,-39.313607,  2.448057
 92.400097, 80.502336,-41.290122,  0.000660,-39.312367,  2.405412
 92.357025, 80.498568,-41.297004,  0.000636,-39.311148,  2.362741
 92.313920, 80.495181,-41.303736,  0.000608,-39.309951,  2.320045
 92.270784, 80.492208,-41.310319,  0.000576,-39.308774,  2.277325
 92.227620, 80.489677,-41.316755,  0.000542,-39.307618,  2.234580
 92.184430, 80.487615,-41.323044,  0.000504,-39.306483,  2.191812
 92.141216, 80.486045,-41.329188,  0.000465,-39.305368,  2.149020
 92.097982, 80.484990,-41.335188,  0.000423,-39.304273,  2.106206
 92.054728, 80.484469,-41.341046,  0.000378,-39.303198,  2.063369
 92.011459, 80.484498,-41.346763,  0.000332,-39.302143,  2.020511
 91.968175, 80.485091,-41.352340,  0.000285,-39.301108,  1.977631
 91.924880, 80.486258,-41.357778,  0.000236,-39.300093,  1.934731
 91.881574, 80.488009,-41.363079,  0.000187,-39.299098,  1.891810
 91.838261, 80.490347,-41.368244,  0.000137,-39.298123,  1.848870
 91.794943, 80.493276,-41.373275,  0.000087,-39.297169,  1.805910
 91.751621, 80.496797,-41.378172,  0.000037,-39.296236,  1.762931
 91.708297, 80.500905,-41.382937, -0.000013,-39.295323,  1.719933
 91.664972, 80.505596,-41.387571, -0.000062,-39.294431,  1.676918
 91.621649, 80.510862,-41.392077, -0.000111,-39.293561,  1.633885
 91.578329, 80.516691,-41.396453, -0.000158,-39.292712,  1.590835
 91.535014, 80.523070,-41.400704, -0.000204,-39.291885,  1.547768
 91.491704, 80.529984,-41.404828, -0.000248,-39.291080,  1.504685
 91.448400, 80.537415,-41.408828, -0.000290,-39.290298,  1.461587
 91.405105, 80.545341,-41.412705, -0.000329,-39.289538,  1.418473
 91.361818, 80.553740,-41.416459, -0.000367,-39.288801,  1.375345
 91.318540, 80.562588,-41.420093, -0.000402,-39.288088,  1.332203
 91.275273, 80.571858,-41.423606, -0.000434,-39.287398,  1.289047
 91.232016, 80.581520,-41.427001, -0.000463,-39.286732,  1.245878
 91.188771, 80.591545,-41.430279, -0.000489,-39.286091,  1.202697
 91.145537, 80.601901,-41.433439, -0.000512,-39.285474,  1.159503
 91.102314, 80.612554,-41.436484, -0.000532,-39.284881,  1.116298
 91.059104, 80.623470,-41.439414, -0.000548,-39.284314,  1.073081
 91.015905, 80.634612,-41.442230, -0.000561,-39.283772,  1.029854
 90.972717, 80.645944,-41.444933, -0.000570,-39.283255,  0.986616
 90.929541, 80.657428,-41.447524, -0.000576,-39.282763,  0.943369
 90.886376, 80.669025,-41.450004, -0.000578,-39.282297,  0.900112
 90.843221, 80.680696,-41.452373, -0.000577,-39.281857,  0.856847
 90.800076, 80.692402,-41.454632, -0.000573,-39.281443,  0.813573
 90.756941, 80.704102,-41.456782, -0.000565,-39.281054,  0.770292
 90.713814, 80.715757,-41.458823, -0.000554,-39.280691,  0.727004
 90.670696, 80.727328,-41.460756, -0.000540,-39.280354,  0.683708
 90.627584, 80.738774,-41.462582, -0.000523,-39.280043,  0.640406
 90.584480, 80.750057,-41.464300, -0.000503,-39.279757,  0.597099
 90.541380, 80.761138,-41.465912, -0.000480,-39.279497,  0.553786
 90.498285, 80.771978,-41.467418, -0.000454,-39.279262,  0.510468
 90.455193, 80.782541,-41.468818, -0.000426,-39.279052,  0.467145
 90.412104, 80.792791,-41.470112, -0.000396,-39.278867,  0.423818
 90.369017, 80.802692,-41.471301, -0.000364,-39.278707,  0.380488
 90.325930, 80.812211,-41.472385, -0.000330,-39.278572,  0.337154
 90.282843, 80.821315,-41.473364, -0.000295,-39.278461,  0.293818
 90.239753, 80.829974,-41.474237, -0.000258,-39.278375,  0.250479
 90.196662, 80.838156,-41.475006, -0.000220,-39.278312,  0.207138
 90.153566, 80.845836,-41.475670, -0.000181,-39.278272,  0.163796
 90.110466, 80.852987,-41.476230, -0.000142,-39.278256,  0.120452
 90.067361, 80.859584,-41.476684, -0.000102,-39.278263,  0.077108
 90.024249, 80.865606,-41.477033, -0.000062,-39.278292,  0.033764
 89.981130, 80.871032,-41.477276, -0.000022,-39.278344, -0.009581
 89.938003, 80.875845,-41.477414,  0.000018,-39.278418, -0.052925
 89.894867, 80.880028,-41.477446,  0.000057,-39.278513, -0.096269
 89.851722, 80.883569,-41.477372,  0.000095,-39.278631, -0.139611
 89.808566, 80.886454,-41.477191,  0.000133,-39.278769, -0.182951
 89.765400, 80.888675,-41.476903,  0.000169,-39.278929, -0.226290
 89.722222, 80.890226,-41.476508,  0.000204,-39.279109, -0.269627
 89.679034, 80.891101,-41.476004,  0.000237,-39.279309, -0.312960
 89.635833, 80.891298,-41.475392,  0.000268,-39.279531, -0.356291
 89.592620, 80.890817,-41.474671,  0.000298,-39.279772, -0.399618
 89.549395, 80.889661,-41.473841,  0.000325,-39.280033, -0.442942
 89.506157, 80.887833,-41.472900,  0.000350,-39.280314, -0.486261
 89.462908, 80.885340,-41.471849,  0.000373,-39.280614, -0.529576
 89.419646, 80.882192,-41.470686,  0.000393,-39.280934, -0.572886
 89.376372, 80.878399,-41.469411,  0.000411,-39.281273, -0.616191
 89.333087, 80.873974,-41.468023,  0.000426,-39.281632, -0.659490
 89.289790, 80.868932,-41.466522,  0.000439,-39.282010, -0.702783
 89.246483, 80.863290,-41.464907,  0.000448,-39.282408, -0.746070
 89.203165, 80.857068,-41.463176,  0.000455,-39.282825, -0.789350
 89.159839, 80.850284,-41.461330,  0.000460,-39.283261, -0.832623
 89.116503, 80.842963,-41.459368,  0.000461,-39.283716, -0.875888
 89.073159, 80.835127,-41.457289,  0.000460,-39.284192, -0.919146
 89.029808, 80.826802,-41.455091,  0.000456,-39.284686, -0.962395
 88.986451, 80.818014,-41.452776,  0.000449,-39.285201, -1.005636
 88.943089, 80.808791,-41.450340,  0.000440,-39.285735, -1.048867
 88.899724, 80.799162,-41.447785,  0.000428,-39.286290, -1.092089
 88.856355, 80.789156,-41.445108,  0.000414,-39.286865, -1.135301
 88.812985, 80.778806,-41.442310,  0.000397,-39.287460, -1.178502
 88.769615, 80.768142,-41.439389,  0.000379,-39.288076, -1.221693
 88.726245, 80.757196,-41.436345,  0.000358,-39.288713, -1.264873
 88.682878, 80.746000,-41.433177,  0.000336,-39.289372, -1.308041
 88.639515, 80.734589,-41.429884,  0.000311,-39.290052, -1.351197
 88.596158, 80.722994,-41.426465,  0.000285,-39.290754, -1.394340
 88.552807, 80.711250,-41.422920,  0.000258,-39.291478, -1.437470
 88.509465, 80.699389,-41.419248,  0.000230,-39.292224, -1.480587
 88.466132, 80.687444,-41.415447,  0.000200,-39.292994, -1.523690
 88.422811, 80.675448,-41.411519,  0.000170,-39.293786, -1.566778
 88.379502, 80.663434,-41.407460,  0.000139,-39.294602, -1.609852
 88.336209, 80.651432,-41.403272,  0.000107,-39.295442, -1.652910
 88.292931, 80.639473,-41.398953,  0.000075,-39.296306, -1.695952
 88.249670, 80.627589,-41.394502,  0.000043,-39.297194, -1.738978
 88.206429, 80.615808,-41.389919,  0.000012,-39.298108, -1.781987
 88.163208, 80.604158,-41.385203, -0.000020,-39.299046, -1.824979
 88.120009, 80.592666,-41.380353, -0.000051,-39.300010, -1.867952
 88.076834, 80.581359,-41.375369, -0.000081,-39.301000, -1.910907
 88.033683, 80.570260,-41.370250, -0.000111,-39.302015, -1.953843
 87.990559, 80.559393,-41.364995, -0.000140,-39.303057, -1.996759
 87.947463, 80.548779,-41.359604, -0.000167,-39.304126, -2.039655
 87.904395, 80.538439,-41.354075, -0.000193,-39.305221, -2.082531
 87.861357, 80.528390,-41.348409, -0.000218,-39.306344, -2.125385
 87.818351, 80.518649,-41.342605, -0.000241,-39.307494, -2.168217
 87.775377, 80.509231,-41.336662, -0.000263,-39.308672, -2.211027
 87.732437, 80.500149,-41.330580, -0.000282,-39.309877, -2.253813
 87.689531, 80.491415,-41.324357, -0.000300,-39.311111, -2.296576
 87.646661, 80.483037,-41.317994, -0.000316,-39.312372, -2.339315
 87.603828, 80.475023,-41.311489, -0.000330,-39.313662, -2.382029
 87.561031, 80.467379,-41.304843, -0.000342,-39.314981, -2.424717
 87.518273, 80.460107,-41.298054, -0.000351,-39.316328, -2.467380
 87.475555, 80.453210,-41.291123, -0.000358,-39.317703, -2.510016
 87.432875, 80.446688,-41.284048, -0.000364,-39.319108, -2.552624
 87.390236, 80.440537,-41.276828, -0.000367,-39.320541, -2.595204
 87.347638, 80.434754,-41.269465, -0.000367,-39.322004, -2.637756
 87.305081, 80.429334,-41.261956, -0.000366,-39.323496, -2.680279
 87.262566, 80.424267,-41.254302, -0.000362,-39.325016, -2.722772
 87.220093, 80.419544,-41.246502, -0.000356,-39.326566, -2.765234
 87.177662, 80.415155,-41.238555, -0.000349,-39.328145, -2.807666
 87.135274, 80.411085,-41.230461, -0.000339,-39.329753, -2.850065
 87.092930, 80.407320,-41.222220, -0.000327,-39.331390, -2.892432
 87.050628, 80.403844,-41.213830, -0.000314,-39.333057, -2.934767
 87.008370, 80.400640,-41.205292, -0.000299,-39.334753, -2.977067
 86.966156, 80.397687,-41.196605, -0.000282,-39.336478, -3.019333
 86.923985, 80.394966,-41.187769, -0.000264,-39.338232, -3.061564
 86.881858, 80.392454,-41.178783, -0.000244,-39.340015, -3.103759
 86.839774, 80.390129,-41.169646, -0.000223,-39.341828, -3.145918
 86.797734, 80.387968,-41.160359, -0.000201,-39.343670, -3.188040
 86.755738, 80.385944,-41.150921, -0.000179,-39.345541, -3.230124
 86.713785, 80.384033,-41.141331, -0.000155,-39.347441, -3.272170
 86.671875, 80.382207,-41.131589, -0.000131,-39.349371, -3.314177
 86.630009, 80.380441,-41.121694, -0.000106,-39.351330, -3.356144
 86.588187, 80.378706,-41.111647, -0.000081,-39.353318, -3.398071
 86.546407, 80.376974,-41.101446, -0.000055,-39.355335, -3.439957
 86.504671, 80.375217,-41.091092, -0.000030,-39.357382, -3.481801
 86.462977, 80.373407,-41.080583, -0.000004,-39.359458, -3.523603
 86.421326, 80.371514,-41.069920,  0.000021,-39.361564, -3.565361
 86.379719, 80.369511,-41.059102,  0.000045,-39.363699, -3.607077
 86.338154, 80.367369,-41.048129,  0.000069,-39.365863, -3.648747
