SHIH-XIAN-YANG/Robotic-vitual-system/run/exp7/log/tor.txt
# Joint1, Joint2, Joint3, Joint4, Joint5, Joint6
  0.000000,-50000.000000,-33869.035319,-41851.260331,-951.846847,-432.191201
50000.000000,50000.000000,285.075329,107.772181,-951.728482,  0.911470
50000.000000,50000.000000,376.184223,337.469468,-951.493089,  3.528355
50000.000000,50000.000000,474.656371,578.724064,-951.261690,  6.890779
50000.000000,50000.000000,570.462012,813.997718,-951.035562, 10.133219
50000.000000,50000.000000,663.276763,1041.851051,-950.814600, 13.221161
50000.000000,50000.000000,752.861002,1261.016579,-950.598686, 16.133001
50000.000000,50000.000000,838.988545,1470.293056,-950.387705, 18.849187
50000.000000,50000.000000,921.446617,1668.551070,-950.181545, 21.352189
50000.000000,50000.000000,1000.036305,1854.738925,-949.980094, 23.626591
50000.000000,50000.000000,1074.572975,2027.888010,-949.783246, 25.659168
50000.000000,50000.000000,1144.886633,2187.117612,-949.590896, 27.438945
50000.000000,50000.000000,1210.822245,2331.639154,-949.402940, 28.957235
50000.000000,50000.000000,1272.239999,2460.759850,-949.219278, 30.207656
50000.000000,50000.000000,1329.015527,2573.885741,-949.039813, 31.186132
50000.000000,50000.000000,1381.040069,2670.524121,-948.864448, 31.890875
50000.000000,50000.000000,1428.220593,2750.285329,-948.693089, 32.322344
50000.000000,50000.000000,1470.479866,2812.883924,-948.525645, 32.483197
50000.000000,50000.000000,1507.756474,2858.139210,-948.362027, 32.378214
50000.000000,50000.000000,1540.004798,2885.975159,-948.202147, 32.014567
50000.000000,50000.000000,1567.194938,2896.419695,-948.045919, 31.401364
50000.000000,50000.000000,1589.312595,2889.603380,-947.893261, 30.549531
50000.000000,50000.000000,1606.358905,2865.757509,-947.744091, 29.471690
50000.000000,50000.000000,1618.350230,2825.211625,-947.598329, 28.182011
50000.000000,50000.000000,1625.317909,2768.390479,-947.455897, 26.696068
50000.000000,50000.000000,1627.307956,2695.810466,-947.316719, 25.030679
50000.000000,50000.000000,1624.380737,2608.075551,-947.180721, 23.203745
50000.000000,50000.000000,1616.610590,2505.872729,-947.047831, 21.234079
50000.000000,50000.000000,1604.085412,2389.967036,-946.917976, 19.141233
50000.000000,50000.000000,1586.906228,2261.196161,-946.791088, 16.945326
50000.000000,50000.000000,1565.186697,2120.464679,-946.667099, 14.666867
50000.000000,50000.000000,1539.052607,1968.737961,-946.545943, 12.326582
50000.000000,50000.000000,1508.641345,1807.035783,-946.427554,  9.945240
50000.000000,50000.000000,1474.101312,1636.425691,-946.311871,  7.543488
50000.000000,50000.000000,1435.591342,1458.016150,-946.198831,  5.141681
50000.000000,50000.000000,1393.280085,1272.949533,-946.088373,  2.759730
50000.000000,50000.000000,1347.345366,1082.394982,-945.980439,  0.416949
50000.000000,50000.000000,1297.973522,887.541191,-945.874971, -1.868089
50000.000000,50000.000000,1245.358747,689.589153,-945.771912, -4.077682
50000.000000,50000.000000,1189.702385,489.744916,-945.671208, -6.195124
50000.000000,50000.000000,1131.212236,289.212387,-945.572805, -8.204819
50000.000000,50000.000000,1070.101845, 89.186229,-945.476650,-10.092380
50000.000000,50000.000000,1006.589792,-109.155109,-945.382692,-11.844717
50000.000000,50000.000000,940.898946,-304.656185,-945.290880,-13.450118
50000.000000,50000.000000,873.255767,-496.191154,-945.201166,-14.898307
50000.000000,50000.000000,803.889550,-682.670103,-945.113502,-16.180498
50000.000000,50000.000000,733.031715,-863.045104,-945.027841,-17.289432
50000.000000,50000.000000,660.915081,-1036.315954,-944.944137,-18.219401
50000.000000,50000.000000,587.773143,-1201.535568,-944.862345,-18.966260
50000.000000,50000.000000,513.839354,-1357.814996,-944.782422,-19.527424
50000.000000,50000.000000,439.346446,-1504.328044,-944.704324,-19.901853
50000.000000,50000.000000,364.525717,-1640.315470,-944.628011,-20.090029
50000.000000,50000.000000,289.606365,-1765.088736,-944.553442,-20.093915
50000.000000,50000.000000,214.814831,-1878.033303,-944.480576,-19.916909
50000.000000,50000.000000,140.374143,-1978.611452,-944.409375,-19.563779
50000.000000,50000.000000, 66.503306,-2066.364613,-944.339801,-19.040600
50000.000000,50000.000000, -6.583321,-2140.915208,-944.271816,-18.354670
50000.000000,50000.000000,-78.676591,-2201.967985,-944.205385,-17.514427
50000.000000,50000.000000,-149.573133,-2249.310862,-944.140471,-16.529357
50000.000000,50000.000000,-219.075893,-2282.815260,-944.077041,-15.409887
50000.000000,50000.000000,-286.994640,-2302.435931,-944.015059,-14.167287
50000.000000,50000.000000,-353.146437,-2308.210319,-943.954494,-12.813557
50000.000000,50000.000000,-417.356106,-2300.257416,-943.895312,-11.361312
50000.000000,50000.000000,-479.456647,-2278.776154,-943.837483, -9.823669
50000.000000,50000.000000,-539.289635,-2244.043347,-943.780974, -8.214131
50000.000000,50000.000000,-596.705570,-2196.411188,-943.725757, -6.546465
50000.000000,50000.000000,-651.564223,-2136.304332,-943.671801, -4.834587
50000.000000,50000.000000,-703.734924,-2064.216580,-943.619078, -3.092448
50000.000000,50000.000000,-753.096832,-1980.707190,-943.567560, -1.333919
50000.000000,50000.000000,-799.539167,-1886.396846,-943.517219,  0.427320
50000.000000,50000.000000,-842.961409,-1781.963300,-943.468027,  2.177883
50000.000000,50000.000000,-883.273463,-1668.136730,-943.419960,  3.904783
50000.000000,50000.000000,-920.395790,-1545.694841,-943.372991,  5.595529
50000.000000,50000.000000,-954.259511,-1415.457729,-943.327095,  7.238208
50000.000000,50000.000000,-984.806465,-1278.282566,-943.282247,  8.821576
50000.000000,50000.000000,-1011.989250,-1135.058109,-943.238424, 10.335133
50000.000000,50000.000000,-1035.771210,-986.699091,-943.195603, 11.769185
50000.000000,50000.000000,-1056.126419,-834.140524,-943.153759, 13.114912
50000.000000,50000.000000,-1073.039599,-678.331928,-943.112872, 14.364413
50000.000000,50000.000000,-1086.506041,-520.231565,-943.072919, 15.510754
50000.000000,50000.000000,-1096.531465,-360.800660,-943.033878, 16.547999
50000.000000,50000.000000,-1103.131869,-200.997680,-942.995730, 17.471237
50000.000000,50000.000000,-1106.333350,-41.772693,-942.958453, 18.276598
50000.000000,50000.000000,-1106.171884,115.938167,-942.922028, 18.961263
50000.000000,50000.000000,-1102.693089,271.218081,-942.886435, 19.523458
50000.000000,50000.000000,-1095.951961,423.174765,-942.851655, 19.962451
50000.000000,50000.000000,-1086.012585,570.945476,-942.817670, 20.278531
50000.000000,50000.000000,-1072.947816,713.701795,-942.784461, 20.472982
50000.000000,50000.000000,-1056.838955,850.654149,-942.752011, 20.548054
50000.000000,50000.000000,-1037.775383,981.056055,-942.720303, 20.506918
50000.000000,40237.944137,-1015.854182,1104.208066,-942.689318, 20.353625
50000.000000,28465.235693,-991.179755,1219.461387,-942.659042, 20.093050
50000.000000,16664.422992,-963.863404,1326.221155,-942.629457, 19.730835
50000.000000,4881.558164,-934.022910,1423.949365,-942.600549, 19.273327
50000.000000,-6837.281655,-901.782086,1512.167427,-942.572301, 18.727509
50000.000000,-18446.593523,-867.270335,1590.458341,-942.544698, 18.100932
50000.000000,-29901.625001,-830.622180,1658.468482,-942.517726, 17.401640
50000.000000,-41158.544321,-791.976793,1715.908993,-942.491370, 16.638093
50000.000000,-50000.000000,-751.477521,1762.556783,-942.465616, 15.819090
50000.000000,-50000.000000,-709.271392,1798.255114,-942.440450, 14.953692
50000.000000,-50000.000000,-665.508630,1822.913796,-942.415860, 14.051140
50000.000000,-50000.000000,-620.342159,1836.508987,-942.391831, 13.120781
50000.000000,-50000.000000,-573.927112,1839.082599,-942.368352, 12.171982
50000.000000,-50000.000000,-526.420332,1830.741320,-942.345409, 11.214064
50000.000000,-50000.000000,-477.979882,1811.655270,-942.322990, 10.256220
50000.000000,-50000.000000,-428.764547,1782.056295,-942.301083,  9.307448
50000.000000,-50000.000000,-378.933361,1742.235901,-942.279676,  8.376480
50000.000000,-50000.000000,-328.645112,1692.542876,-942.258759,  7.471719
50000.000000,-50000.000000,-278.057880,1633.380593,-942.238320,  6.601179
50000.000000,-50000.000000,-227.328569,1565.204013,-942.218347,  5.772428
50000.000000,-50000.000000,-176.612445,1488.516423,-942.198831,  4.992537
50000.000000,-50000.000000,-126.062706,1403.865932,-942.179761,  4.268034
50000.000000,-50000.000000,-75.830034,1311.841711,-942.161127,  3.604865
50000.000000,-50000.000000,-26.062187,1213.070068,-942.142918,  3.008357
50000.000000,-50000.000000, 23.096405,1108.210322,-942.125125,  2.483190
50000.000000,-50000.000000, 71.505037,997.950535,-942.107739,  2.033373
50000.000000,-50000.000000,119.027088,883.003129,-942.090750,  1.662228
50000.000000,-50000.000000,165.530394,764.100388,-942.074149,  1.372378
50000.000000,-50000.000000,210.887567,641.989910,-942.057927,  1.165742
50000.000000,-50000.000000,254.976329,517.430011,-942.042076,  1.043532
47441.160600,-50000.000000,297.679795,391.185115,-942.026588,  1.006265
34169.110305,-50000.000000,338.886766,264.021171,-942.011453,  1.053769
20902.670703,-50000.000000,378.491978,136.701089,-941.996663,  1.185204
7704.431234,-50000.000000,416.396337,  9.980265,-941.982212,  1.399080
-5359.728824,-50000.000000,452.507141,-115.397811,-941.968091,  1.693287
-18225.423222,-50000.000000,486.738265,-238.705814,-941.954292,  2.065125
-30830.099438,-50000.000000,519.010336,-359.236727,-941.940809,  2.511335
-43113.331584,-50000.000000,549.250879,-476.307790,-941.927634,  3.028147
-50000.000000,-50000.000000,577.394439,-589.264279,-941.914760,  3.611310
-50000.000000,-50000.000000,603.382689,-697.483062,-941.902180,  4.256150
-50000.000000,-50000.000000,627.164504,-800.375953,-941.889887,  4.957604
-50000.000000,-50000.000000,648.696021,-897.392795,-941.877875,  5.710283
-50000.000000,-50000.000000,667.940668,-988.024305,-941.866138,  6.508510
-50000.000000,-50000.000000,684.869184,-1071.804622,-941.854669,  7.346382
-50000.000000,-50000.000000,699.459597,-1148.313602,-941.843462,  8.217817
-50000.000000,-50000.000000,711.697206,-1217.178791,-941.832511,  9.116613
-50000.000000,-50000.000000,721.574512,-1278.077101,-695.603788, 10.036492
-50000.000000,-50000.000000,729.091157,-1330.736176,-366.512728, 10.971160
-50000.000000,-50000.000000,734.253816,-1374.935446,-39.323182, 11.914355
-50000.000000,-50000.000000,737.076091,-1410.506863,283.462883, 12.859899
-50000.000000,-50000.000000,737.578377,-1437.335303,599.249032, 13.801741
-50000.000000,-50000.000000,735.787701,-1455.358675,905.532577, 14.734008
-50000.000000,-50000.000000,731.737556,-1464.567696,960.618293, 15.651047
-50000.000000,-50000.000000,725.467718,-1465.005357,960.185912, 16.547466
-50000.000000,-50000.000000,717.024033,-1456.766101,959.755980, 17.418168
-50000.000000,-50000.000000,706.458196,-1439.994690,959.335785, 18.258393
-50000.000000,-50000.000000,693.827528,-1414.884782,958.925189, 19.063740
-50000.000000,-50000.000000,679.194716,-1381.677262,958.523973, 19.830201
-50000.000000,-50000.000000,662.627557,-1340.658280,958.131924, 20.554183
-50000.000000,-50000.000000,644.198681,-1292.157058,957.748832, 21.232525
-50000.000000,-50000.000000,623.985276,-1236.543469,957.374493, 21.862518
-50000.000000,-50000.000000,602.068778,-1174.225401,957.008706, 22.441912
-50000.000000,-50000.000000,578.534587,-1105.645906,956.651276, 22.968928
-50000.000000,-50000.000000,553.471738,-1031.280207,956.302013, 23.442261
-50000.000000,-50000.000000,526.972601,-951.632524,955.960729, 23.861075
-50000.000000,-50000.000000,499.132539,-867.232754,955.627242, 24.225009
-50000.000000,-50000.000000,470.049600,-778.633076,955.301375, 24.534158
-50000.000000,-50000.000000,439.824166,-686.404409,954.982952, 24.789070
-50000.000000,-50000.000000,408.558635,-591.132847,954.671804, 24.990729
-50000.000000,-50000.000000,376.357070,-493.416013,954.367766, 25.140536
-50000.000000,-50000.000000,343.324876,-393.859385,954.070673, 25.240290
-50000.000000,-50000.000000,309.568455,-293.072645,953.780368, 25.292162
-50000.000000,-50000.000000,275.194877,-191.666001,953.496696, 25.298674
-50000.000000,-50000.000000,240.311538,-90.246590,953.219505, 25.262665
-50000.000000,-50000.000000,205.025845, 10.585100,952.948646, 25.187264
-50000.000000,-50000.000000,169.444884,110.238696,952.683976, 25.075859
-50000.000000,-50000.000000,133.675098,208.137335,952.425353, 24.932062
-50000.000000,-50000.000000, 97.821978,303.720921,952.172639, 24.759675
-50000.000000,-50000.000000, 61.989759,396.449256,951.925698, 24.562656
-50000.000000,-50000.000000, 26.281742,485.805025,951.684399, 24.344381
-50000.000000,-50000.000000, -9.200574,571.296594,951.448613, 24.108313
-50000.000000,-50000.000000,-44.357763,652.460647,951.218215, 23.857970
-50000.000000,-50000.000000,-79.092750,728.864603,950.993079, 23.596894
-50000.000000,-50000.000000,-113.311067,800.108853,950.773088, 23.328622
-50000.000000,-50000.000000,-146.921105,865.828741,950.558123, 23.056661
-50000.000000,-50000.000000,-179.834344,925.696356,950.348069, 22.784456
-50000.000000,-50000.000000,-211.965585,979.422049,950.142814, 22.515365
-50000.000000,-50000.000000,-243.233154,1026.755740,949.942248, 22.252635
-50000.000000,-50000.000000,-273.559106,1067.487943,949.746265, 21.999376
-50000.000000,-50000.000000,-302.869404,1101.450575,949.554760, 21.758542
-50000.000000,-50000.000000,-331.094093,1128.517484,949.367629, 21.532908
-50000.000000,-50000.000000,-358.167451,1148.604727,949.184774, 21.325054
-50000.000000,-50000.000000,-384.028133,1161.670613,949.006097, 21.137344
-50000.000000,-50000.000000,-408.619290,1167.715467,948.831502, 20.971919
-50000.000000,-50000.000000,-431.888691,1166.781181,948.660896, 20.830677
-50000.000000,-50000.000000,-453.788801,1158.950486,948.494188, 20.715269
-50000.000000,-50000.000000,-474.276878,1144.346030,948.331288, 20.627088
-50000.000000,-50000.000000,-493.315025,1123.129194,948.172111, 20.567265
-50000.000000,-50000.000000,-510.870242,1095.498721,948.016569, 20.536665
-50000.000000,-50000.000000,-526.914461,1061.689121,947.864582, 20.535885
-50000.000000,-50000.000000,-541.424561,1021.968880,947.716067, 20.565259
-50000.000000,-50000.000000,-554.382371,976.638512,947.570945, 20.624856
-50000.000000,-50000.000000,-565.774661,926.028406,947.429139, 20.714491
-50000.000000,-50000.000000,-575.593109,870.496557,947.290572, 20.833725
-50000.000000,-50000.000000,-583.834270,810.426131,947.155172, 20.981883
-50000.000000,-44294.453591,-590.499510,746.222919,947.022865, 21.158056
-50000.000000,-36064.585223,-595.594938,678.312690,946.893580, 21.361121
-50000.000000,-27751.056893,-599.131333,607.138448,946.767250, 21.589749
-50000.000000,-19386.526791,-601.124038,533.157611,946.643805, 21.842426
-50000.000000,-11004.138853,-601.592859,456.839160,946.523181, 22.117464
-50000.000000,-2636.875457,-600.561941,378.660716,946.405313, 22.413021
-50000.000000,5682.573033,-598.059641,299.105632,946.290138, 22.727119
-50000.000000,13921.934459,-594.118376,218.660065,946.177594, 23.057665
-50000.000000,22049.478479,-588.774487,137.810057,905.263132, 23.402467
-48863.650779,30034.137080,-582.068061, 57.038674,714.727938, 23.759256
-40879.985987,37845.621827,-574.042767,-23.176825,521.396471, 24.125706
-32789.996910,45454.537084,-564.745679,-102.367760,326.615060, 24.499452
-24633.148808,50000.000000,-554.227082,-180.076694,132.009178, 24.878115
-16451.527972,50000.000000,-542.540277,-255.860022,-60.817973, 25.259314
-8286.825168,50000.000000,-529.741386,-329.290452,-250.301037, 25.640692
-180.108376,50000.000000,-515.889141,-399.959341,-434.924883, 26.019932
7828.377164,50000.000000,-501.044672,-467.478913,-613.236380, 26.394773
15699.401742,50000.000000,-485.271287,-531.484325,-783.855480, 26.763030
23394.936647,50000.000000,-468.634258,-591.635577,-945.485542, 27.122609
30878.330929,50000.000000,-451.200599,-647.619238,-956.344782, 27.471518
38114.479036,50000.000000,-433.038830,-699.150015,-956.004185, 27.807890
45069.978438,50000.000000,-414.218758,-745.972136,-955.669725, 28.129983
50000.000000,50000.000000,-394.811251,-787.860525,-955.342887, 28.436204
50000.000000,50000.000000,-374.888006,-824.621803,-955.023516, 28.725106
50000.000000,50000.000000,-354.521316,-856.095078,-954.711441, 28.995408
50000.000000,50000.000000,-333.783861,-882.152546,-954.406497, 29.245994
50000.000000,50000.000000,-312.748461,-902.699870,-954.108520, 29.475919
50000.000000,50000.000000,-291.487876,-917.676376,-953.817350, 29.684416
50000.000000,50000.000000,-270.074571,-927.055033,-953.532833, 29.870898
50000.000000,50000.000000,-248.580509,-930.842256,-953.254816, 30.034953
50000.000000,50000.000000,-227.076938,-929.077478,-952.983151, 30.176352
50000.000000,50000.000000,-205.634192,-921.832563,-952.717693, 30.295039
50000.000000,50000.000000,-184.321474,-909.211019,-952.458299, 30.391133
50000.000000,50000.000000,-163.206685,-891.347042,-952.204832, 30.464919
50000.000000,50000.000000,-142.356218,-868.404367,-951.957156, 30.516846
50000.000000,50000.000000,-121.834785,-840.574987,-951.715138, 30.547517
50000.000000,50000.000000,-101.705246,-808.077692,-951.478650, 30.557679
50000.000000,50000.000000,-82.028435,-771.156494,-951.247565, 30.548220
50000.000000,50000.000000,-62.863020,-730.078882,-951.021759, 30.520152
50000.000000,50000.000000,-44.265334,-685.133994,-950.801113, 30.474603
50000.000000,50000.000000,-26.289250,-636.630662,-950.585507, 30.412806
50000.000000,50000.000000, -8.986044,-584.895364,-950.374828, 30.336085
50000.000000,50000.000000,  7.595714,-530.270103,-950.168961, 30.245842
50000.000000,50000.000000, 23.410294,-473.110200,-949.967798, 30.143547
50000.000000,50000.000000, 38.414878,-413.782051,-949.771231, 30.030722
50000.000000,50000.000000, 52.569676,-352.660834,-949.579155, 29.908927
50000.000000,50000.000000, 65.837986,-290.128189,-949.391468, 29.779747
50000.000000,50000.000000, 78.186279,-226.569894,-949.208068, 29.644782
50000.000000,50000.000000, 89.584249,-162.373526,-949.028859, 29.505629
50000.000000,50000.000000,100.004869,-97.926152,-948.853744, 29.363871
50000.000000,50000.000000,109.424424,-33.612045,-948.682629, 29.221065
50000.000000,50000.000000,117.822542, 30.189565,-948.515425, 29.078732
50000.000000,50000.000000,125.182211, 93.106672,-948.352040, 28.938339
50000.000000,50000.000000,131.489784,154.776625,-907.828599, 28.801297
50000.000000,50000.000000,136.734979,214.848166,-782.744688, 28.668943
50000.000000,50000.000000,140.910869,272.983385,-653.086956, 28.542537
50000.000000,50000.000000,144.013851,328.859572,-519.832490, 28.423248
50000.000000,50000.000000,146.043616,382.170958,-384.129963, 28.312153
50000.000000,50000.000000,147.003116,432.630344,-247.133084, 28.210226
50000.000000,50000.000000,146.898496,479.970579,-109.989554, 28.118331
50000.000000,50000.000000,145.739052,523.945944, 26.168320, 28.037222
50000.000000,50000.000000,143.537146,564.333348,160.232746, 27.967538
50000.000000,50000.000000,140.308141,600.933411,291.129224, 27.909797
50000.000000,50000.000000,136.070307,633.571376,417.824927, 27.864401
50000.000000,50000.000000,130.844734,662.097875,539.336616, 27.831629
50000.000000,50000.000000,124.655231,686.389525,654.738033, 27.811640
50000.000000,50000.000000,117.528217,706.349381,763.166710, 27.804476
50000.000000,50000.000000,109.492607,721.907210,863.830163, 27.810062
50000.000000,50000.000000,100.579699,733.019616,954.438956, 27.828211
47619.693322,50000.000000, 90.823041,739.669994,954.151952, 27.858627
42368.304165,50000.000000, 80.258305,741.868340,953.859926, 27.900908
36977.022312,50000.000000, 68.923155,739.650889,953.574437, 27.954556
31473.773802,50000.000000, 56.857102,733.079618,953.295470, 28.018980
25887.822943,50000.000000, 44.101366,722.241587,953.022876, 28.093505
20248.483455,50000.000000, 30.698732,707.248152,952.756510, 28.177375
14584.960871,50000.000000, 16.693394,688.234036,952.496230, 28.269768
8926.206112,50000.000000,  2.130812,665.356270,952.241896, 28.369796
3300.772351,50000.000000,-12.942447,638.793020,951.993373, 28.476521
-2263.324235,50000.000000,-28.478858,608.742297,951.750528, 28.588959
-7738.739318,50000.000000,-44.430091,575.420565,951.513231, 28.706091
-13098.929994,47416.090295,-60.747175,539.061257,951.281356, 28.826871
-18318.278697,41359.327185,-77.380645,499.913205,951.054778, 28.950237
-23372.210885,35185.656042,-94.280696,458.238993,950.833377, 29.075116
-28237.305832,28919.407223,-111.397345,414.313256,950.617035, 29.200438
-32891.400220,22585.811218,-128.680570,368.420920,950.405635, 29.325141
-37313.684055,16210.187670,-146.080472,320.855399,950.199065, 29.448180
-41484.788382,9817.842224,-163.547418,271.916766,949.997214, 29.568535
-45386.864767,3433.967389,-181.032180,221.909902,949.799975, 29.685223
-49003.655880,-2916.455483,-198.486082,171.142638,949.607242, 29.797296
-50000.000000,-9208.752613,-215.861146,119.923904,940.639842, 29.903857
-50000.000000,-15418.652414,-233.110208, 68.561880,861.343480, 30.004060
-50000.000000,-21522.377831,-250.187065, 17.362192,776.335686, 30.097121
-50000.000000,-27496.736091,-267.046590,-33.373885,686.273893, 30.182317
-50000.000000,-33319.205513,-283.644858,-83.351146,591.973490, 30.258994
-50000.000000,-38968.019105,-299.939255,-132.282146,494.274198, 30.326573
-50000.000000,-44422.244602,-315.888598,-179.888813,394.031621, 30.384547
-50000.000000,-49661.860616,-331.453226,-225.903990,292.109946, 30.432487
-50000.000000,-50000.000000,-346.595110,-270.072896,189.374696, 30.470045
-50000.000000,-50000.000000,-361.277939,-312.154499, 86.685569, 30.496954
-50000.000000,-50000.000000,-375.467200,-351.922787,-15.110566, 30.513025
-50000.000000,-50000.000000,-389.130272,-389.167944,-115.186469, 30.518152
-50000.000000,-50000.000000,-402.236484,-423.697409,-212.741065, 30.512308
-50000.000000,-50000.000000,-414.757186,-455.336827,-307.005677, 30.495545
-50000.000000,-50000.000000,-426.665810,-483.930879,-397.249891, 30.467988
-50000.000000,-50000.000000,-437.937913,-509.343994,-482.787030, 30.429840
-50000.000000,-50000.000000,-448.551232,-531.460928,-562.979180, 30.381369
-50000.000000,-50000.000000,-458.485714,-550.187222,-637.241754, 30.322913
-50000.000000,-50000.000000,-467.723545,-565.449535,-705.047531, 30.254870
-50000.000000,-50000.000000,-476.249181,-577.195843,-765.930181, 30.177698
-50000.000000,-50000.000000,-484.049359,-585.395507,-819.487228, 30.091904
-50000.000000,-50000.000000,-491.113098,-590.039225,-865.382443, 29.998045
-50000.000000,-50000.000000,-497.431716,-591.138844,-903.347665, 29.896719
-50000.000000,-50000.000000,-502.998816,-588.727063,-933.184018, 29.788560
-49052.604474,-50000.000000,-507.810275,-582.857001,-952.519656, 29.674232
-45919.488470,-50000.000000,-511.864220,-573.601664,-952.267324, 29.554424
-42590.298674,-50000.000000,-515.161019,-561.053286,-952.018250, 29.429842
-39083.588790,-50000.000000,-517.703232,-545.322575,-951.774837, 29.301204
-35419.394157,-50000.000000,-519.495581,-526.537857,-951.536985, 29.169236
-31618.294924,-50000.000000,-520.544908,-504.844109,-940.093756, 29.034660
-27701.298522,-50000.000000,-520.860123,-480.401929,-913.757063, 28.898196
-23689.727839,-50000.000000,-520.452148,-453.386405,-880.147044, 28.760551
-19605.109353,-50000.000000,-519.333863,-423.985922,-839.631135, 28.622414
-15469.061579,-50000.000000,-517.520029,-392.400900,-792.642852, 28.484455
-11303.184586,-50000.000000,-515.027228,-358.842471,-739.662963, 28.347314
-7128.937057,-50000.000000,-511.875556,-323.531115,-681.214494, 28.211939
-2967.543285,-50000.000000,-508.086817,-286.695248,-617.858001, 28.079241
1160.111157,-50000.000000,-503.684426,-248.569784,-550.186409, 27.950086
5233.580686,-50000.000000,-498.693334,-209.394672,-478.819650, 27.825295
9232.957433,-50000.000000,-493.139916,-169.413421,-404.399161, 27.705631
13138.965011,-50000.000000,-487.051883,-128.871613,-327.582279, 27.591799
16933.047889,-50000.000000,-480.458174,-88.015441,-249.036598, 27.484441
20597.455892,-50000.000000,-473.388862,-47.090229,-169.434306, 27.384129
24115.323633,-50000.000000,-465.875036, -6.338995,-89.446579, 27.291368
27470.744423,-50000.000000,-457.948707, 33.998959, -9.738062, 27.206588
30648.838296,-50000.000000,-449.642688, 73.689424, 69.038523, 27.130142
33635.814091,-50000.000000,-440.990493,112.504616,146.247581, 27.062311
36419.025100,-50000.000000,-432.026222,150.224452,221.275645, 27.003297
38987.018362,-50000.000000,-422.784453,186.637767,293.536107, 26.953226
41329.577117,-50000.000000,-413.300136,221.543467,362.473676, 26.912147
43437.756543,-50000.000000,-403.608467,254.751605,427.568499, 26.880036
45303.912651,-50000.000000,-393.744800,286.084385,488.339933, 26.856797
46921.724109,-50000.000000,-383.744525,315.377079,544.349951, 26.842260
48286.207207,-50000.000000,-373.642967,342.478861,595.206126, 26.836193
49393.723751,-50000.000000,-363.475271,367.253533,640.564217, 26.838295
50000.000000,-49364.427734,-353.276318,389.580187,680.130305, 26.848208
50000.000000,-44864.309418,-343.080602,409.353744,713.662491, 26.865518
50000.000000,-40218.608066,-332.922149,426.485395,740.972138, 26.889758
50000.000000,-35445.772469,-322.834403,440.902957,761.924655, 26.920417
50000.000000,-30565.405054,-312.850155,452.551109,776.439828, 26.956941
50000.000000,-25597.395136,-303.001438,461.391537,784.491688, 26.998740
49991.395230,-20561.835428,-293.319440,467.402969,786.107948, 27.045197
49095.312843,-15478.941759,-283.834430,470.581116,781.368992, 27.095666
47967.562410,-10368.972909,-274.575675,470.938508,770.406452, 27.149486
46616.560485,-5252.150916,-265.571366,468.504233,753.401382, 27.205981
45052.013156,-148.582036,-256.848548,463.323587,730.582045, 27.264467
43284.583521,4921.821341,-248.433048,455.457612,702.221354, 27.324261
41325.823315,9939.417347,-240.349424,444.982579,668.633968, 27.384682
39188.102959,14884.909763,-232.620905,431.989357,630.173099, 27.445060
36884.538495,19739.421276,-225.269331,416.582717,587.227038, 27.504737
34428.915590,24484.564495,-218.315114,398.880555,540.215444, 27.563076
31835.611203,29102.510650,-211.777192,379.013054,489.585431, 27.619466
29119.513193,33576.055519,-205.672999,357.121772,435.807485, 27.673322
26295.938513,37888.682518,-200.018418,333.358683,379.371239, 27.724093
23380.550122,42024.622579,-194.827772,307.885158,320.781168, 27.771264
20389.273338,45968.910760,-190.113782,280.870908,260.552203, 27.814359
17338.211939,49707.439196,-185.887567,252.492888,199.205339, 27.852948
14243.564334,50000.000000,-182.158627,222.934170,137.263253, 27.886641
11121.540466,50000.000000,-178.934829,192.382784, 75.245960, 27.915101
7988.279694,50000.000000,-176.222414,161.030560, 13.666573, 27.938036
4859.770019,50000.000000,-174.025996,129.071948,-46.972836, 27.955205
1751.769202,50000.000000,-172.348567, 96.702833,-106.185212, 27.966419
-1320.271975,50000.000000,-171.191517, 64.119366,-163.502322, 27.971542
-4341.283890,50000.000000,-170.554648, 31.516794,-218.478338, 27.970485
-7296.649378,50000.000000,-170.436190, -0.911680,-270.693194, 27.963213
-10172.271860,50000.000000,-170.832831,-32.976023,-319.755675, 27.949742
-12954.639897,50000.000000,-171.739757,-64.490458,-365.306229, 27.930134
-15630.887973,50000.000000,-173.150670,-95.274519,-407.019470, 27.904500
-18188.853293,50000.000000,-175.057836,-125.154059,-444.606370, 27.872997
-20617.128174,50000.000000,-177.452129,-153.962216,-477.816115, 27.835823
-22905.108042,50000.000000,-180.323071,-181.540310,-506.437623, 27.793218
-25043.034671,50000.000000,-183.658885,-207.738701,-530.300704, 27.745458
-27022.034690,50000.000000,-187.446550,-232.417571,-549.276880, 27.692857
-28834.152985,50000.000000,-191.671850,-255.447643,-563.279834, 27.635755
-30472.381144,50000.000000,-196.319438,-276.710830,-572.265516, 27.574524
-31930.680644,50000.000000,-201.372898,-296.100811,-576.231891, 27.509559
-33204.000926,50000.000000,-206.814799,-313.523530,-575.218353, 27.441274
-34288.292191,50000.000000,-212.626779,-328.897616,-569.304794, 27.370102
-35180.512957,50000.000000,-218.789590,-342.154724,-558.610363, 27.296486
-35878.632437,50000.000000,-225.283191,-353.239796,-543.291918, 27.220881
-36381.627838,50000.000000,-232.086797,-362.111246,-523.542179, 27.143744
-36689.476421,50000.000000,-239.178969,-368.741046,-499.587627, 27.065534
-36803.142845,50000.000000,-246.537674,-373.114748,-471.686142, 26.986710
-36724.561439,50000.000000,-254.140369,-375.231420,-440.124427, 26.907721
-36456.614003,50000.000000,-261.964070,-375.103500,-405.215222, 26.829009
-36003.102947,50000.000000,-269.985426,-372.756577,-367.294352, 26.751001
-35368.720227,50000.000000,-278.180801,-368.229089,-326.717619, 26.674110
-34559.012138,50000.000000,-286.526339,-361.571960,-283.857580, 26.598729
-33580.340222,50000.000000,-294.998049,-352.848155,-239.100237, 26.525228
-32439.838588,50000.000000,-303.571868,-342.132175,-192.841650, 26.453954
-31145.367867,50000.000000,-312.223742,-329.509495,-145.484532, 26.385226
-29705.466105,50000.000000,-320.929700,-315.075925,-97.434829, 26.319336
-28129.296800,47670.533312,-329.665917,-298.936938,-49.098327, 26.256544
-26426.594508,44243.449497,-338.408787,-281.206933, -0.877304, 26.197080
-24607.608264,40669.829909,-347.134995,-262.008464, 46.832732, 26.141140
-22683.043067,36964.526200,-355.821579,-241.471420, 93.646211, 26.088887
-20663.999888,33143.002406,-364.445990,-219.732177,139.190536, 26.040447
-18561.914414,29221.070058,-372.986165,-196.932721,183.108964, 25.995916
-16388.494873,25214.822887,-381.420581,-173.219740,225.063327, 25.955352
-14155.659317,21140.571644,-389.728312,-148.743706,264.736542, 25.918779
-11875.472609,17014.778648,-397.889081,-123.657951,301.834929, 25.886190
-9560.083549,12853.992163,-405.883321,-98.117711,336.090293, 25.857542
-7221.662320,8674.780921,-413.692218,-72.279201,367.261762, 25.832761
-4872.338677,4493.668941,-421.297755,-46.298669,395.137383, 25.811745
-2524.141061,327.071125,-428.682763,-20.331478,419.535450, 25.794359
-188.937146,-3808.770405,-435.830957,  5.468806,440.305567, 25.780444
2121.624177,-7897.848725,-442.726971, 30.951306,457.329428, 25.769814
4396.168832,-11924.453246,-449.356400, 55.968695,470.521339, 25.762261
6623.651620,-15873.229235,-455.705821, 80.378027,479.828443, 25.757554
8793.407775,-19729.235490,-461.762822,104.041540,485.230688, 25.755446
10895.202029,-23478.000044,-467.516035,126.827405,486.740514, 25.755671
12919.274851,-27105.573547,-472.955142,148.610452,484.402276, 25.757951
14856.385659,-30598.580370,-478.070907,169.272831,478.291429, 25.761996
16697.852833,-33944.266892,-482.855173,188.704627,468.513442, 25.767507
18435.590496,-37130.547226,-487.300886,206.804429,455.202501, 25.774181
20062.141649,-40146.045839,-491.402098,223.479829,438.519985, 25.781709
21570.707808,-42980.137166,-495.153963,238.647874,418.652743, 25.789782
22955.174935,-45622.981974,-498.552748,252.235454,395.811182, 25.798093
24210.135439,-48065.560428,-501.595819,264.179621,370.227194, 25.806339
25330.906523,-50000.000000,-504.281641,274.427849,342.151928, 25.814223
26313.544438,-50000.000000,-506.609765,282.938236,311.853445, 25.821457
27154.854969,-50000.000000,-508.580818,289.679630,279.614259, 25.827764
27852.399842,-50000.000000,-510.196479,294.631695,245.728800, 25.832879
28404.499401,-50000.000000,-511.459474,297.784911,210.500813, 25.836553
28810.231240,-50000.000000,-512.373536,299.140511,174.240717, 25.838551
29069.425131,-50000.000000,-512.943397,298.710359,137.262948, 25.838659
29182.654216,-50000.000000,-513.174749,296.516753, 99.883311, 25.836680
29151.222454,-50000.000000,-513.074219,292.592190, 62.416351, 25.832437
28977.148679,-50000.000000,-512.649336,286.979046, 25.172783, 25.825777
28663.147093,-50000.000000,-511.908497,279.729227,-11.543021, 25.816565
28212.604617,-50000.000000,-510.860924,270.903756,-47.435448, 25.804692
27629.555101,-50000.000000,-509.516639,260.572306,-82.219953, 25.790071
26918.650504,-50000.000000,-507.886408,248.812691,-115.625252, 25.772639
26085.129462,-50000.000000,-505.981712,235.710323,-147.395357, 25.752353
25134.783208,-50000.000000,-503.814688,221.357614,-177.291477, 25.729198
24073.919148,-50000.000000,-501.398097,205.853357,-205.093729, 25.703176
22909.322294,-50000.000000,-498.745272,189.302069,-230.602687, 25.674317
21648.214796,-50000.000000,-495.870072,171.813305,-253.640721, 25.642667
20298.213790,-50000.000000,-492.786833,153.500962,-274.053156, 25.608297
18867.287741,-50000.000000,-489.510311,134.482549,-291.709204, 25.571294
17363.711655,-49560.940330,-486.055647,114.878458,-306.502710, 25.531765
15796.021227,-47411.129692,-482.438301, 94.811212,-318.352663, 25.489833
14172.966339,-45088.047764,-478.674015, 74.404724,-327.203500, 25.445639
12503.464033,-42601.695348,-474.778750, 53.783541,-333.025199, 25.399336
10796.551241,-39962.967198,-470.768646, 33.072106,-335.813156, 25.351090
9061.337542,-37183.280221,-466.659956, 12.394021,-335.587856, 25.301079
7306.958167,-34274.523503,-462.469014, -8.128685,-332.394336, 25.249488
5542.527419,-31249.008374,-458.212175,-28.376245,-326.301468, 25.196513
3777.092902,-28119.417177,-453.905760,-48.231846,-317.401036, 25.142353
2019.590577,-24898.750879,-449.566021,-67.582290,-305.806652, 25.087212
278.800994,-21600.275870,-445.209082,-86.318621,-291.652505, 25.031297
-1436.693038,-18237.470044,-440.850900,-104.336722,-275.091954, 24.974815
-3118.547427,-14823.968479,-436.507210,-121.537882,-256.295984, 24.917973
-4758.695806,-11373.508847,-432.193489,-137.829313,-235.451546, 24.860973
-6349.386840,-7899.876835,-427.924911,-153.124646,-212.759779, 24.804015
-7883.219305,-4416.851711,-423.716305,-167.344358,-188.434149, 24.747293
-9353.175056,-938.152386,-419.582108,-180.416175,-162.698510, 24.690992
-10752.649536,2522.615971,-415.536342,-192.275417,-135.785105, 24.635291
-12075.479892,5952.014525,-411.592563,-202.865296,-107.932532, 24.580357
-13315.970429,9336.822218,-407.763836,-212.137169,-79.383683, 24.526347
-14468.915377,12664.086147,-404.062694,-220.050730,-50.383679, 24.473406
-15529.618920,15921.170440,-400.501116,-226.574161,-21.177815, 24.421667
-16493.912387,19095.803568,-397.090491,-231.684227,  7.990461, 24.371248
-17358.168508,22176.123859,-393.841596,-235.366312, 36.881537, 24.322253
-18119.312787,25150.723193,-390.764571,-237.614419, 65.261549, 24.274771
-18774.831924,28008.688485,-387.868895,-238.431101, 92.904232, 24.228878
-19322.779288,30739.640999,-385.163372,-237.827360,119.592676, 24.184631
-19761.777481,33333.773254,-382.656106,-235.822482,145.120977, 24.142073
-20091.017901,35781.883497,-380.354490,-232.443834,169.295774, 24.101233
-20310.257557,38075.407465,-378.265188,-227.726616,191.937670, 24.062123
-20419.812992,40206.447515,-376.394142,-221.713558,212.882502, 24.024739
-20420.551440,42167.798859,-374.746536,-214.454588,231.982477, 23.989064
-20313.879342,43952.972910,-373.326816,-206.006459,249.107153, 23.955064
-20101.728306,45556.217725,-372.138673,-196.432335,264.144266, 23.922695
-19786.538550,46972.535321,-371.185043,-185.801344,277.000392, 23.891897
-19371.239982,48197.695970,-370.468113,-174.188110,287.601440, 23.862598
-18859.231090,49228.249363,-369.989319,-161.672239,295.892994, 23.834716
-18254.355701,50000.000000,-369.749358,-148.337808,301.840465, 23.808156
-17560.877792,50000.000000,-369.748190,-134.272805,305.429097, 23.782817
-16783.454510,50000.000000,-369.985049,-119.568568,306.663799, 23.758585
-15927.107538,50000.000000,-370.458457,-104.319210,305.568821, 23.735342
-14997.193018,50000.000000,-371.166239,-88.621029,302.187273, 23.712963
-13999.370124,50000.000000,-372.105530,-72.571917,296.580497, 23.691316
-12939.568515,50000.000000,-373.272809,-56.270755,288.827297, 23.670269
-11823.954920,50000.000000,-374.663903,-39.816830,279.023038, 23.649682
-10658.898814,49667.683353,-376.274015,-23.309229,267.278618, 23.629417
-9450.937629,48762.089930,-378.097744, -6.846263,253.719328, 23.609336
-8206.741526,47674.848998,-380.129116,  9.475112,238.483613, 23.589298
-6933.077921,46411.428079,-382.361601, 25.559845,221.721737, 23.569168
-5636.776016,44978.029150,-384.788142, 41.315343,203.594376, 23.548810
-4324.691481,43381.477295,-387.401192, 56.651985,184.271140, 23.528095
-3003.671397,41629.189195,-390.192727, 71.483615,163.929043, 23.506896
-1680.519762,39729.139899,-393.154293, 85.728026,142.750941, 23.485095
-361.963631,37689.827581,-396.277025, 99.307395,120.923936, 23.462578
945.379901,35520.236517,-399.551688,112.148696, 98.637771, 23.439238
2235.035814,33229.798469,-402.968701,124.184080, 76.083230, 23.414978
3500.701991,30828.352479,-406.518178,135.351219, 53.450546, 23.389709
4736.278915,28326.103473,-410.189956,145.593616, 30.927841, 23.363349
5935.897915,25733.579639,-413.973639,154.860866,  8.699610, 23.335830
7093.947830,23061.588828,-417.858615,163.108903,-13.054757, 23.307090
8205.100107,20321.174268,-421.834107,170.300176,-34.162374, 23.277078
9264.332104,17523.569554,-425.889201,176.403809,-54.458192, 23.245754
10266.948505,14680.153241,-430.012881,181.395701,-73.786247, 23.213089
11208.600904,11802.403264,-434.194066,185.258604,-92.000818, 23.179064
12085.305288,8901.851165,-438.421634,187.982138,-108.967474, 23.143670
12893.457501,5990.036513,-442.684476,189.562785,-124.564024, 23.106907
13629.846574,3078.461628,-446.971505,190.003833,-138.681347, 23.068788
14291.665895,178.546696,-451.271708,189.315277,-151.224103, 23.029335
14876.522178,-2698.414403,-455.574170,187.513690,-162.111318, 22.988575
15382.442271,-5541.297506,-459.868104,184.622048,-171.276846, 22.946551
15807.877647,-8339.190577,-464.142892,180.669529,-178.669697, 22.903308
16151.706857,-11081.435015,-468.388095,175.691262,-184.254242, 22.858902
16413.235607,-13757.665655,-472.593505,169.728064,-188.010284, 22.813395
16592.194813,-16357.849353,-476.749157,162.826131,-189.932997, 22.766856
16688.736473,-18872.321959,-480.845357,155.036703,-190.032747, 22.719359
16703.427424,-21291.823616,-484.872716,146.415707,-188.334788, 22.670985
16637.241169,-23607.532273,-488.822168,137.023376,-184.878835, 22.621817
16491.547725,-25811.095083,-492.684993,126.923837,-179.718526, 22.571941
16268.101515,-27894.657966,-496.452840,116.184698,-172.920787, 22.521449
15969.027589,-29850.892807,-500.117745,104.876606,-164.565073, 22.470432
15596.806079,-31673.022478,-503.672151, 93.072792,-154.742547, 22.418982
15154.255081,-33354.843607,-507.108931, 80.848613,-143.555147, 22.367194
14644.512016,-34890.746754,-510.421393, 68.281083,-131.114598, 22.315160
14071.013700,-36275.734269,-513.603302, 55.448388,-117.541340, 22.262973
13437.475047,-37505.435590,-516.648888, 42.429426,-102.963416, 22.210721
12747.866697,-38576.119905,-519.552864, 29.303324,-87.515304, 22.158492
12006.391667,-39484.706318,-522.310425, 16.148968,-71.336714, 22.106371
11217.461076,-40228.771296,-524.917268,  3.044535,-54.571359, 22.054438
10385.669157,-40806.553581,-527.369587, -9.932951,-37.365714, 22.002768
9515.767640,-41216.956400,-529.664088,-22.708081,-19.867767, 21.951434
8612.639706,-41459.547054,-531.797982,-35.207468, -2.225778, 21.900499
7681.273589,-41534.553987,-533.768994,-47.360172, 15.412951, 21.850025
6726.735991,-41442.861169,-535.575361,-59.098091, 32.903272, 21.800065
5754.145459,-41186.000035,-537.215830,-70.356331, 50.103363, 21.750667
4768.645764,-40766.138916,-538.689657,-81.073553, 66.875842, 21.701871
3775.379655,-40186.070016,-539.996595,-91.192307, 83.088845, 21.653711
2779.462806,-39449.194063,-541.136899,-100.659312, 98.617023, 21.606214
1785.958260,-38559.502723,-542.111313,-109.425738,113.342492, 21.559399
799.851589,-37521.558738,-542.921055,-117.447444,127.155689, 21.513280
-173.973410,-36340.473984,-543.567822,-124.685180,139.956160, 21.467862
-1130.758068,-35021.885629,-544.053767,-131.104780,151.653253, 21.423145
-2065.891284,-33571.930223,-544.381486,-136.677292,162.166729, 21.379121
-2974.930973,-31997.216206,-544.554010,-141.379100,171.427266, 21.335775
-3853.624324,-30304.794586,-544.574793,-145.192004,179.376880, 21.293086
-4697.926910,-28502.128220,-544.447680,-148.103267,185.969234, 21.251030
-5504.020417,-26597.059625,-544.176909,-150.105627,191.169853, 21.209572
-6268.329055,-24597.777531,-543.767083,-151.197290,194.956237, 21.168677
-6987.534526,-22512.782354,-543.223156,-151.381868,197.317875, 21.128302
-7658.589464,-20350.850651,-542.550404,-150.668301,198.256153, 21.088401
-8278.729389,-18120.998756,-541.754418,-149.070749,197.784177, 21.048923
-8845.482982,-15832.445733,-540.841073,-146.608446,195.926489, 21.009816
-9356.680899,-13494.575816,-539.816513,-143.305538,192.718706, 20.971022
-9810.462729,-11116.900377,-538.687121,-139.190872,188.207059, 20.932483
-10205.282515,-8709.019839,-537.459510,-134.297787,182.447863, 20.894137
-10539.912495,-6280.585291,-536.140482,-128.663857,175.506904, 20.855924
-10813.445157,-3841.260372,-534.737022,-122.330626,167.458759, 20.817780
-11025.293777,-1400.683227,-533.256263,-115.343323,158.386058, 20.779642
-11175.191205,1031.571058,-531.705472,-107.750543,148.378682, 20.741447
-11263.187078,3446.027606,-530.092018,-99.603929,137.532917, 20.703134
-11289.643518,5833.348137,-528.423350,-90.957833,125.950568, 20.664642
-11255.229289,8184.366683,-526.706978,-81.868956,113.738041, 20.625911
-11160.912372,10490.124286,-524.950446,-72.396005,101.005395, 20.586885
-11007.951323,12741.902663,-523.161312,-62.599299, 87.865388, 20.547509
-10797.885082,14931.256703,-521.347118,-52.540412, 74.432500, 20.507732
-10532.521591,17050.045642,-519.515378,-42.281788, 60.821969, 20.467507
-10213.925198,19090.462889,-517.673549,-31.886360, 47.148829, 20.426787
-9844.402870,21045.064183,-515.829006,-21.417181, 33.526965, 20.385532
-9426.489469,22906.794348,-513.989029,-10.937037, 20.068188, 20.343707
-8962.931906,24669.012116,-512.160780, -0.508087,  6.881341, 20.301278
-8456.672564,26325.513286,-510.351284,  9.808503, -5.928546, 20.258218
-7910.831893,27870.551968,-508.567398, 19.952908,-18.261080, 20.214504
-7328.690292,29298.859880,-506.815813, 29.866978,-30.021255, 20.170117
-6713.669534,30605.663640,-505.103019, 39.494579,-41.120165, 20.125043
-6069.313544,31786.699998,-503.435297, 48.781889,-51.475644, 20.079273
-5399.268951,32838.228923,-501.818699, 57.677695,-61.012849, 20.032803
-4707.265296,33757.044600,-500.259038, 66.133674,-69.664770, 19.985634
-3997.095144,34540.484241,-498.761865, 74.104629,-77.372670, 19.937769
-3272.594033,35186.434686,-497.332463, 81.548747,-84.086449, 19.889217
-2537.620554,35693.336785,-495.975833, 88.427788,-89.764934, 19.839993
-1796.036523,36060.187653,-494.696683, 94.707284,-94.376084, 19.790113
-1051.687402,36286.540653,-493.499414,100.356698,-97.897132, 19.739599
-308.383102,36372.503171,-492.388117,105.349555,-100.314626, 19.688475
430.120911,36318.732411,-491.366557,109.663564,-101.624416, 19.636768
1160.141800,36126.428792,-490.438180,113.280698,-101.831548, 19.584510
1878.087142,35797.327528,-489.606088,116.187257,-100.950091, 19.531734
2580.471896,35333.687988,-488.873046,118.373891,-99.002890, 19.478476
3263.934614,34738.281119,-488.241479,119.835625,-96.021249, 19.424772
3925.252925,34014.375050,-487.713465,120.571823,-92.044554, 19.370663
4561.357949,33165.718696,-487.290735,120.586154,-87.119828, 19.316188
5169.347898,32196.523684,-486.974670,119.886520,-81.301234, 19.261389
5746.500607,31111.444600,-486.766308,118.484958,-74.649526, 19.206308
6290.284919,29915.557557,-486.666333,116.397531,-67.231451, 19.150986
6798.371103,28614.337385,-486.675095,113.644182,-59.119110, 19.095466
7268.639982,27213.633280,-486.792597,110.248579,-50.389293, 19.039789
7699.190972,25719.643295,-487.018510,106.237922,-41.122767, 18.983995
8088.348863,24138.887516,-487.352176,101.642759,-31.403563, 18.928123
8434.669359,22478.180232,-487.792610, 96.496757,-21.318229, 18.872213
8736.943448,20744.601168,-488.338516, 90.836472,-10.955083, 18.816299
8994.200461,18945.465841,-488.988283, 84.701096, -0.403456, 18.760417
9205.709904,17088.295171,-489.740005, 78.132205, 10.247055, 18.704598
9370.982086,15180.784617,-490.591487, 71.173479, 20.907334, 18.648872
9489.767432,13230.772668,-491.540255, 63.870423, 31.489472, 18.593266
9562.054696,11246.209184,-492.583562, 56.270078, 41.907474, 18.537804
9588.067944,9235.123420,-493.718412, 48.420718, 52.077942, 18.482508
9568.262353,7205.591917,-494.941562, 40.371565, 61.920724, 18.427396
9503.318947,5165.706571,-496.249538, 32.172475, 71.359530, 18.372484
9394.138254,3123.542779,-497.638649, 23.873645, 80.322501, 18.317784
9241.832910,1087.127869,-499.105000, 15.525297, 88.742743, 18.263305
9047.719258,-935.590051,-500.644513,  7.177399, 96.558802, 18.209053
8813.308147,-2936.772644,-502.252925, -1.120638,103.715096, 18.155031
8540.294686,-4908.721362,-503.925826, -9.320243,110.162288, 18.101237
8230.547366,-6843.906628,-505.658654,-17.373973,115.857596, 18.047669
7886.096339,-8734.996179,-507.446724,-25.235764,120.765061, 17.994321
7509.121085,-10574.882377,-509.285236,-32.861204,124.855738, 17.941183
7101.937444,-12356.708559,-511.169294,-40.207764,128.107836, 17.888243
6666.984137,-14073.894149,-513.093924,-47.235047,130.506793, 17.835488
6206.808867,-15720.158470,-515.054088,-53.904985,132.045290, 17.782900
5724.054043,-17289.543266,-517.044694,-60.182049,132.723213, 17.730460
5221.442154,-18776.433839,-519.060626,-66.033424,132.547541, 17.678147
4701.760971,-20175.578596,-521.096746,-71.429188,131.532190, 17.625940
4167.848633,-21482.107067,-523.147917,-76.342438,129.697800, 17.573813
3622.578642,-22691.546385,-525.209015,-80.749429,127.071464, 17.521741
3068.844824,-23799.835939,-527.274952,-84.629671,123.686412, 17.469698
2509.546491,-24803.340432,-529.340673,-87.966026,119.581649, 17.417655
1947.573671,-25698.861141,-531.401197,-90.744760,114.801548, 17.365586
1385.792619,-26483.645348,-533.451604,-92.955591,109.395410, 17.313461
827.031644,-27155.394008,-535.487066,-94.591718,103.416981, 17.261252
274.067239,-27712.267589,-537.502859,-95.649811, 96.923950, 17.208931
-270.389242,-28152.889959,-539.494369,-96.130002, 89.977411, 17.156469
-803.704433,-28476.350621,-541.457106,-96.035838, 82.641312, 17.103839
-1323.335380,-28682.204910,-543.386720,-95.374236, 74.981889, 17.051015
-1826.841104,-28770.472507,-545.279013,-94.155387, 67.067082, 16.997969
-2311.893727,-28741.634036,-547.129940,-92.392669, 58.965951, 16.944679
-2776.288752,-28596.625987,-548.935632,-90.102532, 50.748095, 16.891119
-3217.954611,-28336.833773,-550.692393,-87.304372, 42.483063, 16.837269
-3634.961438,-27964.083144,-552.396717,-84.020369, 34.239788, 16.783107
-4025.529040,-27480.629952,-554.045299,-80.275335, 26.086020, 16.728616
-4388.033887,-26889.148222,-555.635029,-76.096543, 18.087793, 16.673779
-4721.015399,-26192.716759,-557.163011,-71.513527, 10.308898, 16.618580
-5023.181157,-25394.804176,-558.626562,-66.557886,  2.810393, 16.563007
-5293.411300,-24499.252587,-560.023221,-61.263076, -4.349863, 16.507049
-5530.761985,-23510.259881,-561.350752,-55.664196,-11.117637, 16.450698
-5734.467842,-22432.360743,-562.607151,-49.797748,-17.442723, 16.393947
-5903.943592,-21270.406502,-563.790641,-43.701419,-23.279292, 16.336792
-6038.784651,-20029.543902,-564.899681,-37.413841,-28.586210, 16.279230
-6138.766867,-18715.192795,-565.932966,-30.974348,-33.327307, 16.221262
-6203.845315,-17333.022976,-566.889428,-24.422739,-37.471606, 16.162889
-6234.152203,-15888.930176,-567.768234,-17.799034,-40.993502, 16.104115
-6229.993953,-14389.011393,-568.568786,-11.143243,-43.872894, 16.044946
-6191.847357,-12839.539494,-569.290725, -4.495119,-46.095275, 15.985390
-6120.355027,-11246.937445,-569.933919,  2.106072,-47.651766, 15.925455
-6016.319960,-9617.752014,-570.498470,  8.621770,-48.539111, 15.865153
-5880.699397,-7958.627261,-570.984700, 15.014352,-48.759621, 15.804496
-5714.598049,-6276.277750,-571.393162, 21.247340,-48.321076, 15.743498
-5519.260561,-4577.461797,-571.724619, 27.285606,-47.236579, 15.682172
-5296.063438,-2868.954583,-571.980053, 33.095555,-45.524373, 15.620537
-5046.506356,-1157.521520,-572.160648, 38.645324,-43.207617, 15.558607
-4772.203014,550.108227,-572.267789, 43.904941,-40.314121, 15.496401
-4474.871474,2247.267886,-572.303057, 48.846478,-36.876051, 15.433937
-4156.324179,3927.378758,-572.268216, 53.444204,-32.929602, 15.371233
-3818.457481,5583.975400,-572.165211, 57.674709,-28.514638, 15.308309
-3463.241066,7210.730183,-571.996158, 61.517007,-23.674312, 15.245182
-3092.706980,8801.477131,-571.763330, 64.952652,-18.454663, 15.181871
-2708.938544,10350.234947,-571.469157, 67.965806,-12.904194, 15.118396
-2314.059209,11851.229174,-571.116210, 70.543303, -7.073436, 15.054774
-1910.221262,13298.913406,-570.707197, 72.674708, -1.014502, 14.991024
-1499.594538,14687.989369,-570.244942, 74.352339,  5.219365, 14.927161
-1084.355310,16013.426003,-569.732392, 75.571282, 11.574249, 14.863203
-666.675105,17270.477258,-569.172590, 76.329397, 17.996013, 14.799164
-248.709815,18454.698730,-568.568678, 76.627298, 24.430751, 14.735061
167.410988,19561.962960,-567.923871, 76.468307, 30.825228, 14.670904
579.594490,20588.473327,-567.241465, 75.858422, 37.127309, 14.606708
985.794753,21530.776699,-566.524810, 74.806243, 43.286374, 14.542483
1384.022485,22385.774441,-565.777307, 73.322887, 49.253715, 14.478238
1772.354320,23150.732168,-565.002396, 71.421907, 54.982904, 14.413982
2148.941714,23823.287799,-564.203546, 69.119177, 60.430152, 14.349722
2512.019359,24401.458292,-563.384241, 66.432769, 65.554624, 14.285463
2859.912994,24883.644647,-562.547972, 63.382832, 70.318735, 14.221209
3191.046733,25268.635541,-561.698223, 59.991442, 74.688418, 14.156964
3503.949744,25555.609304,-560.838468, 56.282448, 78.633348, 14.092728
3797.262357,25744.134430,-559.972153, 52.281322, 82.127138, 14.028501
4069.741471,25834.168441,-559.102691, 48.014981, 85.147504, 13.964281
4320.265386,25826.055384,-558.233446, 43.511609, 87.676388, 13.900067
4547.837864,25720.521741,-557.367732, 38.800489, 89.700042, 13.835853
4751.591572,25518.670855,-556.508798, 33.911809, 91.209083, 13.771634
4930.790830,25221.975938,-555.659821, 28.876466, 92.198508, 13.707404
5084.833564,24832.271728,-554.823893, 23.725892, 92.667665, 13.643155
5213.252724,24351.744710,-554.004023, 18.491852, 92.620206, 13.578879
5315.716818,23782.922069,-553.203118, 13.206249, 92.063985, 13.514566
5392.029891,23128.659379,-552.423983,  7.900943, 91.010938, 13.450205
5442.130744,22392.127088,-551.669310,  2.607559, 89.476924, 13.385787
5466.091528,21576.795863,-550.941672, -2.642706, 87.481535, 13.321299
5464.115624,20686.420838,-550.243521, -7.819248, 85.047886, 13.256729
5436.534970,19725.024942,-549.577173,-12.892236, 82.202369, 13.192065
5383.806690,18696.881151,-548.944817,-17.832792, 78.974386, 13.127294
5306.509150,17606.494065,-548.348490,-22.613131, 75.396071, 13.062404
5205.337547,16458.580521,-547.790100,-27.206733, 71.501975, 12.997381
5081.098775,15258.049640,-547.271391,-31.588468, 67.328756, 12.932212
4934.706010,14009.982244,-546.793969,-35.734742, 62.914839, 12.866885
4767.172642,12719.609658,-546.359273,-39.623619, 58.300078, 12.801387
4579.605898,11392.292195,-545.968597,-43.234925, 53.525402, 12.735706
4373.200025,10033.497182,-545.623070,-46.550351, 48.632467, 12.669829
4149.229099,8648.776809,-545.323662,-49.553549, 43.663300, 12.603747
3909.039615,7243.745713,-545.071184,-52.230190, 38.659945, 12.537448
3654.042681,5824.058545,-544.866286,-54.568048, 33.664119, 12.470922
3385.706072,4395.387536,-544.709457,-56.557030, 28.716870, 12.404160
3105.546062,2963.400073,-544.601024,-58.189218, 23.858251, 12.337153
2815.119156,1533.736554,-544.541162,-59.458902, 19.127001, 12.269894
2516.013672,111.988453,-544.529878,-60.362574, 14.560249, 12.202375
2209.841334,-1296.323264,-544.567035,-60.898933, 10.193224, 12.134591
1898.228759,-2685.769289,-544.652336,-61.068870,  6.059000, 12.066538
1582.809084,-4051.032641,-544.785338,-60.875428,  2.188248, 11.998210
1265.213613,-5386.928674,-544.965448,-60.323778, -1.390977, 11.929605
947.063587,-6688.424509,-545.191936,-59.421145, -4.653435, 11.860721
629.962100,-7950.657688,-545.463926,-58.176752, -7.576863, 11.791557
315.486255,-9168.954051,-545.780416,-56.601751,-10.142120, 11.722111
  5.179491,-10338.844709,-546.140267,-54.709118,-12.333295, 11.652386
-299.455772,-11456.082149,-546.542220,-52.513574,-14.137799, 11.582383
-596.965215,-12516.655300,-546.984899,-50.031465,-15.546410, 11.512104
-885.949313,-13516.803628,-547.466811,-47.280651,-16.553310, 11.441552
-1165.069796,-14453.030082,-547.986357,-44.280393,-17.156080, 11.370732
-1433.055513,-15322.112960,-548.541840,-41.051206,-17.355669, 11.299648
-1688.708112,-16121.116595,-549.131463,-37.614741,-17.156340, 11.228306
-1930.907056,-16847.400878,-549.753348,-33.993631,-16.565586, 11.156712
-2158.614384,-17498.629484,-550.405530,-30.211353,-15.594022, 11.084873
-2370.878798,-18072.776894,-551.085975,-26.292082,-14.255251, 11.012795
-2566.839453,-18568.134180,-551.792581,-22.260530,-12.565710, 10.940486
-2745.729074,-18983.313434,-552.523183,-18.141807,-10.544492, 10.867954
-2906.876653,-19317.250971,-553.275566,-13.961255, -8.213151, 10.795207
-3049.709611,-19569.209202,-554.047472, -9.744309, -5.595490, 10.722253
-3173.755420,-19738.777221,-554.836601, -5.516330, -2.717328, 10.649101
-3278.642705,-19825.870106,-555.640627, -1.302467,  0.393736, 10.575759
-3364.101788,-19830.726990,-556.457201,  2.872489,  3.708583, 10.502235
-3429.964789,-19753.907788,-557.283955,  6.984259,  7.196833, 10.428538
-3476.165122,-19596.288754,-558.118515, 11.009197, 10.827109, 10.354676
-3502.736552,-19359.056852,-558.958506, 14.924443, 14.567323, 10.280657
-3509.811718,-19043.702825,-559.801560, 18.708031, 18.384934, 10.206489
-3497.620174,-18652.013288,-560.645320, 22.339023, 22.247239, 10.132179
-3466.486017,-18186.061615,-561.487454, 25.797611, 26.121635, 10.057733
-3416.825000,-17648.197719,-562.325652, 29.065230, 29.975888,  9.983159
-3349.141214,-17041.037012,-563.157636, 32.124652, 33.778398,  9.908462
-3264.023495,-16367.448129,-563.981176, 34.960067, 37.498444,  9.833649
-3162.141244,-15630.540035,-564.794081, 37.557171, 41.106430,  9.758723
-3044.240075,-14833.648021,-565.594214, 39.903225, 44.574110,  9.683689
-2911.137037,-13980.319112,-566.379496, 41.987121, 47.874802,  9.608552
-2763.715569,-13074.296590,-567.147910, 43.799420, 50.983586,  9.533313
-2602.920146,-12119.504017,-567.897513, 45.332404, 53.877483,  9.457976
-2429.750758,-11120.028502,-568.626425, 46.580082, 56.535616,  9.382542
-2245.257112,-10080.103550,-569.332854, 47.538230, 58.939357,  9.307014
-2050.532660,-9004.091434,-570.015086, 48.204375, 61.072438,  9.231390
-1846.708563,-7896.465161,-570.671490, 48.577805, 62.921060,  9.155671
-1634.947425,-6761.790196,-571.300534, 48.659551, 64.473968,  9.079857
-1416.437053,-5604.705850,-571.900773, 48.452352, 65.722507,  9.003947
-1192.384076,-4429.906575,-572.470856, 47.960633, 66.660653,  8.927937
-964.007652,-3242.123229,-573.009540, 47.190450, 67.285031,  8.851827
-732.533096,-2046.104173,-573.515679, 46.149446, 67.594899,  8.775612
-499.185636,-846.596618,-573.988230, 44.846775, 67.592116,  8.699290
-265.184200,351.672057,-574.426258, 43.293047, 67.281094,  8.622857
-31.735307,1544.012637,-574.828932, 41.500231, 66.668721,  8.546308
199.972810,2725.792262,-575.195532, 39.481591, 65.764266,  8.469639
428.776032,3892.452108,-575.525446, 37.251569, 64.579274,  8.392845
653.539914,5039.524816,-575.818173, 34.825709, 63.127434,  8.315921
873.165032,6162.651341,-576.073317, 32.220531, 61.424434,  8.238861
1086.592126,7257.597265,-576.290593, 29.453447, 59.487807,  8.161660
1292.806890,8320.268539,-576.469825, 26.542621, 57.336757,  8.084311
1490.844551,9346.726544,-576.610944, 23.506879, 54.991976,  8.006810
1679.794117,10333.202426,-576.713989, 20.365569, 52.475451,  7.929149
1858.802259,11276.110705,-576.779102, 17.138458, 49.810270,  7.851324
2027.076940,12172.062009,-576.806527, 13.845593, 47.020405,  7.773329
2183.890548,13017.874991,-576.796609, 10.507198, 44.130513,  7.695157
2328.582831,13810.587353,-576.749794,  7.143535, 41.165715,  7.616804
2460.563315,14547.465917,-576.666619,  3.774797, 38.151384,  7.538264
2579.313384,15226.015671,-576.547719,  0.420979, 35.112934,  7.459532
2684.388033,15843.987938,-576.393815, -2.898228, 32.075607,  7.380603
2775.417110,16399.387446,-576.205716, -6.163564, 29.064269,  7.301473
2852.106259,16890.478332,-575.984314, -9.356289, 26.103212,  7.222137
2914.237395,17315.789147,-575.730579,-12.458314, 23.215958,  7.142591
2961.668873,17674.116718,-575.445556,-15.452273, 20.425078,  7.062833
2994.335167,17964.529042,-575.130359,-18.321646, 17.752022,  6.982858
3012.246272,18186.366970,-574.786174,-21.050819, 15.216953,  6.902664
3015.486641,18339.244899,-574.414242,-23.625192, 12.838605,  6.822250
3004.213795,18423.050321,-574.015867,-26.031239, 10.634147,  6.741613
2978.656603,18437.942372,-573.592405,-28.256576,  8.619060,  6.660751
2939.113222,18384.349290,-573.145256,-30.290033,  6.807043,  6.579664
2885.948649,18262.964779,-572.675868,-32.121692,  5.209916,  6.498351
2819.592038,18074.743499,-572.185725,-33.742947,  3.837555,  6.416812
2740.533700,17820.895432,-571.676344,-35.146525,  2.697839,  6.335048
2649.321850,17502.879350,-571.149270,-36.326528,  1.796611,  6.253059
2546.559046,17122.395313,-570.606073,-37.278441,  1.137662,  6.170847
2432.898506,16681.376336,-570.048340,-37.999157,  0.722729,  6.088412
2309.040062,16181.979157,-569.477671,-38.486962,  0.551506,  6.005756
2175.726095,15626.574206,-568.895673,-38.741549,  0.621684,  5.922883
2033.737217,15017.734750,-568.303961,-38.763991,  0.928995,  5.839793
1883.887795,14358.225450,-567.704144,-38.556720,  1.467271,  5.756491
1727.021419,13650.990111,-567.097824,-38.123508,  2.228531,  5.672979
1564.006284,12899.138910,-566.486595,-37.469415,  3.203067,  5.589259
1395.730421,12105.935002,-565.872032,-36.600760,  4.379551,  5.505337
1223.097011,11274.780659,-565.255692,-35.525055,  5.745152,  5.421214
1047.019594,10409.202944,-564.639107,-34.250960,  7.285664,  5.336896
868.417294,9512.838987,-564.023776,-32.788213,  8.985642,  5.252385
688.210144,8589.420950,-563.411172,-31.147556, 10.828546,  5.167685
507.314387,7642.760755,-562.802724,-29.340674, 12.796897,  5.082801
326.637902,6676.734526,-562.199823,-27.380096, 14.872432,  4.997736
147.075718,5695.266972,-561.603815,-25.279131, 17.036266,  4.912493
-30.494344,4702.315629,-561.016003,-23.051770, 19.269060,  4.827078
-205.215892,3701.855102,-560.437624,-20.712592, 21.551182,  4.741493
-376.258017,2697.861413,-559.869879,-18.276685, 23.862875,  4.655741
-542.819176,1694.296333,-559.313899,-15.759535, 26.184425,  4.569827
-704.130838,695.092005,-558.770758,-13.176941, 28.496317,  4.483754
-859.460998,-295.864317,-558.241471,-10.544919, 30.779401,  4.397524
-1008.117342,-1274.745165,-557.726984, -7.879590, 33.015036,  4.311140
-1149.450295,-2237.797436,-557.228179, -5.197105, 35.185241,  4.224605
-1282.855715,-3181.356628,-556.745869, -2.513529, 37.272836,  4.137921
-1407.777396,-4101.860519,-556.280799,  0.155240, 39.261566,  4.051090
-1523.709229,-4995.862481,-555.833637,  2.793565, 41.136227,  3.964114
-1630.197146,-5860.044120,-555.404984,  5.386169, 42.882773,  3.876995
-1726.840732,-6691.227444,-554.995369,  7.918208, 44.488415,  3.789734
-1813.294545,-7486.386279,-554.605241, 10.375366, 45.941714,  3.702331
-1889.269168,-8242.657091,-554.234980, 12.743926, 47.232646,  3.614787
-1954.531974,-8957.349076,-553.884891, 15.010845, 48.352674,  3.527103
-2008.907531,-9627.953464,-553.555203, 17.163832, 49.294788,  3.439279
-2052.277745,-10252.152097,-553.246072, 19.191401, 50.053550,  3.351314
-2084.581775,-10827.825165,-552.957583, 21.082934, 50.625105,  3.263209
-2105.815554,-11353.058137,-552.689742, 22.828745, 51.007202,  3.174961
-2116.031076,-11826.147767,-552.442491, 24.420109, 51.199182,  3.086571
-2115.335439,-12245.607361,-552.215694, 25.849312, 51.201959,  2.998038
-2103.889588,-12610.171011,-552.009154, 27.109693, 51.017995,  2.909359
-2081.906760,-12918.797019,-551.822595, 28.195655, 50.651255,  2.820533
-2049.650814,-13170.670433,-551.655687, 29.102698, 50.107150,  2.731558
-2007.434153,-13365.204596,-551.508030, 29.827436, 49.392478,  2.642433
-1955.615592,-13502.041870,-551.379160, 30.367594, 48.515340,  2.553154
-1894.597893,-13581.053402,-551.268556, 30.722014, 47.485060,  2.463721
-1824.825207,-13602.338034,-551.175638, 30.890656, 46.312086,  2.374131
-1746.780244,-13566.220291,-551.099774, 30.874577, 45.007893,  2.284381
-1660.981370,-13473.247496,-551.040276, 30.675911, 43.584870,  2.194468
-1567.979517,-13324.186134,-550.996405, 30.297860, 42.056203,  2.104391
-1468.354984,-13120.017192,-550.967381, 29.744643, 40.435760,  2.014146
-1362.714079,-12861.930871,-550.952378, 29.021472, 38.737960,  1.923732
-1251.685786,-12551.320445,-550.950525, 28.134510, 36.977654,  1.833145
-1135.918234,-12189.775299,-550.960919, 27.090818, 35.169988,  1.742384
-1016.075215,-11779.073391,-550.982618, 25.898306, 33.330280,  1.651446
-892.832585,-11321.172899,-551.014652, 24.565683, 31.473889,  1.560329
-766.874716,-10818.203293,-551.056022, 23.102387, 29.616086,  1.469029
-638.890922,-10272.455766,-551.105708, 21.518521, 27.771933,  1.377547
-509.571889,-9686.373110,-551.162661, 19.824800, 25.956161,  1.285879
-379.606195,-9062.539076,-551.225822, 18.032463, 24.183048,  1.194024
-249.676837,-8403.667250,-551.294117, 16.153211, 22.466316,  1.101980
-120.457850,-7712.589447,-551.366453, 14.199127, 20.819020,  1.009746
  7.389010,-6992.243882,-551.441742, 12.182610, 19.253451,  0.917320
133.217380,-6245.662764,-551.518883, 10.116286, 17.781050,  0.824702
256.399476,-5475.959828,-551.596778,  8.012935, 16.412319,  0.731890
376.328925,-4686.317559,-551.674330,  5.885422, 15.156754,  0.638885
492.423584,-3879.974147,-551.750450,  3.746605, 14.022777,  0.545684
604.128219,-3060.210490,-551.824055,  1.609270, 13.017684,  0.452289
710.916917,-2230.336957,-551.894080, -0.513949, 12.147602,  0.358699
812.295371,-1393.680245,-551.959466, -2.610635, 11.417453,  0.264914
907.802994,-553.570182,-552.019182, -4.668674, 10.830935,  0.170935
997.014789,286.673322,-552.072210, -6.676310, 10.390502,  0.076761
1079.543090,1123.753233,-552.117564, -8.622218, 10.097370, -0.017605
1155.038966,1954.408175,-552.154276,-10.495559,  9.951521, -0.112165
1223.193528,2775.424951,-552.181411,-12.286048,  9.951717, -0.206915
1283.739005,3583.650796,-552.198070,-13.984003, 10.095537, -0.301856
1336.449499,4376.005343,-552.203377,-15.580399, 10.379406, -0.396986
1381.141646,5149.492153,-552.196504,-17.066905, 10.798644, -0.492304
1417.674961,5901.209907,-552.176651,-18.435940, 11.347524, -0.587807
1445.952018,6628.363091,-552.143064,-19.680698, 12.019329, -0.683495
1465.918364,7328.272210,-552.095027,-20.795189, 12.806423, -0.779366
1477.562251,7998.383512,-552.031868,-21.774253, 13.700329, -0.875417
1480.914184,8636.278043,-551.952964,-22.613593, 14.691812, -0.971647
1476.046133,9239.680278,-551.857730,-23.309787, 15.770962, -1.068055
1463.070723,9806.465911,-551.745633,-23.860298, 16.927290, -1.164637
1442.140088,10334.669262,-551.616187,-24.263481, 18.149819, -1.261393
1413.444594,10822.489724,-551.468956,-24.518574, 19.427185, -1.358319
1377.211433,11268.297763,-551.303549,-24.625707, 20.747733, -1.455415
1333.702923,11670.640068,-551.119630,-24.585885, 22.099621, -1.552678
1283.214802,12028.243958,-550.916912,-24.400966, 23.470918, -1.650107
1226.074243,12340.021169,-550.695155,-24.073655, 24.849702, -1.747699
1162.637815,12605.070806,-550.454176,-23.607459, 26.224165, -1.845453
1093.289325,12822.681523,-550.193837,-23.006676, 27.582699, -1.943366
1018.437492,12992.332971,-549.914049,-22.276351, 28.913996, -2.041439
938.513555,13113.696552,-549.614779,-21.422241, 30.207136, -2.139668
853.968852,13186.635281,-549.296036,-20.450773, 31.451670, -2.238053
765.272218,13211.203022,-548.957887,-19.368992, 32.637696, -2.336591
672.907408,13187.642891,-548.600434,-18.184523, 33.755942, -2.435283
577.370476,13116.385017,-548.223835,-16.905514, 34.797824, -2.534127
479.167104,12998.043488,-547.828293,-15.540582, 35.755513, -2.633121
378.809883,12833.412668,-547.414047,-14.098757, 36.621983, -2.732266
276.815672,12623.462785,-546.981393,-12.589427, 37.391063, -2.831560
173.702922,12369.334937,-546.530654,-11.022269, 38.057474, -2.931003
 69.989029,12072.335372,-546.062203, -9.407201, 38.616857, -3.030594
-33.812276,11733.929215,-545.576447, -7.754313, 39.065796, -3.130333
-137.193499,11355.733551,-545.073830, -6.073809, 39.401837, -3.230220
-239.655797,10939.510122,-544.554833, -4.375941, 39.623491, -3.330254
-340.711462,10487.157291,-544.019967, -2.670953, 39.730229, -3.430437
-439.886220,10000.701678,-543.469775, -0.969017, 39.722480, -3.530767
-536.721446,9482.289335,-542.904829,  0.719830, 39.601608, -3.631245
-630.776303,8934.176402,-542.325728,  2.385733, 39.369888, -3.731871
-721.629698,8358.719594,-541.733095,  4.019085, 39.030478, -3.832647
-808.882224,7758.366174,-541.127578,  5.610577, 38.587372, -3.933571
-892.157845,7135.643721,-540.509838,  7.151252, 38.045364, -4.034646
-971.105531,6493.149711,-539.880560,  8.632552, 37.409993, -4.135870
-1045.400686,5833.540740,-539.240447, 10.046365, 36.687485, -4.237247
-1114.746451,5159.521799,-538.590207, 11.385067, 35.884693, -4.338774
-1178.874868,4473.835257,-537.930564, 12.641567, 35.009032, -4.440454
-1237.547843,3779.249825,-537.262251, 13.809337, 34.068411, -4.542288
-1290.557996,3078.549599,-536.586005, 14.882443, 33.071156, -4.644276
-1337.729235,2374.522944,-535.902568, 15.855583, 32.025940, -4.746418
-1378.917361,1669.951593,-535.212684, 16.724100, 30.941706, -4.848717
-1414.010287,967.599743,-534.517096, 17.484012, 29.827584, -4.951171
-1442.928231,270.203352,-533.816545, 18.132021, 28.692823, -5.053783
-1465.623689,-419.540359,-533.111765, 18.665529, 27.546700, -5.156553
-1482.081296,-1098.983252,-532.403486, 19.082645, 26.398457, -5.259481
-1492.317438,-1765.536315,-531.692424, 19.382187, 25.257214, -5.362568
-1496.379788,-2416.679319,-530.979286, 19.563683, 24.131902, -5.465815
-1494.346645,-3049.970341,-530.264771, 19.627362, 23.031188, -5.569222
-1486.326196,-3663.054664,-529.549554, 19.574155, 21.963414, -5.672789
-1472.455482,-4253.673471,-528.834299, 19.405668, 20.936521, -5.776518
-1452.899432,-4819.672017,-528.119646, 19.124173, 19.958004, -5.880407
-1427.849620,-5359.007297,-527.406220, 18.732587, 19.034847, -5.984458
-1397.522953,-5869.755354,-526.694622, 18.234445, 18.173472, -6.088670
-1362.160270,-6350.117879,-525.985429, 17.633876, 17.379701, -6.193044
-1322.024768,-6798.428476,-525.279188, 16.935567, 16.658711, -6.297578
-1277.400454,-7213.158188,-524.576432, 16.144733, 16.015004, -6.402274
-1228.590393,-7592.920562,-523.877655, 15.267079, 15.452377, -6.507131
-1175.914906,-7936.476080,-523.183325, 14.308761, 14.973904, -6.612148
-1119.709781,-8242.735980,-522.493884, 13.276343, 14.581917, -6.717324
-1060.324362,-8510.765456,-521.809738, 12.176757, 14.278000, -6.822660
-998.119585,-8739.786218,-521.131267, 11.017255, 14.062989, -6.928155
-933.466008,-8929.178493,-520.458813,  9.805364, 13.936971, -7.033808
-866.741836,-9078.482274,-519.792690,  8.548836, 13.899298, -7.139617
-798.330874,-9187.398058,-519.133175,  7.255604, 13.948601, -7.245583
-728.620558,-9255.786826,-518.480516,  5.933728, 14.082811, -7.351704
-657.999883,-9283.669508,-517.834920,  4.591351, 14.299190, -7.457979
-586.857502,-9271.225756,-517.196566,  3.236645, 14.594361, -7.564407
-515.579679,-9218.792085,-516.565597,  1.877766, 14.964341, -7.670987
-444.548430,-9126.859519,-515.942119,  0.522804, 15.404591, -7.777718
-374.139614,-8996.070493,-515.326207, -0.820263, 15.910054, -7.884597
-304.721097,-8827.215334,-514.717902, -2.143618, 16.475210, -7.991625
-236.651045,-8621.228073,-514.117207, -3.439644, 17.094122, -8.098800
-170.276197,-8379.181792,-513.524099, -4.700972, 17.760497, -8.206120
-105.930251,-8102.283436,-512.938514, -5.920519, 18.467740, -8.313584
-43.932391,-7791.868118,-512.360366, -7.091530, 19.209013, -8.421190
 15.414201,-7449.392990,-511.789527, -8.207607, 19.977295, -8.528938
 71.823612,-7076.430681,-511.225849, -9.262754, 20.765443, -8.636825
125.028458,-6674.662275,-510.669145,-10.251397, 21.566252, -8.744851
174.781008,-6245.870022,-510.119201,-11.168421, 22.372517, -8.853013
220.854148,-5791.929552,-509.575782,-12.009189, 23.177090, -8.961312
263.042289,-5314.801923,-509.038619,-12.769565, 23.972939, -9.069744
301.162104,-4816.525315,-508.507422,-13.445944, 24.753207, -9.178310
335.053217,-4299.206481,-507.981873,-14.035246, 25.511260, -9.287007
364.578659,-3765.012015,-507.461634,-14.534949, 26.240745, -9.395835
389.625305,-3216.159411,-506.946345,-14.943084, 26.935634, -9.504791
410.104115,-2654.908041,-506.435621,-15.258248, 27.590272, -9.613876
425.950289,-2083.549978,-505.929067,-15.479606, 28.199415, -9.723088
437.123242,-1504.400792,-505.426262,-15.606883, 28.758270, -9.832426
443.606582,-919.790286,-504.926773,-15.640368, 29.262527, -9.941889
445.407777,-332.053266,-504.430152,-15.580899, 29.708388,-10.051475
442.557876,256.479642,-503.935938,-15.429857, 30.092589,-10.161185
435.111063,843.491098,-503.443659,-15.189147, 30.412422,-10.271017
423.144013,1426.686047,-502.952832,-14.861191, 30.665749,-10.380969
406.755270,2003.800589,-502.462969,-14.448891, 30.851008,-10.491043
386.064451,2572.610584,-501.973570,-13.955623, 30.967222,-10.601236
361.211373,3130.940136,-501.484134,-13.385201, 31.013994,-10.711549
332.355089,3676.669754,-500.994156,-12.741856, 30.991508,-10.821980
299.672824,4207.744295,-500.503129,-12.030203, 30.900513,-10.932530
263.358842,4722.180537,-500.010542,-11.255210, 30.742313,-11.043196
223.623260,5218.074471,-499.515889,-10.422162, 30.518744,-11.153980
180.690776,5693.608219,-499.018668, -9.536639, 30.232155,-11.264880
134.799336,6147.056522,-498.518376, -8.604459, 29.885380,-11.375896
 86.198771,6576.792861,-498.014521, -7.631658, 29.481708,-11.487028
 35.149354,6981.295150,-497.506616, -6.624442, 29.024846,-11.598275
-18.079599,7359.150970,-496.994177, -5.589156, 28.518888,-11.709638
-73.211259,7709.062331,-496.476740, -4.532237, 27.968272,-11.821114
-129.962756,8029.849920,-495.953844, -3.460180, 27.377738,-11.932705
-188.046686,8320.456948,-495.425041, -2.379501, 26.752286,-12.044411
-247.172649,8579.952381,-494.889901, -1.296692, 26.097133,-12.156229
-307.048707,8807.533738,-494.348004, -0.218186, 25.417660,-12.268161
-367.382919,9002.529287,-493.798945,  0.849681, 24.719374,-12.380206
-427.884837,9164.399811,-493.242340,  1.900707, 24.007856,-12.492363
-488.266887,9292.739731,-492.677821,  2.928854, 23.288711,-12.604633
-548.245845,9387.277824,-492.105033,  3.928289, 22.567530,-12.717014
-607.544190,9447.877256,-491.523648,  4.893415, 21.849835,-12.829506
-665.891445,9474.535216,-490.933354,  5.818897, 21.141041,-12.942110
-723.025433,9467.382006,-490.333858,  6.699699, 20.446408,-13.054824
-778.693525,9426.679531,-489.724892,  7.531097, 19.771004,-13.167648
-832.653768,9352.819382,-489.106208,  8.308717, 19.119664,-13.280581
-884.675988,9246.320368,-488.477578,  9.028551, 18.496953,-13.393623
-934.542790,9107.825612,-487.838799,  9.686980, 17.907134,-13.506773
-982.050499,8938.099114,-487.189691, 10.280781, 17.354136,-13.620030
-1027.010030,8738.021939,-486.530099, 10.807157, 16.841527,-13.733395
-1069.247610,8508.587887,-485.859884, 11.263737, 16.372487,-13.846865
-1108.605500,8250.898863,-485.178935, 11.648590, 15.949792,-13.960440
-1144.942603,7966.159743,-484.487168, 11.960235, 15.575796,-14.074120
-1178.134871,7655.672945,-483.784518, 12.197631, 15.252413,-14.187903
-1208.075830,7320.832626,-483.070942, 12.360198, 14.981115,-14.301788
-1234.676824,6963.118577,-482.346422, 12.447802, 14.762920,-14.415775
-1257.867216,6584.089804,-481.610963, 12.460751, 14.598393,-14.529862
-1277.594577,6185.377856,-480.864591, 12.399795, 14.487647,-14.644048
-1293.824665,5768.679951,-480.107357, 12.266113, 14.430349,-14.758333
-1306.541390,5335.751775,-479.339333, 12.061304, 14.425732,-14.872714
-1315.746636,4888.400301,-478.560605, 11.787361, 14.472602,-14.987191
-1321.460056,4428.476214,-477.771292, 11.446673, 14.569357,-15.101762
-1323.718695,3957.866438,-476.971522, 11.041998, 14.714008,-15.216426
-1322.576637,3478.486470,-476.161447, 10.576434, 14.904196,-15.331182
-1318.104441,2992.272620,-475.341238, 10.053414, 15.137223,-15.446029
-1310.388645,2501.174319,-474.511084,  9.476668, 15.410074,-15.560964
-1299.531057,2007.146331,-473.671188,  8.850208, 15.719450,-15.675987
-1285.648098,1512.141116,-472.821771,  8.178287, 16.061797,-15.791095
-1268.869982,1018.101147,-471.963073,  7.465388, 16.433340,-15.906289
-1249.339894,526.951370,-471.095339,  6.716187, 16.830116,-16.021565
-1227.213125, 40.591786,-470.218837,  5.935514, 17.248014,-16.136923
-1202.656088,-439.109844,-469.333844,  5.128343, 17.682802,-16.252361
-1175.845329,-910.325060,-468.440644,  4.299745, 18.130176,-16.367878
-1146.966566,-1371.271635,-467.539540,  3.454860, 18.585784,-16.483472
-1116.213567,-1820.220186,-466.630837,  2.598872, 19.045272,-16.599141
-1083.787086,-2255.500644,-465.714853,  1.736967, 19.504315,-16.714883
-1049.893770,-2675.508347,-464.791909,  0.874315, 19.958655,-16.830699
-1014.745013,-3078.709886,-463.862339,  0.016033, 20.404131,-16.946585
-978.555852,-3463.648575,-462.926473, -0.832852, 20.836718,-17.062540
-941.543816,-3828.949699,-461.984652, -1.667416, 21.252552,-17.178563
-903.927799,-4173.325250,-461.037220, -2.482875, 21.647964,-17.294653
-865.926928,-4495.578415,-460.084518, -3.274619, 22.019507,-17.410807
-827.759460,-4794.607603,-459.126892, -4.038217, 22.363978,-17.527025
-789.641692,-5069.410103,-458.164688, -4.769467, 22.678445,-17.643304
-751.786865,-5319.085298,-457.198245, -5.464394, 22.960264,-17.759644
-714.404154,-5542.837506,-456.227907, -6.119285, 23.207097,-17.876043
-677.697676,-5739.978354,-455.254015, -6.730711, 23.416931,-17.992499
-641.865465,-5909.928692,-454.276897, -7.295528, 23.588084,-18.109011
-607.098618,-6052.220131,-453.296885, -7.810914, 23.719218,-18.225579
-573.580335,-6166.496064,-452.314299, -8.274362, 23.809343,-18.342199
-541.485191,-6252.512307,-451.329458, -8.683700, 23.857822,-18.458872
-510.978288,-6310.137257,-450.342671, -9.037110, 23.864370,-18.575595
-482.214582,-6339.351562,-449.354232, -9.333113, 23.829051,-18.692368
-455.338195,-6340.247502,-448.364434, -9.570596, 23.752273,-18.809188
-430.481879,-6313.027754,-447.373557, -9.748797, 23.634780,-18.926056
-407.766438,-6258.003845,-446.381869, -9.867321, 23.477640,-19.042969
-387.300281,-6175.594210,-445.389627, -9.926122, 23.282232,-19.159926
-369.179076,-6066.321710,-444.397080, -9.925518, 23.050230,-19.276926
-353.485369,-5930.810897,-443.404454, -9.866166, 22.783587,-19.393969
-340.288395,-5769.784856,-442.411976, -9.749066, 22.484511,-19.511051
-329.643826,-5584.061665,-441.419845, -9.575554, 22.155445,-19.628173
-321.593729,-5374.550468,-440.428258, -9.347276, 21.799043,-19.745333
-316.166533,-5142.247349,-439.437390, -9.066196, 21.418150,-19.862529
-313.376986,-4888.230769,-438.447402, -8.734555, 21.015765,-19.979761
-313.226341,-4613.656753,-437.458443, -8.354881, 20.595027,-20.097028
-315.702465,-4319.753799,-436.470643, -7.929949, 20.159174,-20.214327
-320.780097,-4007.817595,-435.484119, -7.462778, 19.711525,-20.331658
-328.421152,-3679.205431,-434.498973, -6.956597, 19.255449,-20.449020
-338.575076,-3335.330441,-433.515291, -6.414839, 18.794333,-20.566411
-351.179228,-2977.655656,-432.533137, -5.841098, 18.331558,-20.683830
-366.159408,-2607.687985,-431.552566, -5.239131, 17.870467,-20.801276
-383.430330,-2226.971881,-430.573619, -4.612808, 17.414342,-20.918747
-402.896220,-1837.083121,-429.596314, -3.966107, 16.966376,-21.036242
-424.451472,-1439.622377,-428.620658, -3.303086, 16.529650,-21.153760
-447.981202,-1036.208710,-427.646641, -2.627844, 16.107103,-21.271299
-473.362091,-628.473193,-426.674242, -1.944519, 15.701519,-21.388858
-500.462996,-218.052329,-425.703421, -1.257241, 15.315497,-21.506435
-529.145764,193.418342,-424.734121, -0.570125, 14.951441,-21.624029
-559.266035,604.310674,-423.766280,  0.112767, 14.611536,-21.741639
-590.674033,1013.010220,-422.799813,  0.787435, 14.297737,-21.859263
-623.215365,1417.922522,-421.834627,  1.449980, 14.011756,-21.976899
-656.731941,1817.479164,-420.870613,  2.096613, 13.755048,-22.094546
-691.062737,2210.143760,-419.907654,  2.723680, 13.528807,-22.212202
-726.044684,2594.417759,-418.945616,  3.327689, 13.333957,-22.329866
-761.513520,2968.846054,-417.984359,  3.905316, 13.171153,-22.447536
-797.304621,3332.022372,-417.023730,  4.453438, 13.040771,-22.565211
-833.253876,3682.594456,-416.063562,  4.969134, 12.942917,-22.682888
-869.198463,4019.268970,-415.103682,  5.449709, 12.877427,-22.800566
-904.977665,4340.816161,-414.143913,  5.892710, 12.843872,-22.918243
-940.433683,4646.074251,-413.184063,  6.295926, 12.841563,-23.035918
-975.412369,4933.953482,-412.223937,  6.657416, 12.869568,-23.153588
-1009.763972,5203.439912,-411.263327,  6.975498, 12.926714,-23.271252
-1043.343837,5453.598812,-410.302027,  7.248768, 13.011607,-23.388908
-1076.013074,5683.577841,-409.339822,  7.476109, 13.122643,-23.506554
-1107.639145,5892.609727,-408.376491,  7.656679, 13.258025,-23.624188
-1138.096528,6080.014756,-407.411810,  7.789927, 13.415783,-23.741809
-1167.267201,6245.202736,-406.445556,  7.875590, 13.593789,-23.859414
-1195.041151,6387.674754,-405.477497,  7.913686, 13.789779,-23.977001
-1221.316854,6507.024437,-404.507404,  7.904514, 14.001374,-24.094569
-1246.001664,6602.938942,-403.535046,  7.848654, 14.226100,-24.212115
-1269.012133,6675.199463,-402.560192,  7.746953, 14.461411,-24.329638
-1290.274374,6723.681451,-401.582609,  7.600516, 14.704711,-24.447135
-1309.724275,6748.354481,-400.602070,  7.410711, 14.953372,-24.564605
-1327.307693,6749.281626,-399.618345,  7.179138, 15.204765,-24.682045
-1342.980620,6726.618611,-398.631209,  6.907627, 15.456273,-24.799454
-1356.709264,6680.612534,-397.640440,  6.598233, 15.705316,-24.916829
-1368.470084,6611.600240,-396.645821,  6.253203, 15.949373,-25.034169
-1378.249773,6520.006371,-395.647139,  5.874972, 16.186000,-25.151471
-1386.045204,6406.341100,-394.644183,  5.466151, 16.412849,-25.268734
-1391.863318,6271.197495,-393.636751,  5.029495, 16.627686,-25.385954
-1395.720955,6115.248641,-392.624645,  4.567898, 16.828412,-25.503131
-1397.644607,5939.244403,-391.607676,  4.084365, 17.013070,-25.620263
-1397.670230,5744.007968,-390.585664,  3.582007, 17.179867,-25.737346
-1395.842859,5530.432107,-389.558427,  3.064002, 17.327181,-25.854380
-1392.216328,5299.475163,-388.525804,  2.533590, 17.453576,-25.971362
-1386.852845,5052.156808,-387.487633,  1.994046, 17.557809,-26.088290
-1379.822596,4789.553679,-386.443763,  1.448669, 17.638837,-26.205162
-1371.203258,4512.794696,-385.394059,  0.900749, 17.695825,-26.321976
-1361.079529,4223.056294,-384.338383,  0.353560, 17.728146,-26.438730
-1349.542611,3921.557455,-383.276618, -0.189672, 17.735386,-26.555422
-1336.689626,3609.554648,-382.208654, -0.725769, 17.717347,-26.672050
-1322.623124,3288.336631,-381.134384, -1.251640, 17.674038,-26.788612
-1307.450418,2959.219160,-380.053723, -1.764284, 17.605681,-26.905106
-1291.283018,2623.539652,-378.966592, -2.260814, 17.512696,-27.021530
-1274.236011,2282.651774,-377.872915, -2.738470, 17.395705,-27.137882
-1256.427410,1937.920033,-376.772641, -3.194629, 17.255516,-27.254160
-1237.977554,1590.714337,-375.665718, -3.626832, 17.093119,-27.370361
-1219.008433,1242.404619,-374.552109, -4.032784, 16.909671,-27.486485
-1199.643088,894.355396,-373.431791, -4.410374, 16.706486,-27.602528
-1180.004920,547.920527,-372.304746, -4.757682, 16.485024,-27.718490
-1160.217118,204.437953,-371.170973, -5.072982, 16.246872,-27.834367
-1140.402008,-134.775467,-370.030475, -5.354765, 15.993733,-27.950158
-1120.680445,-468.428907,-368.883269, -5.601733, 15.727411,-28.065861
-1101.171236,-795.262518,-367.729381, -5.812810, 15.449790,-28.181474
-1081.990565,-1114.052106,-366.568852, -5.987143, 15.162820,-28.296995
-1063.251386,-1423.613699,-365.401723, -6.124109, 14.868504,-28.412421
-1045.062994,-1722.807890,-364.228052, -6.223306, 14.568871,-28.527751
-1027.530398,-2010.544031,-363.047907, -6.284567, 14.265968,-28.642983
-1010.753975,-2285.784111,-361.861361, -6.307949, 13.961840,-28.758114
-994.828890,-2547.546489,-360.668497, -6.293732, 13.658511,-28.873143
-979.844794,-2794.909334,-359.469406, -6.242417, 13.357971,-28.988067
-965.885373,-3027.013838,-358.264186, -6.154717, 13.062157,-29.102884
-953.027998,-3243.067088,-357.052949, -6.031555, 12.772940,-29.217593
-941.343493,-3442.344797,-355.835803, -5.874054, 12.492108,-29.332190
-930.895767,-3624.193545,-354.612871, -5.683522, 12.221358,-29.446675
-921.741603,-3788.032959,-353.384281, -5.461453, 11.962276,-29.561044
-913.930524,-3933.357380,-352.150164, -5.209513, 11.716330,-29.675296
-907.504560,-4059.737389,-350.910661, -4.929521, 11.484860,-29.789428
-902.498149,-4166.820880,-349.665915, -4.623447, 11.269064,-29.903438
-898.938104,-4254.333970,-348.416069, -4.293391, 11.069999,-30.017325
-896.843516,-4322.081481,-347.161279, -3.941571, 10.888565,-30.131085
-896.225797,-4369.947143,-345.901700, -3.570310, 10.725505,-30.244717
-897.088713,-4397.893526,-344.637487, -3.182022, 10.581400,-30.358218
-899.428436,-4405.961570,-343.368802, -2.779194, 10.456665,-30.471586
-903.233714,-4394.269958,-342.095808, -2.364371, 10.351554,-30.584819
-908.485955,-4363.014041,-340.818669, -1.940140, 10.266150,-30.697914
-915.159474,-4312.464542,-339.537547, -1.509118, 10.200377,-30.810870
-923.221690,-4242.965951,-338.252610, -1.073931, 10.153997,-30.923683
-932.633394,-4154.934704,-336.964024, -0.637200, 10.126615,-31.036351
-943.348978,-4048.856966,-335.671951, -0.201530, 10.117687,-31.148872
-955.316841,-3925.286310,-334.376557,  0.230515, 10.126524,-31.261244
-968.479633,-3784.841017,-333.078005,  0.656415, 10.152301,-31.373465
-982.774687,-3628.201224,-331.776454,  1.073716, 10.194064,-31.485531
-998.134364,-3456.105782,-330.472062,  1.480048, 10.250746,-31.597440
-1014.486484,-3269.349003,-329.164988,  1.873123, 10.321167,-31.709191
-1031.754724,-3068.777097,-327.855380,  2.250764, 10.404056,-31.820780
-1049.859083,-2855.284536,-326.543391,  2.610902, 10.498054,-31.932205
-1068.716308,-2629.810165,-325.229162,  2.951601, 10.601734,-32.043464
-1088.240396,-2393.333226,-323.912839,  3.271059, 10.713608,-32.154554
-1108.342997,-2146.869239,-322.594555,  3.567620, 10.832141,-32.265472
-1128.933972,-1891.465756,-321.274441,  3.839782, 10.955769,-32.376217
-1149.921803,-1628.198028,-319.952625,  4.086204, 11.082908,-32.486786
-1171.214127,-1358.164575,-318.629227,  4.305712, 11.211967,-32.597175
-1192.718164,-1082.482768,-317.304360,  4.497304, 11.341365,-32.707384
-1214.341215,-802.284244,-315.978136,  4.660154, 11.469538,-32.817408
-1235.991153,-518.710431,-314.650653,  4.793618, 11.594958,-32.927246
-1257.576844,-232.907940,-313.322013,  4.897229, 11.716143,-33.036895
-1279.008601, 53.975910,-311.992301,  4.970705, 11.831664,-33.146353
-1300.198621,340.797612,-310.661600,  5.013945, 11.940164,-33.255617
-1321.061436,626.421960,-309.329988,  5.027026, 12.040362,-33.364684
-1341.514276,909.726407,-307.997531,  5.010205, 12.131064,-33.473553
-1361.477441,1189.605378,-306.664292,  4.963912, 12.211173,-33.582220
-1380.874722,1464.974508,-305.330324,  4.888748, 12.279696,-33.690683
-1399.633672,1734.774746,-303.995676,  4.785478, 12.335749,-33.798939
-1417.685995,1997.976283,-302.660388,  4.655021, 12.378565,-33.906986
-1434.967774,2253.582439,-301.324491,  4.498453, 12.407499,-34.014822
-1451.419756,2500.633329,-299.988011,  4.316987, 12.422029,-34.122443
-1466.987631,2738.209309,-298.650965,  4.111975, 12.421759,-34.229848
-1481.622179,2965.434387,-297.313367,  3.884890, 12.406422,-34.337033
-1495.279506,3181.479288,-295.975218,  3.637320, 12.375881,-34.443996
-1507.921141,3385.564404,-294.636515,  3.370959, 12.330125,-34.550735
-1519.514229,3576.962480,-293.297251,  3.087591, 12.269271,-34.657248
-1530.031580,3755.001111,-291.957409,  2.789080, 12.193559,-34.763531
-1539.451743,3919.064984,-290.616965,  2.477360, 12.103345,-34.869582
-1547.759005,4068.597921,-289.275889,  2.154425, 11.999105,-34.975398
-1554.943488,4203.104576,-287.934147,  1.822308, 11.881423,-35.080978
-1561.001023,4322.152013,-286.591700,  1.483079, 11.750984,-35.186318
-1565.933138,4425.370922,-285.248499,  1.138823, 11.608569,-35.291416
-1569.747016,4512.456647,-283.904490,  0.791637, 11.455051,-35.396269
-1572.455299,4583.169911,-282.559619,  0.443603, 11.291378,-35.500876
-1574.076042,4637.337280,-281.213822,  0.096793, 11.118571,-35.605232
-1574.632461,4674.851404,-279.867034, -0.246753, 10.937711,-35.709337
-1574.152860,4695.670945,-278.519183, -0.585038, 10.749931,-35.813187
-1572.670303,4699.820301,-277.170192, -0.916116, 10.556404,-35.916779
-1570.222478,4687.389043,-275.819983, -1.238110, 10.358336,-36.020112
-1566.851388,4658.531072,-274.468476, -1.549213, 10.156952,-36.123183
-1562.603119,4613.463605,-273.115583, -1.847704,  9.953490,-36.225988
-1557.527529,4552.465843,-271.761218, -2.131956,  9.749183,-36.328527
-1551.677945,4475.877440,-270.405288, -2.400441,  9.545258,-36.430795
-1545.110900,4384.096801,-269.047703, -2.651748,  9.342920,-36.532791
-1537.885718,4277.579012,-267.688368, -2.884579,  9.143344,-36.634512
-1530.064264,4156.833728,-266.327189, -3.097758,  8.947666,-36.735955
-1521.710511,4022.422763,-264.964064, -3.290240,  8.756974,-36.837118
-1512.890287,3874.957520,-263.598902, -3.461118,  8.572301,-36.937999
-1503.670822,3715.096256,-262.231598, -3.609618,  8.394614,-37.038593
-1494.120471,3543.541160,-260.862062, -3.735108,  8.224810,-37.138901
-1484.308296,3361.035260,-259.490192, -3.837098,  8.063709,-37.238917
-1474.303731,3168.359288,-258.115889, -3.915248,  7.912047,-37.338641
-1464.176210,2966.328311,-256.739061, -3.969357,  7.770474,-37.438069
-1453.994855,2755.788261,-255.359613, -3.999371,  7.639546,-37.537199
-1443.828070,2537.612491,-253.977448, -4.005376,  7.519725,-37.636028
-1433.743263,2312.698056,-252.592477, -3.987607,  7.411375,-37.734554
-1423.806479,2081.962103,-251.204610, -3.946431,  7.314761,-37.832773
-1414.082075,1846.338107,-249.813759, -3.882347,  7.230048,-37.930684
-1404.632475,1606.772061,-248.419842, -3.795992,  7.157300,-38.028284
-1395.517804,1364.218749,-247.022774, -3.688122,  7.096484,-38.125570
-1386.795663,1119.637881,-245.622477, -3.559612,  7.047470,-38.222539
-1378.520849,873.990328,-244.218879, -3.411454,  7.010029,-38.319190
-1370.745131,628.234317,-242.811905, -3.244741,  6.983847,-38.415518
-1363.517006,383.321729,-241.401488, -3.060663,  6.968517,-38.511522
-1356.881499,140.194366,-239.987567, -2.860506,  6.963552,-38.607199
-1350.879998,-100.219606,-238.570079, -2.645630,  6.968386,-38.702546
-1345.550056,-337.009286,-237.148970, -2.417469,  6.982381,-38.797562
-1340.925301,-569.284413,-235.724187, -2.177523,  7.004834,-38.892242
-1337.035256,-796.178732,-234.295686, -1.927342,  7.034984,-38.986584
-1333.905310,-1016.853244,-232.863424, -1.668517,  7.072016,-39.080587
-1331.556574,-1230.499294,-231.427365, -1.402681,  7.115073,-39.174246
-1330.005864,-1436.341515,-229.987477, -1.131483,  7.163259,-39.267560
-1329.265685,-1633.640644,-228.543733, -0.856584,  7.215652,-39.360526
-1329.344193,-1821.696133,-227.096109, -0.579659,  7.271307,-39.453141
-1330.245217,-1999.848706,-225.644588, -0.302365,  7.329268,-39.545403
-1331.968313,-2167.482554,-224.189161, -0.026347,  7.388574,-39.637308
-1334.508800,-2324.027519,-222.729818,  0.246772,  7.448267,-39.728855
-1337.857848,-2468.960933,-221.266558,  0.515411,  7.507403,-39.820040
-1342.002566,-2601.809431,-219.799384,  0.778025,  7.565053,-39.910862
-1346.926142,-2722.150371,-218.328305,  1.033128,  7.620317,-40.001317
-1352.607930,-2829.613162,-216.853334,  1.279296,  7.672328,-40.091402
-1359.023685,-2923.880383,-215.374484,  1.515166,  7.720259,-40.181116
-1366.145629,-3004.688582,-213.891786,  1.739460,  7.763329,-40.270455
-1373.942729,-3071.828999,-212.405261,  1.950973,  7.800809,-40.359417
-1382.380835,-3125.147963,-210.914943,  2.148599,  7.832028,-40.447999
-1391.422931,-3164.547119,-209.420867,  2.331321,  7.856378,-40.536199
-1401.029332,-3189.983396,-207.923077,  2.498220,  7.873314,-40.624014
-1411.157921,-3201.468816,-206.421615,  2.648487,  7.882364,-40.711441
-1421.764403,-3199.070039,-204.916531,  2.781411,  7.883127,-40.798479
-1432.802571,-3182.907744,-203.407877,  2.896403,  7.875278,-40.885124
-1444.224538,-3153.155749,-201.895710,  2.992976,  7.858566,-40.971373
-1455.980988,-3110.039933,-200.380092,  3.070765,  7.832820,-41.057225
-1468.021494,-3053.837040,-198.861084,  3.129515,  7.797947,-41.142676
-1480.294749,-2984.873199,-197.338754,  3.169089,  7.753929,-41.227725
-1492.748823,-2903.522298,-195.813170,  3.189469,  7.700825,-41.312367
-1505.331496,-2810.204158,-194.284407,  3.190741,  7.638771,-41.396602
-1517.990453,-2705.382653,-192.752537,  3.173113,  7.567973,-41.480427
-1530.673586,-2589.563443,-191.217639,  3.136895,  7.488708,-41.563838
-1543.329261,-2463.291812,-189.679791,  3.082512,  7.401320,-41.646834
-1555.906556,-2327.150217,-188.139078,  3.010481,  7.306214,-41.729411
-1568.355505,-2181.755688,-186.595576,  2.921428,  7.203856,-41.811568
-1580.627363,-2027.757232,-185.049376,  2.816065,  7.094764,-41.893303
-1592.674799,-1865.833058,-183.500560,  2.695201,  6.979504,-41.974611
-1604.452167,-1696.687650,-181.949214,  2.559717,  6.858688,-42.055491
-1615.915652,-1521.048894,-180.395427,  2.410582,  6.732965,-42.135941
-1627.023541,-1339.665012,-178.839286,  2.248825,  6.603014,-42.215958
-1637.736324,-1153.301480,-177.280878,  2.075547,  6.469541,-42.295540
-1648.016934,-962.737941,-175.720293,  1.891899,  6.333271,-42.374684
-1657.830879,-768.765040,-174.157618,  1.699085,  6.194944,-42.453387
-1667.146374,-572.181205,-172.592937,  1.498344,  6.055306,-42.531648
-1675.934450,-373.789502,-171.026341,  1.290957,  5.915101,-42.609464
-1684.169140,-174.394435,-169.457915,  1.078222,  5.775073,-42.686832
-1691.827457, 25.201201,-167.887746,  0.861456,  5.635950,-42.763750
-1698.889577,224.199471,-166.315913,  0.641991,  5.498445,-42.840216
-1705.338827,421.810419,-164.742503,  0.421151,  5.363247,-42.916228
-1711.161761,617.255037,-163.167593,  0.200263,  5.231018,-42.991782
-1716.348206,809.768338,-161.591266, -0.019369,  5.102384,-43.066876
-1720.891186,998.602172,-160.013596, -0.236454,  4.977936,-43.141509
-1724.787039,1183.028092,-158.434660, -0.449740,  4.858222,-43.215678
-1728.035293,1362.340058,-156.854528, -0.658002,  4.743742,-43.289380
-1730.638642,1535.857035,-155.273275, -0.860065,  4.634948,-43.362613
-1732.602957,1702.925510,-153.690966, -1.054804,  4.532237,-43.435375
-1733.937141,1862.921864,-152.107667, -1.241143,  4.435956,-43.507664
-1734.653082,2015.254558,-150.523438, -1.418075,  4.346388,-43.579477
-1734.765513,2159.366282,-148.938344, -1.584654,  4.263762,-43.650811
-1734.291992,2294.735868,-147.352438, -1.740012,  4.188245,-43.721665
-1733.252649,2420.880112,-145.765773, -1.883349,  4.119944,-43.792037
-1731.673284,2537.346547,-144.176418, -2.013951,  4.058790,-43.861999
-1729.581906,2643.723961,-142.582485, -2.131190,  4.004656,-43.931623
-1727.008500,2739.643736,-140.982144, -2.234514,  3.957363,-44.000973
-1723.984929,2824.780965,-139.373623, -2.323470,  3.916677,-44.070111
-1720.544701,2898.855440,-137.755216, -2.397685,  3.882317,-44.139091
-1716.722796,2961.632428,-136.125288, -2.456887,  3.853955,-44.207963
-1712.555457,3012.923304,-134.482282, -2.500892,  3.831219,-44.276770
-1708.079991,3052.585892,-132.824715, -2.529605,  3.813699,-44.345550
-1703.334590,3080.524807,-131.151196, -2.543025,  3.800949,-44.414333
-1698.358100,3096.691425,-129.460418, -2.541246,  3.792493,-44.483142
-1693.189827,3101.083752,-127.751163, -2.524442,  3.787828,-44.551995
-1687.869313,3093.746124,-126.022319, -2.492880,  3.786430,-44.620901
-1682.436173,3074.768745,-124.272861, -2.446913,  3.787755,-44.689863
-1676.929847,3044.286908,-122.501871, -2.386967,  3.791251,-44.758877
-1671.389447,3002.480274,-120.708535, -2.313557,  3.796354,-44.827932
-1665.853510,2949.571767,-118.892140, -2.227262,  3.802500,-44.897012
-1660.359873,2885.826440,-117.052084, -2.128738,  3.809126,-44.966093
-1654.945461,2811.550108,-115.187868, -2.018704,  3.815674,-45.035146
-1649.646087,2727.087908,-113.299110, -1.897935,  3.821600,-45.104136
-1644.496318,2632.822651,-111.385527, -1.767268,  3.826374,-45.173022
-1639.529326,2529.173028,-109.446951, -1.627587,  3.829484,-45.241759
-1634.776700,2416.591769,-107.483326, -1.479815,  3.830446,-45.310297
-1630.268343,2295.563581,-105.494696, -1.324917,  3.828799,-45.378584
-1626.032334,2166.603071,-103.481219, -1.163890,  3.824114,-45.446561
-1622.094768,2030.252472,-101.443161, -0.997757,  3.815998,-45.514169
-1618.479747,1887.079372,-99.380889, -0.827553,  3.804091,-45.581345
-1615.209169,1737.674264,-97.294871, -0.654334,  3.788076,-45.648025
-1612.302724,1582.648106,-95.185681, -0.479159,  3.767673,-45.714143
-1609.777831,1422.629759,-93.053990, -0.303084,  3.742650,-45.779632
-1607.649510,1258.263423,-90.900565, -0.127162,  3.712814,-45.844425
-1605.930394,1090.205968,-88.726261,  0.047564,  3.678022,-45.908456
-1604.630678,919.124306,-86.532030,  0.220078,  3.638174,-45.971660
-1603.758139,745.692682,-84.318903,  0.389381,  3.593216,-46.033970
-1603.318037,570.590010,-82.087999,  0.554506,  3.543140,-46.095326
-1603.313232,394.497125,-79.840512,  0.714520,  3.487986,-46.155665
-1603.744136,218.094168,-77.577710,  0.868537,  3.427835,-46.214930
-1604.608727, 42.057849,-75.300933,  1.015708,  3.362811,-46.273067
-1605.902668,-132.941093,-73.011582,  1.155237,  3.293081,-46.330024
-1607.619300,-306.240548,-70.711125,  1.286386,  3.218850,-46.385754
-1609.749702,-477.189546,-68.401077,  1.408470,  3.140363,-46.440213
-1612.282815,-645.150728,-66.083014,  1.520865,  3.057895,-46.493362
-1615.205496,-809.502735,-63.758548,  1.623013,  2.971758,-46.545167
-1618.502616,-969.642564,-61.429342,  1.714425,  2.882288,-46.595599
-1622.157141,-1124.987794,-59.097084,  1.794678,  2.789849,-46.644632
-1626.150310,-1274.978668,-56.763497,  1.863419,  2.694828,-46.692248
-1630.461684,-1419.080226,-54.430329,  1.920368,  2.597630,-46.738431
-1635.069325,-1556.784153,-52.099348,  1.965321,  2.498675,-46.783174
-1639.949855,-1687.610618,-49.772336,  1.998143,  2.398394,-46.826470
-1645.078726,-1811.109917,-47.451081,  2.018774,  2.297226,-46.868323
-1650.430200,-1926.864068,-45.137378,  2.027225,  2.195617,-46.908737
-1655.977625,-2034.488238,-42.833017,  2.023584,  2.094008,-46.947724
-1661.693524,-2133.631933,-40.539786,  2.008005,  1.992840,-46.985298
-1667.549764,-2223.980221,-38.259453,  1.980712,  1.892549,-47.021482
-1673.517686,-2305.254694,-35.993775,  1.941996,  1.793555,-47.056298
-1679.568288,-2377.214262,-33.744484,  1.892211,  1.696270,-47.089774
-1685.672378,-2439.655879,-31.513288,  1.831778,  1.601084,-47.121945
-1691.800689,-2492.415060,-29.301859,  1.761170,  1.508372,-47.152844
-1697.924083,-2535.366243,-27.111832,  1.680919,  1.418483,-47.182512
-1704.013652,-2568.423031,-24.944805,  1.591605,  1.331741,-47.210989
-1710.040908,-2591.538227,-22.802328,  1.493855,  1.248445,-47.238319
-1715.977860,-2604.703761,-20.685903,  1.388346,  1.168860,-47.264550
-1721.797245,-2607.950452,-18.596974,  1.275786,  1.093224,-47.289728
-1727.472564,-2601.347617,-16.536935,  1.156919,  1.021739,-47.313903
-1732.978259,-2585.002476,-14.507113,  1.032519,  0.954574,-47.337125
-1738.289848,-2559.059554,-12.508775,  0.903381,  0.891862,-47.359444
-1743.383973,-2523.699798,-10.543114,  0.770326,  0.833703,-47.380913
-1748.238598,-2479.139588, -8.611260,  0.634183,  0.780157,-47.401582
-1752.832996,-2425.629716, -6.714266,  0.495793,  0.731252,-47.421501
-1757.147935,-2363.454104, -4.853111,  0.355998,  0.686977,-47.440721
-1761.165729,-2292.928475, -3.028695,  0.215641,  0.647288,-47.459289
-1764.870273,-2214.398881, -1.241835,  0.075561,  0.612105,-47.477252
-1768.247141,-2128.240172,  0.506729, -0.063415,  0.581316,-47.494657
-1771.283671,-2034.854271,  2.216340, -0.200479,  0.554778,-47.511546
-1773.968926,-1934.668456,  3.886431, -0.334840,  0.532314,-47.527961
-1776.293796,-1828.133489,  5.516517, -0.465735,  0.513724,-47.543940
-1778.251009,-1715.721696,  7.106199, -0.592422,  0.498778,-47.559519
-1779.835136,-1597.924923,  8.655166, -0.714201,  0.487223,-47.574733
-1781.042589,-1475.252558, 10.163198, -0.830405,  0.478784,-47.589610
-1781.871646,-1348.229304, 11.630157, -0.940408,  0.473167,-47.604178
-1782.322420,-1217.393139, 13.055996, -1.043627,  0.470063,-47.618462
-1782.396848,-1083.292990, 14.440753, -1.139529,  0.469146,-47.632483
-1782.098623,-946.486610, 15.784554, -1.227622,  0.470083,-47.646257
-1781.433212,-807.538277, 17.087614, -1.307474,  0.472531,-47.659800
-1780.407770,-667.016540, 18.350223, -1.378703,  0.476140,-47.673123
-1779.031098,-525.492011, 19.572767, -1.440983,  0.480561,-47.686234
-1777.313559,-383.535037, 20.755703, -1.494043,  0.485445,-47.699138
-1775.267061,-241.713565, 21.899574, -1.537673,  0.490445,-47.711837
-1772.904901,-100.590837, 23.005004, -1.571720,  0.495222,-47.724330
-1770.241742, 39.276699, 24.072686, -1.596084,  0.499445,-47.736614
-1767.293511,177.341565, 25.103396, -1.610731,  0.502793,-47.748683
-1764.077288,313.067318, 26.097973, -1.615681,  0.504961,-47.760527
-1760.611220,445.930549, 27.057335, -1.611012,  0.505660,-47.772137
-1756.914404,575.422909, 27.982461, -1.596858,  0.504618,-47.783500
-1753.006813,701.052903, 28.874393, -1.573409,  0.501585,-47.794600
-1748.909151,822.347738, 29.734240, -1.540907,  0.496330,-47.805422
-1744.642748,938.855051, 30.563164, -1.499641,  0.488647,-47.815948
-1740.229437,1050.144507, 31.362383, -1.449954,  0.478355,-47.826160
-1735.691497,1155.809344, 32.133172, -1.392234,  0.465298,-47.836037
-1731.051449,1255.467764, 32.876848, -1.326911,  0.449347,-47.845561
-1726.332002,1348.764316, 33.594777, -1.254456,  0.430400,-47.854710
-1721.555900,1435.371016, 34.288364, -1.175377,  0.408381,-47.863463
-1716.745866,1514.988469, 34.959057, -1.090217,  0.383245,-47.871800
-1711.924408,1587.346886, 35.608336, -0.999543,  0.354971,-47.879701
-1707.113765,1652.206825, 36.237712, -0.903956,  0.323569,-47.887144
-1702.335788,1709.360000, 36.848722, -0.804075,  0.289071,-47.894112
-1697.611824,1758.629807, 37.442934, -0.700539,  0.251539,-47.900585
-1692.962652,1799.871839, 38.021931, -0.594001,  0.211058,-47.906546
-1688.408313,1832.974177, 38.587316, -0.485126,  0.167738,-47.911979
-1683.968092,1857.857615, 39.140703, -0.374584,  0.121709,-47.916870
-1679.660415,1874.475720, 39.683718, -0.263049,  0.073126,-47.921203
-1675.502717,1882.814813, 40.217997, -0.151189,  0.022160,-47.924969
-1671.511453,1882.893716, 40.745174, -0.039671, -0.030999,-47.928157
-1667.701940,1874.763497, 41.266886,  0.070849, -0.086147,-47.930758
-1664.088375,1858.507017, 41.784769,  0.179726, -0.143064,-47.932766
-1660.683698,1834.238382, 42.300450,  0.286335, -0.201520,-47.934176
-1657.499610,1802.102247, 42.815548,  0.390070, -0.261276,-47.934986
-1654.546513,1762.273047, 43.331673,  0.490348, -0.322085,-47.935195
-1651.833435,1714.954089, 43.850414,  0.586612, -0.383695,-47.934803
-1649.368053,1660.376515, 44.373349,  0.678341, -0.445853,-47.933815
-1647.156659,1598.798257, 44.902034,  0.765040, -0.508304,-47.932233
-1645.204125,1530.502763, 45.437999,  0.846251, -0.570796,-47.930065
-1643.513892,1455.797707, 45.982756,  0.921555, -0.633080,-47.927320
-1642.088029,1375.013656, 46.537783,  0.990571, -0.694914,-47.924005
-1640.927172,1288.502549, 47.104534,  1.052959, -0.756065,-47.920133
-1640.030559,1196.636147, 47.684434,  1.108424, -0.816309,-47.915716
-1639.396082,1099.804500, 48.278869,  1.156715, -0.875433,-47.910768
-1639.020261,998.414194, 48.889197,  1.197622, -0.933240,-47.905303
-1638.898328,892.886698, 49.516738,  1.230990, -0.989547,-47.899336
-1639.024227,783.656566, 50.162773,  1.256701, -1.044187,-47.892884
