SHIH-XIAN-YANG/Robotic-vitual-system/run/exp0/log/joint_acc.txt
# Joint1, Joint2, Joint3, Joint4, Joint5, Joint6
  0.000000,  0.000000,  0.000000,  0.000000,  0.000000,  0.000000
20916.126333,16440.338013,340.057978,  0.000000,-12435.290119,  0.000000
20747.375933,16363.076149,337.044057,  0.000000,-12294.877773,  0.000000
20411.236604,16208.915515,330.535735,  0.000000,-12015.638538,  0.000000
20079.170703,16055.842458,323.101923,  0.000000,-11741.137775,  0.000000
19752.495853,15904.213255,314.795996,  0.000000,-11472.889534,  0.000000
19431.135695,15754.016009,305.654681,  0.000000,-11210.769711,  0.000000
19115.003855,15605.237206,295.716587,  0.000000,-10954.638509,  0.000000
18804.015273,15457.863450,285.022201,  0.000000,-10704.359107,  0.000000
18498.086271,15311.881471,273.613746,  0.000000,-10459.797811,  0.000000
18197.134533,15167.278127,261.535026,  0.000000,-10220.823979,  0.000000
17901.079083,15024.040397,248.831276,  0.000000,-9987.309956,  0.000000
17609.840262,14882.155385,235.549007,  0.000000,-9759.131002,  0.000000
17323.339704,14741.610316,221.735849,  0.000000,-9536.165226,  0.000000
17041.500323,14602.392536,207.440392,  0.000000,-9318.293525,  0.000000
16764.246284,14464.489510,192.712029,  0.000000,-9105.399514,  0.000000
16491.502987,14327.888821,177.600794,  0.000000,-8897.369469,  0.000000
16223.197044,14192.578171,162.157206,  0.000000,-8694.092263,  0.000000
15959.256263,14058.545376,146.432109,  0.000000,-8495.459309,  0.000000
15699.609626,13925.778369,130.476516,  0.000000,-8301.364500,  0.009573
15444.187269,13794.265195,114.341453,  0.000000,-8111.704153,  0.038112
15192.920466,13663.994015, 98.077803,  0.000000,-7926.376954,  0.094679
14945.741610,13534.953097, 81.736160,  0.000000,-7745.283906,  0.187868
14702.584191,13407.130825, 65.366678,  0.000000,-7568.328270,  0.325822
14463.382784,13280.515689, 49.018923,  0.000000,-7395.415520,  0.516109
14228.073028,13155.096290, 32.741736,  0.000000,-7226.453288,  0.765721
13996.591607,13030.861334, 16.583099,  0.000000,-7061.351317,  1.081005
13768.876236,12907.799636,  0.589994,  0.000000,-6900.021413,  1.467650
13544.865646,12785.900117,-15.191724,  0.000000,-6742.377395,  1.930621
13324.499561,12665.151800,-30.717439,  0.000000,-6588.335052,  2.474176
13107.718688,12545.543814,-45.943905,  0.000000,-6437.812097,  3.101804
12894.464697,12427.065389,-60.829355,  0.000000,-6290.728124,  3.816261
12684.680210,12309.705859,-75.333594,  0.000000,-6147.004562,  4.619515
12478.308778,12193.454657,-89.418118,  0.000000,-6006.564635,  5.512806
12275.294874,12078.301315,-103.046199,  0.000000,-5869.333324,  6.496580
12075.583873,11964.235466,-116.182965,  0.000000,-5735.237322,  7.570573
11879.122040,11851.246839,-128.795487,  0.000000,-5604.204996,  8.733784
11685.856511,11739.325262,-140.852863,  0.000000,-5476.166350,  9.984521
11495.735286,11628.460657,-152.326257,  0.000000,-5351.052990, 11.320417
11308.707209,11518.643042,-163.188982,  0.000000,-5228.798080, 12.738485
11124.721956,11409.862530,-173.416543,  0.000000,-5109.336315, 14.235119
10943.730023,11302.109327,-182.986686,  0.000000,-4992.603879, 15.806167
10765.682709,11195.373730,-191.879420,  0.000000,-4878.538416, 17.446994
10590.532109,11089.646130,-200.077074,  0.000000,-4767.078994, 19.152475
10418.231094,10984.917007,-207.564288,  0.000000,-4658.166073, 20.917083
10248.733303,10881.176932,-214.328058,  0.000000,-4551.741474, 22.734958
10081.993131,10778.416564,-220.357723,  0.000000,-4447.748345, 24.599922
9917.965712,10676.626651,-225.644973,  0.000000,-4346.131135, 26.505559
9756.606911,10575.798028,-230.183844,  0.000000,-4246.835563, 28.445273
9597.873313,10475.921618,-233.970709,  0.000000,-4149.808586, 30.412344
9441.722206,10376.988426,-237.004246,  0.000000,-4054.998373, 32.399973
9288.111575,10278.989547,-239.285422,  0.000000,-3962.354278, 34.401357
9137.000088,10181.916155,-240.817458,  0.000000,-3871.826813, 36.409725
8988.347086,10085.759512,-241.605782,  0.000000,-3783.367618, 38.418412
8842.112571,9990.510959,-241.657998,  0.000000,-3696.929441, 40.420897
8698.257196,9896.161920,-240.983815,  0.000000,-3612.466107, 42.410842
8556.742254,9802.703901,-239.595011,  0.000000,-3529.932498, 44.382176
8417.529666,9710.128487,-237.505356,  0.000000,-3449.284525, 46.329099
8280.581977,9618.427343,-234.730546,  0.000000,-3370.479106, 48.246146
8145.862336,9527.592212,-231.288134, -0.000006,-3293.474147, 50.128208
8013.334496,9437.614916,-227.197460, -0.000006,-3218.228511, 51.970581
7882.962797,9348.487353,-222.479549, -0.000006,-3144.702004, 53.768978
7754.712160,9260.201499,-217.157042, -0.000006,-3072.855349, 55.519575
7628.548076,9172.749404,-211.254105, -0.000005,-3002.650166, 57.219007
7504.436600,9086.123196,-204.796336, -0.000005,-2934.048953, 58.864417
7382.344336,9000.315073,-197.810659, -0.000005,-2867.015065, 60.453416
7262.238433,8915.317311,-190.325241, -0.000005,-2801.512692, 61.984162
7144.086574,8831.122256,-182.369380, -0.000004,-2737.506845, 63.455302
7027.856969,8747.722328,-173.973410, -0.000004,-2674.963332, 64.865987
6913.518343,8665.110018,-165.168589, -0.000004,-2613.848743, 66.215907
6801.039932,8583.277887,-155.987000, -0.000003,-2554.130433, 67.505208
6690.391470,8502.218568,-146.461440, -0.000003,-2495.776501, 68.734556
6581.543187,8421.924762,-136.625311, -0.000002,-2438.755774, 69.905068
6474.465794,8342.389240,-126.512517, -0.000002,-2383.037793, 71.018322
6369.130479,8263.604841,-116.157352, -0.000002,-2328.592795, 72.076311
6265.508902,8185.564471,-105.594394, -0.000001,-2275.391696, 73.081431
6163.573179,8108.261104,-94.858390, -0.000001,-2223.406076, 74.036469
6063.295884,8031.687779,-83.984170, -0.000006,-2172.608166, 74.944525
5964.650035,7955.837603,-73.006511, -0.000006,-2122.970830, 75.809030
5867.609089,7880.703745,-61.960068, -0.000005,-2074.467553, 76.633678
5772.146935,7806.279441,-50.879245, -0.000005,-2027.072424, 77.422410
5678.237888,7732.557991,-39.798103, -0.000004,-1980.760127, 78.179361
5585.856680,7659.532756,-28.750271, -0.000004,-1935.505922, 78.908838
5494.978454,7587.197161,-17.768845, -0.000003,-1891.285634, 79.615265
5405.578756,7515.544694, -6.886290, -0.000002,-1848.075643, 80.303151
5317.633534,7444.568903,  3.865637, -0.000002,-1805.852865, 80.977065
5231.119122,7374.263398, 14.455981, -0.000001,-1764.594747, 81.641566
5146.012243,7304.621849, 24.854667, -0.000000,-1724.279248, 82.301212
5062.289997,7235.637985, 35.032577,  0.000000,-1684.884832, 82.960476
4979.929857,3929.506837, 44.961626, -0.000005,-1646.390457, 83.623739
4898.909663,  6.395169, 54.614843, -0.000004,-1608.775558, 84.295259
4819.207614,-3891.883446, 63.966410, -0.000004,-1572.020043, 84.979135
4740.802266,-7747.400285, 72.991752, -0.000003,-1536.104277, 85.679246
4663.672521,-11545.325246, 81.667574, -0.000002,-1501.009074, 86.399279
4587.797626,-15271.171401, 89.971928, -0.000001,-1466.715687, 87.142677
4513.157166,-18910.836714, 97.884246, -0.000001,-1433.205798, 87.912594
4439.731057,-22450.656584,105.385393,  0.000000,-1400.461505, 88.711930
4367.499544,-25139.668479,112.457708, -0.000005,-1368.465318, 89.543249
4296.443189,-24916.016311,119.085020, -0.000004,-1337.200144, 90.408834
4226.542875,-24680.778111,125.252693, -0.000003,-1306.649281, 91.310607
4157.779793,-24447.696480,130.947645, -0.000002,-1276.796411, 92.250169
4090.135441,-24216.815732,136.158363, -0.000002,-1247.625586, 93.228783
4023.591619,-23988.115389,140.874912, -0.000001,-1219.121224, 94.247359
3958.130421,-23761.574861,145.088953,  0.000000,-1191.268098, 95.306478
3893.734234,-23537.173752,148.793740, -0.000005,-1164.051328, 96.406359
3830.385730,-23314.891856,151.984122, -0.000004,-1137.456378, 97.546904
3768.067865,-23094.709161,154.656530, -0.000003,-1111.469039, 98.727678
3706.763871,-22876.605841,156.808975, -0.000002,-1086.075430, 99.947932
3646.457253,-22660.562260,158.441025, -0.000001,-1061.261986,101.206617
3587.131784,-22446.558965,159.553785, -0.000000,-1037.015452,102.502403
3528.771501,-22234.576689,160.149883, -0.000005,-1013.322876,103.833675
3471.360702,-22024.596344,160.233421, -0.000004,-990.171602,105.198577
3414.883939,-21816.599026,159.809969, -0.000003,-967.549262,106.595013
3359.326016,-21610.566006,158.886503, -0.000002,-945.443772,108.020689
3304.671984,-21406.478734,157.471377, -0.000001,-923.843324,109.473127
3250.907137,-21204.318835,155.574283, -0.000006,-902.736378,110.949672
3198.017009,-21004.068107,153.206185, -0.000005,-882.111661,112.447549
3145.987369,-20805.708520,150.379291, -0.000004,-861.958155,113.963867
3094.804216,-20609.222213,147.106985, -0.000003,-842.265093,115.495641
3044.453781,-20414.591497,143.403778, -0.000001,-823.021957,117.039838
1924.502350,-20221.798848,139.285233, -0.000006,-804.218466,118.593385
-3667.584586,-20030.826906,134.767930, -0.000005,-785.844577,120.153209
-9203.172008,-19841.658477,129.869379, -0.000004,-767.890473,121.716240
-14620.452184,-19654.276529,124.607957, -0.000002,-750.346566,123.279460
-19893.276662,-19468.664192,119.002858, -0.000007,-733.203481,124.839915
-24996.831182,-19284.804752,113.074000, -0.000006,-716.452063,126.394743
-29907.479741,-19102.681656,106.841972, -0.000004,-700.083363,127.941173
-34602.866849,-18922.278506,100.327955, -0.000003,-684.088637,129.476574
-36963.248703,-18743.579059, 93.553647, -0.000007,-668.459340,130.998452
-36385.856386,-18566.567225, 86.541201, -0.000006,-653.187124,132.504497
-35794.078988,-18391.227068, 79.313138, -0.000004,-638.263831,133.992547
-35211.734400,-18217.542799, 71.892286, -0.000003,-623.681489,135.460655
-34638.862577,-18045.498781, 64.301693, -0.000007,-609.432307,136.907066
-34075.310990,-17875.079523, 56.564568, -0.000006,-595.508676,138.330237
-33520.928018,-17706.269682, 48.704198, -0.000004,-581.903155,139.728840
-32975.564493,-17539.054058, 40.743884, -0.000003,-568.608479,141.101793
-32439.073675,-17373.417597, 32.706860, -0.000007,-555.617545,142.448210
-31911.311212,-17209.345383, 24.616235, -0.000005,2675.459974,143.767465
-31392.135097,-17046.822646, 16.494915, -0.000003,6951.227101,145.059142
-30881.405638,-16885.834751,  8.365537, -0.000008,11118.314251,146.323071
-30378.985412,-16726.367204,  0.250412, -0.000006,15133.578806,147.559288
-29884.739234,-16568.405647, -7.828550, -0.000004,18966.008883,148.768058
-29398.534117,-16411.935858,-15.849896, -0.000008,22586.645551,149.949854
-28920.239239,-16256.943749,-23.792682, -0.000006,22840.345874,151.105365
-28449.725905,-16103.415364,-31.636545, -0.000004,22327.409676,152.235451
-27986.867514,-15951.336880,-39.361750, -0.000008,21817.400623,153.341168
-27531.539526,-15800.694605,-46.949237, -0.000006,21318.942097,154.423736
-27083.619426,-15651.474976,-54.380678, -0.000004,20831.870624,155.484525
-26642.986692,-15503.664556,-61.638518, -0.000008,20355.927204,156.525068
-26209.522764,-15357.250038,-68.706025, -0.000006,19890.857610,157.546979
-25783.111010,-15212.218239,-75.567317, -0.000004,19436.413409,158.552032
-25363.636695,-15068.556101,-82.207420, -0.000007,18992.351844,159.542043
-24950.986953,-14926.250689,-88.612279, -0.000005,18558.435704,160.518933
-24545.050752,-14785.289190,-94.768810, -0.000003,18134.433197,161.484675
-24145.718866,-14645.658912,-100.664907, -0.000007,17720.117829,162.441275
-23752.883849,-14507.347284,-106.289487, -0.000004,17315.268277,163.390765
-23366.439999,-14370.341852,-111.632491, -0.000008,16919.668278,164.335175
-22986.283338,-14234.630281,-116.684921, -0.000006,16533.106508,165.276544
-22612.311576,-14100.200352,-121.438832, -0.000003,16155.376471,166.216859
-22244.424090,-13967.039961,-125.887367, -0.000007,15786.276390,167.158062
-21882.521892,-13835.137119,-130.024742, -0.000004,15425.609098,168.102070
-21526.507606,-13704.479949,-133.846265, -0.000008,15073.181931,169.050685
-21176.285439,-13575.056688,-137.348328, -0.000005,14728.806628,170.005646
-20831.761156,-13446.855683,-140.528416, -0.000008,14392.299229,170.968588
-20492.842058,-13319.865391,-143.385084, -0.000006,14063.479977,171.941026
-20159.436952,-13194.074378,-145.917957, -0.000009,13742.173221,172.924383
-19831.456128,-13069.471318,-148.127728, -0.000006,13428.207326,173.919921
-19508.811337,-12946.044993,-150.016123, -0.000004,13121.414574,174.928782
-19191.415765,-12823.784290,-151.585898, -0.000007,12821.631081,175.951960
-18879.184011,-12702.678200,-152.839939, -0.000004,12528.696709,176.971180
-18572.032063,-12582.715820,-153.782060, -0.000007,12242.454975,177.968354
-18269.877276,-12463.886348,-154.416967, -0.000004,11962.752975,178.925950
-17972.638350,-12346.179086,-154.750245, -0.000007,11689.441294,179.827158
-17680.235306,-12229.583435,-154.788318, -0.000004,11422.373936,180.655983
-17392.589467,-12114.088898,-154.538429, -0.000007,11161.408235,181.397377
-17109.623438,-11999.685075,-154.008588, -0.000004,10906.404788,182.037315
-16831.261081,-11886.361667,-153.207558, -0.000007,10657.227377,182.562903
-16557.427496,-11774.108470,-152.144799, -0.000004,10413.742894,182.962448
-16288.049005,-11662.915377,-150.830444, -0.000007,10175.821274,183.225531
-16023.053125,-11552.772377,-149.275246, -0.000010,9943.335423,183.343068
-15762.368554,-11443.669552,-147.490549, -0.000006,9716.161149,183.307338
-15505.925151,-11335.597080,-145.488231, -0.000009,9494.177102,183.112014
-15253.653913,-11228.545229,-143.280674, -0.000006,9277.264698,182.752202
-15005.486963,-11122.504362,-140.880704, -0.000008,9065.308069,182.224442
-14761.357527,-11017.464930,-138.301563, -0.000005,8858.193988,181.526686
-14521.199917,-10913.417477,-135.556844, -0.000008,8655.811820,180.658295
-14284.949513,-10810.352634,-132.660460, -0.000004,8458.053455,179.620022
-14052.542749,-10708.261121,-129.626589, -0.000007,8264.813253,178.413959
-13823.917091,-10607.133747,-126.469628, -0.000009,8075.987988,177.043506
-13599.011022,-10506.961406,-123.204148, -0.000005,7891.476793,175.513294
-13377.764027,-10407.735079,-119.844842, -0.000008,7711.181105,173.829128
-13160.116576,-10309.445832,-116.406484, -0.000004,7535.004612,171.997930
-12946.010106,-10212.084815,-112.903878, -0.000006,7362.853204,170.027640
-12735.387008,-10115.643263,-109.351812, -0.000009,7194.634919,167.927117
-12528.190610,-8108.644068,-105.765023, -0.000005,7030.259899,165.706087
-12324.365161,-5316.805516,-102.158138, -0.000007,6869.640337,163.375000
-12123.855819,-2520.148923,-98.545632, -0.000009,6712.690432,160.944975
-11926.608633,266.869897,-94.941799, -0.000005,6559.326344,158.427640
-11732.570529,3033.377102,-91.360696, -0.000007,6409.466148,155.835090
-11541.689297,5768.671590,-87.816115, -0.000003,6263.029791,153.179716
-11353.913578,8462.250226,-84.321529, -0.000005,6119.939050,150.474153
-11169.192847,11103.847538,-80.890073, -0.000007,5980.117486,147.731125
-10987.477402,13683.474316,-77.534488, -0.000003,5843.490410,144.963382
-10808.718347,16191.454833,-74.267109, -0.000005,5709.984838,142.183578
-10157.507107,18618.462547,-71.099814, -0.000007,5057.628007,139.404162
-6648.605682,20955.554241,-68.044000, -0.000003,2448.431299,136.637289
-3128.790021,22234.560129,-65.110562, -0.000004,-160.941147,133.894734
362.286891,22031.586884,-62.309854, -0.000006,-2731.068199,131.187815
3807.163218,21823.556791,-59.651667, -0.000002,-5241.150140,128.527275
7189.003382,21617.458221,-57.145215, -0.000004,-7671.349878,125.923256
10491.509038,21413.305861,-54.799101, -0.000005,-10002.777752,123.385185
13698.993336,21211.081487,-52.621311, -0.000007,-12217.632113,120.921753
16796.452302,21010.766893,-50.619186, -0.000003,-14299.330370,118.540843
19769.631974,20812.344043,-48.799412, -0.000004,-16232.628072,116.249481
22605.090796,20615.795072,-47.168020, -0.000006,-18003.725308,114.053796
25290.257130,20421.102283,-45.730353, -0.000002,-17773.533297,111.959021
27813.481625,20228.248146,-44.491071, -0.000003,-17369.556488,109.969419
29447.382040,20037.215298,-43.454153, -0.000005,-16972.740359,108.088322
28985.403875,19847.986538,-42.622877, -0.000006,-16584.966337,106.318098
28513.970692,19660.544829,-41.999822, -0.000002,-16206.051467,104.660155
28050.068232,19474.873295,-41.586889, -0.000003,-15835.793621,103.114959
27593.712019,19290.955217,-41.385269, -0.000005,-15473.995014,101.682043
27144.780414,19108.774037,-41.395479, -0.000006,-15120.462379,100.360048
26703.152631,18928.313351,-41.617353, -0.000001,-14775.006865, 99.146716
26268.709842,18749.556912,-42.050052, -0.000003,-14437.443934, 98.038986
25841.335153,18572.488624,-42.692080, -0.000004,-14107.593266, 97.032990
25420.913570,18397.092546,-43.541295, -0.000005,-13785.278659, 96.124110
25007.331971,18223.352884,-44.594913, -0.000001,-13470.327939, 95.307064
24600.479073,18051.253996,-45.849545, -0.000002,-13162.572862, 94.575921
24200.245405,17880.780387,-47.301196, -0.000003,-12861.849030, 93.924192
23806.523276,17711.916708,-48.945289, -0.000005,-12567.995803, 93.344876
23419.206748,17544.647755,-50.776693, -0.000000,-12280.856207, 92.830553
23038.191607,17378.958467,-52.789734, -0.000001,-12000.276858, 92.373428
22663.375332,17214.833926,-54.978234, -0.000002,-11726.107874, 91.965421
22294.657072,17052.259355,-57.335516, -0.000004,-11458.202798, 91.598210
21931.937616,16891.220117,-59.854448, -0.000005,-11196.418519, 91.263358
21575.119368,16731.701712,-62.527452, -0.000000,-10940.615196, 90.952330
21224.106319,16573.689776,-65.346559, -0.000001,-10690.656184, 90.656576
20878.804023,16417.170085,-68.303400, -0.000002,-10446.407957, 90.367629
20539.119568,16262.128544,-71.389275, -0.000004,-10207.740042, 90.077151
20204.961557,16108.551194,-74.595151, -0.000005,-9974.524946, 89.776978
19876.240077,15956.424209,-77.911714,  0.000000,-9746.638089, 89.459232
19552.866681,15805.733890,-81.329393, -0.000001,-9523.957738, 89.116324
19234.754358,15656.466670,-84.838388, -0.000002,-9306.364940, 88.741043
18921.817513,15508.609109,-88.428705, -0.000003,-9093.743460, 88.326596
18613.971946,15362.147896,-92.090191, -0.000004,-8885.979720, 87.866666
18311.134825,15217.069842,-95.812563,  0.000001,-8682.962734, 87.355428
18013.224665,15073.361886,-99.585435, -0.000000,-8484.584055, 86.787603
17720.161308,14931.011089,-103.398365, -0.000001,-8290.737711, 86.158488
17431.865900,14790.004633,-107.240871, -0.000002,-7572.975568, 85.463955
17148.260869,14650.329824,-111.102469, -0.000003,-5761.672205, 84.700538
16869.269906,14511.974084,-114.972703, -0.000004,-3918.852119, 83.865348
16594.817943,14374.924957,-118.841182, -0.000005,-2069.846149, 82.956189
16324.831133,14239.170104,-122.697595, -0.000000,-230.082265, 81.971478
16059.236832,14104.697301,-126.531761, -0.000001,1585.400975, 80.910280
15797.963576,13971.494442,-130.333632, -0.000002,3361.983662, 79.772296
15540.941065,13839.549532,-134.093348, -0.000003,5085.578235, 78.557871
15288.100142,13708.850692,-137.801241, -0.000004,6742.737920, 77.267927
15039.372774,13579.386154,-141.447880, -0.000005,8320.758379, 75.903997
14794.692038,13451.144262,-145.024078,  0.000000,9807.771731, 74.468181
14553.992097,13324.113469,-148.520930, -0.000001,11192.832333, 72.963075
14317.208186,13198.282338,-151.929824, -0.000001,12465.993667, 71.391821
14084.276595,13073.639539,-155.242477, -0.000002,13618.375976, 69.757997
13855.134647,12950.173850,-158.450940, -0.000003,14642.223986, 68.065614
12633.984785,12827.874154,-161.547626, -0.000004,15509.050622, 66.319068
10223.497338,12706.729440,-164.525326, -0.000005,15168.599280, 64.523083
7783.789517,12586.728800,-167.377224, -0.000005,14822.204402, 62.682700
5336.374686,12467.861431,-170.096913, -0.000000,14483.565009, 60.803175
2893.792693,12350.116628,-172.678409, -0.000001,14152.660639, 58.889992
468.329316,12233.483792,-175.116159, -0.000002,13829.316383, 56.948777
-1927.975216,12117.952420,-177.405056, -0.000002,13513.359537, 54.985255
-4283.383445,12003.512111,-179.540450, -0.000003,13204.621322, 53.005195
-6586.516137,11890.152561,-181.518150, -0.000004,12902.936815, 51.014393
-8826.405201,11777.863564,-183.334433, -0.000004,12608.144859, 49.018595
-10992.543892,10769.052780,-184.986046, -0.000005,12320.087983, 47.023465
-13074.933977,8670.761924,-186.470215, -0.000005,12038.612309, 45.034527
-15064.129747,6548.817099,-187.784644, -0.000000,11763.567479, 43.057147
-16951.278683,4416.460710,-188.927506, -0.000001,11494.806568, 41.096484
-18728.158568,2282.149284,-189.897466, -0.000001,11232.186007, 39.157440
-20387.210939,154.265850,-190.693645, -0.000002,10975.565508, 37.244638
-21921.570781,-1958.891058,-191.315648, -0.000002,10724.807990, 35.362397
-23325.092267,-4049.139260,-191.763541, -0.000003,10479.779500, 33.514697
-24592.370604,-6108.444185,-192.037845, -0.000003,10240.349149, 31.705160
-25718.759789,-8128.949354,-192.139530, -0.000004,10006.389037, 29.937007
-25729.644960,-10103.005907,-192.070017, -0.000004,9777.774185, 28.213082
-25314.561462,-12023.201142,-191.831145, -0.000005,9443.415416, 26.535804
-24902.739019,-13882.385923,-191.425184,  0.000001,8192.991739, 24.907163
-24497.588016,-15673.700847,-190.854803,  0.000000,6885.630535, 23.328726
-24099.028320,-17390.601096,-190.123069, -0.000000,5540.778278, 21.801630
-23706.952927,-19026.879888,-189.233426, -0.000000,4170.141162, 20.326578
-23321.256344,-20576.690430,-188.189681, -0.000001,2785.395636, 18.903847
-22941.834791,-20463.026920,-186.995990, -0.000001,1398.164788, 17.533276
-22568.586178,-20270.159531,-185.656835, -0.000002, 19.923915, 16.214327
-22201.410076,-20078.732693,-184.177014, -0.000002,-1338.091988, 14.946050
-21840.207688,-19889.111857,-182.561613, -0.000003,-2664.977359, 13.727114
-21484.881826,-19701.281766,-180.815998, -0.000003,-3950.241285, 12.555830
-21135.336882,-19515.225517,-178.945784, -0.000003,-5183.887998, 11.430192
-20791.478806,-19330.926359,-176.956824, -0.000004,-6356.492169, 10.347848
-20453.215076,-19148.367696,-174.855183,  0.000002,-7459.268341,  9.306197
-20120.454674,-18967.533094,-172.647111,  0.000002,-8484.134173,  8.302352
-19793.108066,-18788.406268,-170.339042,  0.000001,-9423.766885,  7.333203
-19471.087173,-18610.971093,-167.937547,  0.000001,-10271.652694,  6.395459
-19154.305349,-18435.211591,-165.449328,  0.000001,-11022.128786,  5.485638
-18842.677357,-18261.111938,-162.881195,  0.000000,-11670.417722,  4.600146
-18536.119349,-18088.656459,-160.240043, -0.000000,-12212.654035,  3.735268
-18234.548838,-17917.829626,-157.532819, -0.000001,-12645.902891,  2.887223
-17937.884682,-17748.616059,-154.766519, -0.000001,-12968.170848,  2.052210
-17646.047057,-17581.000522,-151.948158, -0.000001,-13178.408658,  1.226391
-16962.640549,-17414.967923,-149.084747, -0.000002,-13276.506253,  0.405991
-15372.766155,-17250.503314,-146.183266, -0.000002,-13235.340530, -0.412733
-13719.210409,-17087.591886,-143.250664, -0.000002,-12935.983573, -1.233439
-12017.561865,-16926.218972,-140.293816,  0.000003,-12640.471608, -2.059659
-10277.103545,-16766.370042,-137.319515,  0.000003,-12351.676571, -2.894782
-8507.145716,-16608.030704,-134.334452,  0.000003,-12069.479201, -3.742060
-6717.027376,-16451.186701,-131.345197,  0.000002,-11647.219935, -4.604528
-4916.069024,-16295.823912,-128.358176,  0.000002,-11038.528466, -5.485031
-3113.525781,-16141.928348,-125.379668,  0.000001,-10346.317001, -6.386170
-1318.541403,-15989.486153,-122.415765,  0.000001,-9578.399518, -7.310322
459.896512,-15838.483602,-119.472376,  0.000001,-8742.216370, -8.259593
2213.005795,-15688.907098,-116.557674,  0.000000,-7845.652246, -9.226615
3932.245692,-15540.743175,-113.679658, -0.000000,-6896.975600,-10.203920
5609.356905,-15393.978491,-110.846095, -0.000001,-5904.765000,-11.184099
7236.399735,-15248.599834,-108.064526, -0.000001,-4877.833921,-12.159916
8805.790114,-15104.594113,-105.342226, -0.000002,-3825.154630,-13.124311
10310.333381,-14961.948363,-102.686194,  0.000004,-2755.781893,-14.070497
11743.255662,-14820.649739,-100.103134,  0.000004,-1678.777137,-14.991973
13098.232676,-14680.685522,-97.599441,  0.000003,-603.133590,-15.882589
14369.415948,-14542.043107,-95.181181,  0.000003,462.296892,-16.736569
15551.456253,-14404.710012,-92.854086,  0.000002,1508.874775,-17.548591
16639.524212,-14268.673873,-90.623528,  0.000002,2528.241030,-18.313761
17629.328039,-14133.922441,-88.494520,  0.000001,3512.381999,-19.027700
18517.128287,-14000.443583,-86.471700,  0.000001,4453.690527,-19.686527
19299.749675,-13868.225281,-84.559321,  0.000000,5345.022757,-20.286891
19974.589841,-13737.255631,-82.761253, -0.000000,6179.750385,-20.826008
20539.625118,-13607.522841,-81.080955, -0.000001,6951.807871,-21.301622
20993.413327,-13479.015230,-79.521496, -0.000001,7655.734262,-21.712061
21335.093551,-13351.721228,-78.085534, -0.000002,8286.709550,-22.056220
21564.383010,-13225.629372,-76.775321,  0.000004,8840.585096,-22.333545
21681.571013,-12850.950170,-75.592689,  0.000003,9313.908148,-22.544040
21586.283543,-11247.545010,-74.539077,  0.000002,9703.940257,-22.688234
21237.200369,-9605.734098,-73.615499,  0.000002,10008.669491,-22.767204
20891.702358,-7937.549636,-72.822578,  0.000001,10226.816571,-22.782521
20551.808198,-6249.743550,-72.160515,  0.000001,10357.834735,-22.736225
20217.443753,-4549.073071,-71.629131,  0.000000,10401.903740,-22.630816
19888.519196,-2842.298081,-71.227846, -0.000000,10359.917789,-22.469218
19561.346457,-1136.154715,-70.955695, -0.000001,10233.467854,-22.254738
18868.215204,562.670901,-70.811336, -0.000001,10024.818490,-21.991040
18086.403757,2247.568521,-70.793059, -0.000002,9736.879352,-21.682108
17223.100955,3912.029148,-70.898799, -0.000002,9373.171923,-21.332188
16283.740010,5549.669843,-71.126142,  0.000003,8937.791583,-20.945775
15274.052640,7154.257889,-71.472333,  0.000002,8435.365538,-20.527559
14200.052219,8719.734145,-71.934301,  0.000002,7871.006969,-20.082374
13067.999839,10240.235592,-72.508668,  0.000001,7250.265818,-19.615163
11884.369470,11710.116946,-73.191757,  0.000001,6579.076711,-19.130941
10655.812459,13123.971242,-73.979609,  0.000000,5863.704423,-18.634760
9389.121605,14476.649372,-74.868003, -0.000000,5110.687470,-18.131627
8091.194964,15763.278447,-75.852477, -0.000001,4326.780196,-17.626520
6768.999634,16979.278957,-76.928328, -0.000002,3518.893936,-17.124303
5429.535590,18120.380660,-78.090646, -0.000002,2694.037790,-16.629732
4079.799875,19182.637149,-79.334317, -0.000003,1859.259363,-16.147369
2726.751255,19073.896909,-80.654056, -0.000003,1021.586090,-15.681587
1377.275491,18894.109174,-82.044418,  0.000002,187.967586,-15.236523
 38.151468,18715.677384,-83.499810,  0.000002,-634.780541,-14.816070
-1283.981698,18538.929058,-85.014522,  0.000001,-1440.030989,-14.423813
-2582.656466,18363.849912,-86.582740,  0.000001,-2221.396643,-14.063053
-3851.607351,18190.424189,-88.198557,  0.000000,-2972.779819,-13.736743
-5084.800017,18018.636275,-89.856010, -0.000000,-3688.418352,-13.447496
-6276.458807,17848.470704,-91.549086, -0.000001,-4362.928257,-13.197579
-7421.092622,17679.912153,-93.271739, -0.000001,-4991.342657,-12.988887
-8513.519034,17512.945446,-95.017912, -0.000002,-5569.146699,-12.822928
-9548.886505,17347.555550,-96.781565, -0.000002,-6092.308292,-12.700848
-10522.694658,17183.727575,-98.556678, -0.000003,-6557.304298,-12.623406
-11430.812527,17021.446768,-100.337271,  0.000003,-6961.142313,-12.590992
-12269.494667,16860.698520,-102.117434,  0.000002,-7301.377584,-12.603605
-13035.395136,16701.468356,-103.891329,  0.000001,-7576.125300,-12.660908
-13725.579252,16543.741941,-105.653216,  0.000001,-7784.067997,-12.762193
-14337.533159,16387.505072,-107.397466,  0.000000,-7924.458250,-12.906412
-14869.171089,16232.743684,-109.118575, -0.000000,-7997.116540,-13.092213
-15318.840409,16079.443841,-110.811179, -0.000001,-8002.424582,-13.317919
-15685.324373,15927.591741,-112.470074, -0.000001,-7941.313973,-13.581579
-15967.842674,15777.173712,-114.090215, -0.000002,-7815.250623,-13.880986
-16166.049756,15628.176211,-115.666753, -0.000002,-7626.214904,-14.213681
-16280.030951,15480.585822,-117.195017, -0.000003,-7376.677845,-14.577003
-16310.296484,15334.389256,-118.670559,  0.000003,-7069.573718,-14.968099
-16257.773442,15189.573352,-120.089133,  0.000002,-6708.269081,-15.383962
-16123.795664,15046.125069,-121.446727,  0.000002,-6296.528762,-15.821446
-15910.091794,14904.031492,-122.739556,  0.000001,-5838.479072,-16.277309
-15618.771408,14763.279828,-123.964089,  0.000001,-5338.568544,-16.748233
-15252.309458,14623.857404,-125.117039,  0.000000,-4801.526525,-17.230844
-14813.529026,14485.751666,-126.195375, -0.000000,-4232.320207,-17.721759
-14305.582562,14348.950181,-127.196335, -0.000001,-3636.110114,-18.217612
-13731.931699,14213.440630,-128.117417, -0.000001,-3018.204831,-18.715056
-13096.325742,14079.210813,-128.956399, -0.000002,-2384.015038,-19.210822
-12402.778999,13946.248644,-129.711327,  0.000004,-1739.007395,-19.701729
-11655.547065,13814.542152,-130.380525,  0.000003,-1088.658695,-20.184691
-10859.102191,12878.587662,-130.962599,  0.000002,-438.410510,-20.656769
-10018.107851,11624.720778,-131.456431,  0.000002,206.375146,-21.115181
-9137.392700,10333.125330,-131.861183,  0.000001,840.458931,-21.557317
-8221.924031,9010.368409,-132.176292,  0.000001,1458.765552,-21.980747
-7276.780841,7661.862096,-132.401475,  0.000000,2056.423296,-22.383257
-6307.126718,6293.075687,-132.536713, -0.000001,2628.801244,-22.762859
-5318.182634,4909.519376,-132.582262, -0.000001,3171.543959,-23.117786
-4315.199789,3516.722408,-132.538644, -0.000002,3680.603467,-23.446502
-3303.432666,2120.211237,-132.406637,  0.000004,4152.268127,-23.747742
-2288.112405,725.487886,-132.187272,  0.000003,4583.188436,-24.020466
-1274.420659,-661.991453,-131.881832,  0.000002,4970.399377,-24.263912
-267.464021,-2036.837485,-131.491834,  0.000002,5311.339314,-24.477557
727.750841,-3393.748499,-131.019032,  0.000001,5603.865290,-24.661135
1706.341226,-4727.530508,-130.465399,  0.000001,5846.264614,-24.814624
2663.571479,-6033.116879,-129.833130, -0.000000,6037.262812,-24.938260
3594.875063,-7305.587289,-129.124618, -0.000001,6176.027728,-25.032506
4495.875456,-8540.185993,-128.342461, -0.000001,6262.170052,-25.098054
5362.405859,-9732.339311,-127.489432, -0.000002,6295.740073,-25.135817
6190.527550,-10877.672275,-126.568483,  0.000003,6277.220921,-25.146906
6976.546867,-11972.024391,-125.582733,  0.000003,6207.518338,-25.132623
7717.030739,-13011.464419,-124.535444,  0.000002,6087.947032,-25.094451
8408.820680,-13992.304207,-123.430029,  0.000001,5920.214011,-25.034035
9049.045211,-14911.111396,-122.270017,  0.000001,5706.398727,-24.953161
9635.130716,-15764.721109,-121.059060, -0.000000,5448.930616,-24.853734
10164.810583,-16550.246456,-119.800914, -0.000001,5150.563936,-24.737786
10636.132722,-17265.087898,-118.499418, -0.000001,4814.350407,-24.607418
11047.465401,-17906.941410,-117.158498, -0.000002,4443.609697,-24.464805
11397.501320,-18353.045093,-115.782136,  0.000003,4041.898192,-24.312179
11685.260094,-18182.640193,-114.374372,  0.000003,3612.976209,-24.151806
11910.088951,-18010.939638,-112.939280,  0.000002,3160.774084,-23.985952
12071.661846,-17840.846818,-111.480968,  0.000001,2689.357234,-23.816881
12169.976854,-17672.360267,-110.003546,  0.000000,2202.890729,-23.646851
12205.352047,-17505.464879,-108.511140, -0.000000,1705.603485,-23.478056
12178.419718,-17340.145629,-107.007851, -0.000001,1201.752431,-23.312638
12090.119149,-17176.387631,-105.497765, -0.000002,695.587050,-23.152664
11941.687907,-17014.176142,-103.984928, -0.000002,191.314384,-23.000119
11734.651716,-16853.496557,-102.473343,  0.000003,-306.934997,-22.856873
11470.813053,-16694.334407,-100.966952,  0.000002,-795.139977,-22.724683
11152.238433,-16536.675364,-99.469628,  0.000002,-1269.420480,-22.605197
10781.244567,-16380.505231,-97.985159,  0.000001,-1726.067417,-22.499886
10360.383431,-16225.809948,-96.517252,  0.000000,-2161.570803,-22.410122
9892.426286,-16072.575587,-95.069506, -0.000001,-2572.645829,-22.337070
9380.346868,-15920.788350,-93.645417, -0.000001,-2956.256669,-22.281777
8827.303723,-15770.434571,-92.248352, -0.000002,-3309.637964,-22.245105
8236.621854,-15621.500713,-90.881558, -0.000003,-3630.313651,-22.227755
7611.773744,-15473.973367,-89.548143,  0.000003,-3916.113256,-22.230241
6956.359901,-15327.839249,-88.251075,  0.000002,-4165.185322,-22.252936
6274.088999,-15183.085201,-86.993173,  0.000001,-4376.008112,-22.296002
5568.757710,-14870.502149,-85.777091,  0.000000,-4547.397320,-22.359473
4844.230389,-14020.440237,-84.605331, -0.000000,-4678.511038,-22.443202
4104.418632,-13118.985211,-83.480219, -0.000001,-4768.851671,-22.546874
3353.260898,-12172.204032,-82.403914, -0.000002,-4818.265099,-22.670042
2594.702240,-11184.139333,-81.378394, -0.000002,-4826.936973,-22.812082
1832.674260,-10158.957325,-80.405464, -0.000003,-4795.386237,-22.972270
1071.075399,-9100.940335,-79.486732,  0.000002,-4724.456076,-23.149722
313.751660,-8014.469227,-78.623635,  0.000002,-4615.302224,-23.343448
-435.522193,-6904.005527,-77.817418,  0.000001,-4469.378944,-23.552358
-1173.060782,-5774.073373,-77.069128,  0.000000,-4288.422670,-23.775256
-1895.285617,-4629.241317,-76.379636, -0.000001,-4074.433661,-24.010853
-2598.741828,-3474.104108,-75.749615, -0.000001,-3829.655640,-24.257800
-3280.114008,-2313.264480,-75.179554, -0.000002,-3556.553780,-24.514680
-3936.241231,-1151.315055,-74.669750, -0.000003,-3257.791186,-24.780036
-4564.131004,  7.179600,-74.220315,  0.000003,-2936.204043,-25.052367
-5160.972262,1157.700666,-73.831178,  0.000002,-2594.775729,-25.330174
-5724.147223,2295.792486,-73.502087,  0.000001,-2236.610090,-25.611906
-6251.242155,3417.079572,-73.232606,  0.000001,-1864.904081,-25.896056
-6740.056933,4517.283201,-73.022133, -0.000000,-1482.920067,-26.181116
-7188.613433,5592.237528,-72.869890, -0.000001,-1093.957985,-26.465595
-7595.162660,6637.905098,-72.774935, -0.000001,-701.327533,-26.748067
-7958.190639,7650.391792,-72.736163, -0.000002,-308.320797,-27.027135
-8276.423046,8625.961081,-72.752319,  0.000003, 81.814683,-27.301470
-8548.828566,9561.047566,-72.821991,  0.000002,465.902051,-27.569812
-8774.620970,10452.269738,-72.943629,  0.000002,840.860289,-27.830970
-8953.259928,11296.441968,-73.115546,  0.000001,1203.728255,-28.083851
-9084.450576,12090.585593,-73.335921,  0.000000,1551.687377,-28.327455
-9168.141836,12831.939150,-73.602818, -0.000000,1882.082828,-28.560858
-9204.523545,13517.967655,-73.914181, -0.000001,2192.443035,-28.783274
-9194.022362,14146.370969,-74.267846,  0.000004,2480.497425,-28.994004
-9137.296578,14715.091138,-74.661548,  0.000003,2744.192257,-29.192456
-9035.229798,15222.318773,-75.092940,  0.000003,2981.704396,-29.378160
-8888.923553,15666.498382,-75.559579,  0.000002,3191.453018,-29.550767
-8699.688920,16046.332667,-76.058957,  0.000001,3372.109147,-29.710033
-8469.037200,16360.785812,-76.588498,  0.000000,3522.602971,-29.855820
-8198.669687,16609.085686,-77.145564, -0.000001,3642.128902,-29.988134
-7890.466604,16790.725012,-77.727474, -0.000001,3730.148407,-30.107049
-7546.475297,16879.120821,-78.331503,  0.000004,3786.390601,-30.212778
-7168.897718,16720.888365,-78.954900,  0.000003,3810.850565,-30.305635
-6760.077296,16562.984109,-79.594887,  0.000002,3803.785573,-30.386008
-6322.485258,16406.565546,-80.248670,  0.000001,3765.709159,-30.454400
-5858.706482,16251.624154,-80.913454,  0.000000,3697.383187,-30.511400
-5371.424964,16098.146006,-81.586449, -0.000000,3599.807960,-30.557660
-4863.408956,15946.117286,-82.264868, -0.000001,3474.210537,-30.593926
-4337.495873,15795.524304,-82.945952,  0.000004,3322.031305,-30.620996
-3796.577074,15525.425138,-83.626968,  0.000003,3144.909046,-30.639736
-3243.582512,15078.351232,-84.305217,  0.000002,2944.664512,-30.651039
-2681.465435,14574.986067,-84.978040,  0.000001,2723.282812,-30.655860
-2113.187148,14018.233224,-85.642838,  0.000000,2482.894652,-30.655193
-1541.701921,13410.654617,-86.297061, -0.000001,2225.756632,-30.650023
-969.942146,12754.990990,-86.938226, -0.000002,1954.230845,-30.641374
-400.803793,12054.152284,-87.563925,  0.000004,1670.763857,-30.630280
162.867785,11311.205050,-88.171822,  0.000003,1377.865310,-30.617766
718.291577,10529.359328,-88.759671,  0.000002,1078.086302,-30.604829
1262.764154,9711.955039,-89.325308,  0.000001,773.997758,-30.592478
1793.672332,8862.447970,-89.866671, -0.000000,468.168936,-30.581681
2308.505255,7984.395415,-90.381791, -0.000001,163.146269,-30.573370
2804.865737,7081.441494,-90.868805, -0.000002,-138.567313,-30.568435
3280.480943,6157.302264,-91.325960,  0.000003,-434.532396,-30.567744
3733.212281,5215.750640,-91.751620,  0.000002,-722.392272,-30.572072
4161.064475,4260.601181,-92.144251,  0.000001,-999.891190,-30.582175
4562.193820,3295.694864,-92.502449,  0.000000,-1264.891492,-30.598729
4934.915556,2324.883820,-92.824927, -0.000001,-1515.389530,-30.622345
5277.710315,1352.016145,-93.110524, -0.000002,-1749.530267,-30.653560
5589.229704,380.920861,-93.358203,  0.000003,-1965.620401,-30.692856
5868.300896,-584.606988,-93.567050,  0.000002,-2162.140002,-30.740615
6113.930311,-1540.820968,-93.736290,  0.000001,-2337.752541,-30.797172
6325.306327,-2484.037596,-93.865262,  0.000000,-2491.313260,-30.862754
6501.801036,-3410.650356,-93.953443, -0.000001,-2621.875828,-30.937532
6642.971048,-4317.143281,-94.000439, -0.000002,-2728.697277,-31.021607
6748.557369,-5200.104114,-94.005977, -0.000002,-2811.241198,-31.114974
6818.484300,-6056.236948,-93.969924,  0.000002,-2869.179147,-31.217581
6852.857500,-6882.374336,-93.892257,  0.000002,-2902.390386,-31.329288
6851.961075,-7675.488802,-93.773090,  0.000001,-2910.959842,-31.449902
6816.253860,-8432.703729,-93.612657, -0.000000,-2895.174428,-31.579152
6746.364846,-9151.303566,-93.411303, -0.000001,-2855.517770,-31.716713
6643.087782,-9828.743340,-93.169501, -0.000002,-2792.663374,-31.862178
6507.375058,-10462.657453,-92.887836,  0.000003,-2707.466307,-32.015120
6340.330844,-11050.867658,-92.567002,  0.000002,-2600.953523,-32.175043
6143.203527,-11591.390314,-92.207803,  0.000001,-2474.312925,-32.341403
5917.377553,-12082.442767,-91.811143, -0.000000,-2328.881197,-32.513631
5664.364665,-12522.448921,-91.378027, -0.000001,-2166.130678,-32.691127
5385.794620,-12910.043990,-90.909560, -0.000002,-1987.655212,-32.873235
5083.405407,-13244.078321,-90.406932,  0.000003,-1795.155290,-33.059318
4759.033090,-13523.620406,-89.871422,  0.000002,-1590.422430,-33.248696
4414.601233,-13747.958997,-89.304386,  0.000001,-1375.323127,-33.440672
4052.110042,-13916.604327,-88.707262, -0.000000,-1151.782351,-33.634580
3673.625275,-14029.288484,-88.081553, -0.000001,-921.766841,-33.829718
3281.266939,-14085.964879,-87.428831, -0.000002,-687.268269,-34.025409
2877.197873,-14086.806883,-86.750725,  0.000003,-450.286462,-34.220990
2463.612246,-14032.205588,-86.048919,  0.000002,-212.812782,-34.415798
2042.724062,-13922.766727,-85.325144,  0.000001, 23.186169,-34.609220
1616.755709,-13759.306809,-84.581173, -0.000000,255.784412,-34.800640
1187.926605,-13542.848405,-83.818816, -0.000001,483.111867,-34.989494
758.442021,-13274.614697,-83.039913, -0.000002,703.369014,-35.175242
330.482081,-12956.023270,-82.246333,  0.000003,914.840658,-35.357391
-93.808900,-12588.679168,-81.439952,  0.000002,1115.908898,-35.535481
-512.332822,-12174.367281,-80.622670,  0.000001,1305.065035,-35.709101
-923.047828,-11715.044094,-79.796391, -0.000000,1480.920439,-35.877887
-1323.977874,-11212.828783,-78.963014, -0.000001,1642.216281,-36.041520
-1713.221902,-10669.993757,-78.124438,  0.000004,1787.832010,-36.199733
-2088.962481,-10088.954692,-77.282558,  0.000003,1916.792607,-36.352306
-2449.473913,-9472.260010,-76.439238,  0.000002,2028.274536,-36.499079
-2793.129784,-8822.579985,-75.596331,  0.000001,2121.610295,-36.639941
-3118.409908,-8142.695383,-74.755664, -0.000001,2196.291736,-36.774833
-3423.906653,-7435.485798,-73.919027, -0.000002,2251.971870,-36.903737
-3708.330599,-6703.917658,-73.088174,  0.000003,2288.465460,-37.026706
-3970.515539,-5951.031970,-72.264822,  0.000002,2305.748166,-37.143811
-4209.422791,-5179.931881,-71.450640,  0.000001,2303.954453,-37.255197
-4424.144800,-4393.770069,-70.647241,  0.000000,2283.374139,-37.361048
-4613.908052,-3595.736025,-69.856193, -0.000001,2244.447811,-37.461576
-4778.075229,-2789.043293,-69.078996,  0.000004,2187.760956,-37.557044
-4916.146719,-1976.916701,-68.317095,  0.000003,2114.037086,-37.647754
-5027.761319,-1162.579615,-67.571862,  0.000002,2024.129724,-37.734025
-5112.696310,-349.241347,-66.844609,  0.000000,1919.013527,-37.816230
-5170.866797,459.915371,-66.136565, -0.000001,1799.774458,-37.894749
-5202.324330,1261.746648,-65.448893,  0.000004,1667.599255,-37.969991
-5207.254923,2053.159510,-64.782673,  0.000003,1523.764144,-38.042384
-5185.976360,2831.123652,-64.138911,  0.000002,1369.623076,-38.112359
-5138.934877,3592.682896,-63.518528,  0.000001,1206.595367,-38.180382
-5066.701266,4334.966240,-62.922358, -0.000001,1036.153103,-38.246918
-4969.966389,5055.198533,-62.351159,  0.000004,859.808204,-38.312406
-4849.536099,5750.710676,-61.805595,  0.000003,679.099401,-38.377327
-4706.325726,6418.949333,-61.286249,  0.000002,495.579136,-38.442138
-4541.354006,7057.486133,-60.793612,  0.000000,310.800572,-38.507278
-4355.736601,7664.026304,-60.328096, -0.000001,126.304775,-38.573192
-4150.679212,8236.416749,-59.890017,  0.000004,-56.391825,-38.640306
-3927.470304,8772.653453,-59.479604,  0.000003,-235.809582,-38.709021
-3687.473555,9270.888332,-59.097002,  0.000001,-410.517302,-38.779722
-3432.119947,9729.435347,-58.742270,  0.000000,-579.143364,-38.852780
-3162.899688,10146.775982,-58.415386, -0.000001,-740.386119,-38.928511
-2881.353907,10521.564021,-58.116231,  0.000003,-893.023690,-39.007238
-2589.066186,10852.629608,-57.844617,  0.000002,-1035.922806,-39.089242
-2287.654036,11138.982590,-57.600269,  0.000001,-1168.046954,-39.174757
-1978.760243,11379.815137,-57.382831, -0.000000,-1288.463458,-39.264006
-1664.044251,11574.503610,-57.191875, -0.000002,-1396.349694,-39.357170
-1345.173544,11722.609717,-57.026900,  0.000003,-1490.998297,-39.454393
-1023.815134,11823.880925,-56.887326,  0.000002,-1571.821296,-39.555785
-701.627100,11878.250137,-56.772506,  0.000000,-1638.353275,-39.661433
-380.250344,11885.834639,-56.681730, -0.000001,-1690.253380,-39.771368
-61.300499,11846.934355,-56.614225, -0.000002,-1727.306385,-39.885604
253.639919,11762.029372,-56.569152,  0.000002,-1749.422634,-40.004118
563.029066,11631.776775,-56.545621,  0.000001,-1756.636921,-40.126848
865.373081,11457.006856,-56.542681, -0.000000,-1749.106466,-40.253703
1159.232977,11238.718593,-56.559343, -0.000002,-1727.107792,-40.384566
1443.231253,10978.074578,-56.594563,  0.000003,-1691.032777,-40.519292
1716.058049,10676.395287,-56.647253,  0.000002,-1641.383680,-40.657708
1976.476891,10335.152778,-56.716292,  0.000000,-1578.767467,-40.799614
2223.330026,9955.963877,-56.800522, -0.000001,-1503.889244,-40.944787
2455.543227,9540.582796,-56.898757, -0.000002,-1417.545047,-41.092984
2672.130172,9090.893283,-57.009778,  0.000002,-1320.613956,-41.243956
2872.196305,8608.900338,-57.132350,  0.000001,-1214.049638,-41.397424
3054.942147,8096.721472,-57.265210, -0.000000,-1098.871415,-41.553102
3219.666147,7556.577637,-57.407094, -0.000002,-976.154882,-41.710701
3365.766945,6990.783760,-57.556712,  0.000003,-847.022262,-41.869906
3492.745135,6401.739029,-57.712778,  0.000002,-712.632427,-42.030413
3600.204469,5791.916866,-57.874001,  0.000000,-574.170844,-42.191914
3687.852524,5163.854716,-58.039089, -0.000001,-432.839420,-42.354101
3755.500857,4520.143644,-58.206758,  0.000003,-289.846322,-42.516657
3803.064609,3863.417804,-58.375729,  0.000002,-146.395937,-42.679288
3830.561595,3196.343785,-58.544736,  0.000001, -3.678999,-42.841704
3838.110906,2521.609954,-58.712533, -0.000001,137.137035,-43.003615
3825.930975,1841.915727,-58.877894, -0.000002,274.917282,-43.164744
3794.337208,1159.960937,-59.039607,  0.000002,408.568318,-43.324841
3743.739143,478.435233,-59.196497,  0.000001,537.046614,-43.483660
3674.637145,-199.992411,-59.347418, -0.000000,659.366361,-43.640975
3587.618717,-872.683994,-59.491248, -0.000002,774.606848,-43.796575
3483.354409,-1537.042617,-59.626910,  0.000003,881.919055,-43.950274
3362.593348,-2190.522387,-59.753357,  0.000002,980.531626,-44.101908
3226.158425,-2830.638039,-59.869595,  0.000000,1069.756124,-44.251334
3074.941213,-3454.974238,-59.974657, -0.000001,1148.991491,-44.398427
2909.896533,-4061.194577,-60.067639,  0.000003,1217.727771,-44.543085
2732.036841,-4647.050170,-60.147673,  0.000002,1275.548939,-44.685246
2542.426343,-5210.387862,-60.213945,  0.000000,1322.135037,-44.824842
2342.174962,-5749.157976,-60.265696, -0.000001,1357.263381,-44.961846
2132.432121,-6261.421644,-60.302211,  0.000003,1380.809010,-45.096260
1914.380419,-6745.357626,-60.322839,  0.000002,1392.744296,-45.228090
1689.229229,-7199.268605,-60.326984,  0.000001,1393.137739,-45.357387
1458.208245,-7621.586976,-60.314098, -0.000001,1382.152075,-45.484205
1222.560981,-8010.880090,-60.283703,  0.000004,1360.041497,-45.608619
983.538305,-8365.854904,-60.235371,  0.000002,1327.148277,-45.730727
742.392034,-8685.362064,-60.168739,  0.000001,1283.898667,-45.850652
500.368582,-8968.399423,-60.083496, -0.000001,1230.798154,-45.968526
258.702714,-9214.114900,-59.979402,  0.000004,1168.426151,-46.084491
 18.611468,-9421.808781,-59.856259,  0.000002,1097.430149,-46.198721
-218.711781,-9590.935390,-59.713950,  0.000000,1018.519392,-46.311373
-452.103050,-9721.104129,-59.552398,  0.000005,932.458134,-46.422640
-680.433248,-9812.079922,-59.371593,  0.000003,840.058542,-46.532711
-902.613461,-9863.783052,-59.171584,  0.000002,742.173300,-46.641790
-1117.599920,-9876.288344,-58.952473,  0.000000,639.687994,-46.750069
-1324.398684,-9849.823824,-58.714416,  0.000004,533.513334,-46.857764
-1522.070076,-9784.768707,-58.457628,  0.000003,424.577266,-46.965087
-1709.732676,-9681.650866,-58.182374,  0.000001,313.817098,-47.072243
-1886.567070,-9541.143700,-57.888971, -0.000000,202.171602,-47.179437
-2051.819180,-9364.062478,-57.577789,  0.000004, 90.573265,-47.286869
-2204.803229,-9151.360133,-57.249238,  0.000002,-20.059292,-47.394739
-2344.904333,-8904.122551,-56.903782,  0.000001,-128.828726,-47.503241
-2471.580716,-8623.563389,-56.541928,  0.000005,-234.866042,-47.612558
-2584.365467,-8311.018397,-56.164223,  0.000003,-337.337339,-47.722855
-2682.867980,-7967.939332,-55.771256,  0.000001,-435.450207,-47.834317
-2766.774912,-7595.887436,-55.363648, -0.000000,-528.459651,-47.947076
-2835.850786,-7196.526553,-54.942061,  0.000004,-615.673536,-48.061283
-2889.938183,-6771.615872,-54.507186,  0.000002,-696.457540,-48.177056
-2928.957515,-6323.002357,-54.059752,  0.000000,-770.239565,-48.294515
-2952.906441,-5852.612884,-53.600505,  0.000004,-836.513523,-48.413748
-2961.858870,-5362.446132,-53.130223,  0.000003,-894.842569,-48.534851
-2955.963613,-4854.564226,-52.649702,  0.000001,-944.861712,-48.657877
-2935.442659,-4331.084206,-52.159763, -0.000001,-986.279765,-48.782888
-2900.589103,-3794.169338,-51.661240,  0.000003,-1018.880710,-48.909920
-2851.764762,-3246.020315,-51.154980,  0.000001,-1042.524350,-49.038984
-2789.397440,-2688.866346,-50.641847, -0.000000,-1057.146399,-49.170090
-2713.977936,-2124.956230,-50.122709,  0.000004,-1062.757898,-49.303224
-2626.056730,-1556.549387,-49.598441,  0.000002,-1059.444043,-49.438371
-2526.240425,-985.906933,-49.069920, -0.000000,-1047.362417,-49.575485
-2415.187979,-415.282786,-48.538029, -0.000002,-1026.740607,-49.714505
-2293.606678,153.085096,-48.003640,  0.000002,-997.873361,-49.855379
-2162.247943,716.983407,-47.467632,  0.000000,-961.119147,-49.998018
-2021.902952,1274.231973,-46.930867, -0.000002,-916.896301,-50.142338
-1873.398136,1822.692084,-46.394201,  0.000003,-865.678697,-50.288249
-1717.590535,2360.274581,-45.858477,  0.000001,-807.991038,-50.435628
-1555.363085,2884.947702,-45.324525, -0.000001,-744.403795,-50.584365
-1387.619787,3394.744640,-44.793155,  0.000003,-675.527837,-50.734336
-1215.280900,3887.770799,-44.265165,  0.000001,-602.008801,-50.885409
-1039.278055,4362.210717,-43.741322, -0.000001,-524.521290,-51.037460
-860.549389,4816.334619,-43.222378,  0.000003,-443.762857,-51.190346
-680.034743,5248.504600,-42.709055,  0.000001,-360.447950,-51.343921
-498.670866,5657.180408,-42.202052, -0.000001,-275.301739,-51.498060
-317.386712,6040.924778,-41.702033,  0.000003,-189.054035,-51.652610
-137.098872,6398.408354,-41.209639,  0.000002,-102.433147,-51.807446
 41.292937,6728.414130,-40.725474, -0.000000,-16.159930,-51.962418
216.910191,7029.841442,-40.250114,  0.000004, 69.058061,-52.117392
388.899725,7301.709458,-39.784092,  0.000002,152.532210,-52.272248
556.437721,7543.160165,-39.327915, -0.000000,233.598261,-52.426862
718.733500,7753.460897,-38.882046,  0.000004,311.621401,-52.581103
875.033105,7932.006288,-38.446913,  0.000002,386.001137,-52.734882
1024.622619,8078.319781,-38.022906, -0.000000,456.175676,-52.888082
1166.831270,8192.054558,-37.610378,  0.000004,521.626071,-53.040609
1301.034273,8272.994014,-37.209637,  0.000002,581.879831,-53.192385
1426.655385,8321.051657,-36.820956, -0.000000,636.514140,-53.343324
1543.169205,8336.270555,-36.444563,  0.000003,685.158681,-53.493372
1650.103168,8318.822235,-36.080650,  0.000001,727.497876,-53.642460
1747.039258,8269.005125,-35.729367, -0.000001,763.272707,-53.790546
1833.615412,8187.242454,-35.390825,  0.000003,792.282052,-53.937608
1909.526642,8074.079746,-35.065091,  0.000001,814.383501,-54.083599
1974.525828,7930.181805,-34.752194, -0.000001,829.493668,-54.228526
2028.424227,7756.329265,-34.452126,  0.000003,837.588032,-54.372373
2071.091686,7553.414704,-34.164838,  0.000001,838.700287,-54.515148
2102.456515,7322.438372,-33.890240, -0.000001,832.921213,-54.656871
2122.505137,7064.503494,-33.628212,  0.000003,820.397136,-54.797559
2131.281368,6780.811227,-33.378590,  0.000001,801.327866,-54.937253
2128.885481,6472.655251,-33.141180, -0.000001,775.964307,-55.076003
2115.472955,6141.416052,-32.915749,  0.000002,744.605654,-55.213856
2091.252991,5788.554888,-32.702033,  0.000000,707.596194,-55.350866
2056.486743,5415.607487,-32.499736, -0.000002,665.321853,-55.487100
2011.485350,5024.177517,-32.308528,  0.000002,618.206393,-55.622630
1956.607700,4615.929790,-32.128059, -0.000000,566.707343,-55.757540
1892.257995,4192.583334,-31.957936,  0.000004,511.311795,-55.891910
1818.883153,3755.904243,-31.797756,  0.000002,452.531913,-56.025821
1736.969950,3307.698433,-31.647078, -0.000001,390.900351,-56.159357
1647.042091,2849.804281,-31.505446,  0.000003,326.965595,-56.292626
1549.657046,2384.085175,-31.372376,  0.000001,261.287176,-56.425714
1445.402822,1912.422045,-31.247372, -0.000001,194.430896,-56.558705
1334.894582,1436.705852,-31.129914,  0.000003,126.964103,-56.691705
1218.771180,958.830113,-31.019468,  0.000001, 59.450966,-56.824804
1097.691643,480.683445,-30.915485,  0.000004, -7.552134,-56.958087
972.331560,  4.142204,-30.817402,  0.000002,-73.501066,-57.091652
843.379454,-468.936783,-30.724651, -0.000000,-137.868286,-57.225578
711.533134,-936.723381,-30.636647,  0.000004,-200.146909,-57.359953
577.496049,-1397.421113,-30.552807,  0.000001,-259.854614,-57.494846
441.973656,-1849.273979,-30.472531, -0.000001,-316.537259,-57.630342
305.669832,-2290.573051,-30.395232,  0.000003,-369.772241,-57.766504
169.283317,-2719.662846,-30.320307,  0.000001,-419.171482,-57.903390
 33.504261,-3134.947443,-30.247160,  0.000004,-464.384177,-58.041072
-100.989161,-3534.896312,-30.175195,  0.000002,-505.099092,-58.179584
-233.534018,-3918.049858,-30.103825, -0.000000,-541.046632,-58.318983
-363.485795,-4283.024649,-30.032460,  0.000003,-572.000381,-58.459294
-490.221395,-4628.518300,-29.960527,  0.000001,-597.778415,-58.600560
-613.142032,-4953.314004,-29.887453,  0.000005,-618.244103,-58.742789
-731.675937,-5256.284707,-29.812681,  0.000002,-633.306622,-58.886013
-845.280906,-5536.396886,-29.735665, -0.000000,-642.921012,-59.030234
-953.446644,-5792.713953,-29.655876,  0.000003,-647.087889,-59.175451
-1055.696974,-6024.399234,-29.572789,  0.000001,-645.852811,-59.321663
-1151.591753,-6230.718545,-29.485912,  0.000005,-639.305203,-59.468856
-1240.728684,-6411.042353,-29.394753,  0.000002,-627.577017,-59.617013
-1322.744821,-6564.847509,-29.298853, -0.000000,-610.841018,-59.766112
-1397.317933,-6691.718540,-29.197764,  0.000003,-589.308775,-59.916122
-1464.167570,-6791.348518,-29.091065,  0.000001,-563.228348,-60.067007
-1523.055986,-6863.539508,-28.978356,  0.000004,-532.881717,-60.218723
-1573.788754,-6908.202565,-28.859256,  0.000002,-498.581958,-60.371231
-1616.215207,-6925.357322,-28.733409,  0.000005,-460.670225,-60.524476
-1650.228637,-6915.131140,-28.600489,  0.000003,-419.512533,-60.678416
-1675.766266,-6877.757853,-28.460188,  0.000000,-375.496344,-60.832985
-1692.808998,-6813.576090,-28.312229,  0.000003,-329.027114,-60.988127
-1701.380938,-6723.027229,-28.156359,  0.000001,-280.524635,-61.143785
-1701.548738,-6606.652920,-27.992354,  0.000004,-230.419410,-61.299888
-1693.420689,-6465.092258,-27.820011,  0.000002,-179.148938,-61.456382
-1677.145650,-6299.078605,-27.639161,  0.000005,-127.153965,-61.613192
-1652.911769,-6109.436022,-27.449662,  0.000002,-74.874872,-61.770264
-1620.945013,-5897.075422,-27.251391,  0.000006,-22.747972,-61.927533
-1581.507559,-5662.990377,-27.044267,  0.000003, 28.797968,-62.084937
-1534.895988,-5408.252625,-26.828223,  0.000000, 79.345177,-62.242413
-1481.439327,-5134.007349,-26.603223,  0.000004,128.490183,-62.399900
-1421.497005,-4841.468122,-26.369265,  0.000001,175.846908,-62.557344
-1355.456600,-4531.911715,-26.126365,  0.000004,221.049595,-62.714695
-1283.731544,-4206.672604,-25.874568,  0.000001,263.755575,-62.871887
-1206.758689,-3867.137358,-25.613944,  0.000004,303.647714,-63.028890
-1124.995801,-3514.738808,-25.344590,  0.000002,340.436664,-63.185659
-1038.918960,-3150.950135,-25.066630,  0.000005,373.862875,-63.342138
-949.019933,-2777.278778,-24.780202,  0.000002,403.698276,-63.498312
-855.803480,-2395.260296,-24.485480,  0.000005,429.747719,-63.654139
-759.784618,-2006.452145,-24.182650,  0.000002,451.850088,-63.809596
-661.485913,-1612.427417,-23.871920, -0.000001,469.879175,-63.964655
-561.434709,-1214.768566,-23.553530,  0.000002,483.744166,-64.119307
-460.160428,-815.061128,-23.227727, -0.000000,493.389927,-64.273534
-358.191835,-414.887477,-22.894778,  0.000003,498.796905,-64.427334
-256.054402,-15.820669,-22.554973, -0.000000,499.980793,-64.580694
-154.267669,380.581698,-22.208616,  0.000003,496.991878,-64.733630
-53.342709,772.783448,-21.856024, -0.000000,489.914142,-64.886144
 46.220355,1159.275727,-21.497532,  0.000003,478.864079,-65.038232
143.934748,1538.582706,-21.133484, -0.000000,463.989252,-65.189928
239.329310,1909.267155,-20.764236,  0.000003,445.466622,-65.341243
331.950694,2269.935782,-20.390157,  0.000000,423.500680,-65.492199
421.365427,2619.244410,-20.011627,  0.000003,398.321374,-65.642812
507.161839,2955.902891,-19.629027,  0.000000,370.181792,-65.793127
588.951883,3278.679782,-19.242749,  0.000003,339.355804,-65.943170
666.372766,3586.406762,-18.853189,  0.000000,306.135459,-66.092973
739.088476,3877.982770,-18.460749,  0.000003,270.828330,-66.242566
806.791136,4152.377844,-18.065834,  0.000000,233.754737,-66.391997
869.202184,4408.636663,-17.668851,  0.000003,195.244961,-66.541299
926.073432,4645.881763,-17.270202,  0.000000,155.636320,-66.690514
977.187891,4863.316423,-16.870293,  0.000003,115.270333,-66.839680
1022.360503,5060.227233,-16.469528, -0.000000, 74.489809,-66.988848
1061.438643,5235.986300,-16.068306,  0.000003, 33.636030,-67.138047
1094.302471,5390.053088,-15.667021, -0.000000, -6.954073,-67.287323
1120.865137,5521.975946,-15.266066,  0.000003,-46.950603,-67.436713
1141.072775,5631.393246,-14.865820, -0.000000,-86.033339,-67.586269
1154.904356,5718.034155,-14.466663,  0.000002,-123.894226,-67.736013
1162.371366,5781.719068,-14.068960, -0.000001,-160.239749,-67.885984
1163.517342,5822.359654,-13.673068,  0.000002,-194.793137,-68.036225
1158.417219,5839.958580,-13.279331, -0.000001,-227.296391,-68.186762
1147.176571,5834.608841,-12.888088,  0.000002,-257.512176,-68.337631
1129.930659,5806.492766,-12.499657,  0.000005,-285.225433,-68.488850
1106.843371,5755.880667,-12.114350,  0.000002,-310.244853,-68.640442
1078.106027,5683.129163,-11.732464,  0.000005,-332.404145,-68.792441
1043.936062,5588.679178,-11.354276,  0.000001,-351.562964,-68.944864
1004.575580,5473.053595,-10.980052,  0.000004,-367.607774,-69.097721
960.289812,5336.854657,-10.610043,  0.000001,-380.452345,-69.251028
911.365480,5180.761024,-10.244482,  0.000004,-390.038107,-69.404789
858.109074,5005.524586, -9.883582,  0.000000,-396.334188,-69.559019
800.845035,4811.966980, -9.527545,  0.000003,-399.337309,-69.713714
739.913900,4600.975894, -9.176549, -0.000000,-399.071388,-69.868875
675.670347,4373.501117, -8.830759,  0.000003,-395.586965,-70.024497
608.481239,4130.550374, -8.490318,  0.000005,-388.960376,-70.180581
538.723614,3873.184952, -8.155355,  0.000002,-379.292775,-70.337116
466.782626,3602.515186, -7.825976,  0.000005,-366.708930,-70.494088
393.049506,3319.695737, -7.502269,  0.000001,-351.355856,-70.651480
317.919515,3025.920767, -7.184306,  0.000004,-333.401270,-70.809277
241.789863,2722.418969, -6.872137,  0.000001,-313.031932,-70.967466
165.057708,2410.448506, -6.565793,  0.000003,-290.451791,-71.126011
 88.118130,2091.291873, -6.265295,  0.000006,-265.880084,-71.284900
 11.362152,1766.250691, -5.970631,  0.000002,-239.549310,-71.444101
-64.825160,1436.640467, -5.681787,  0.000005,-211.703101,-71.603599
-140.066593,1103.785352, -5.398717,  0.000001,-182.594063,-71.763350
-213.994579,769.012868, -5.121369,  0.000004,-152.481550,-71.923343
-286.252935,433.648694, -4.849666,  0.000006,-121.629457,-72.083539
-356.498517, 99.011472, -4.583525,  0.000003,-90.303936,-72.243901
-424.402786,-233.592320, -4.322830,  0.000005,-58.771204,-72.404413
-489.653282,-562.873385, -4.067467,  0.000001,-27.295348,-72.565036
-551.955002,-887.564562, -3.817298,  0.000004,  3.863881,-72.725738
-611.031654,-1206.425625, -3.572170,  0.000006, 34.453052,-72.886495
-666.626833,-1518.247965, -3.331922,  0.000002, 64.227135,-73.047277
-718.505037,-1821.859104, -3.096374,  0.000005, 92.951369,-73.208059
-766.452611,-2116.127031, -2.865339,  0.000001,120.403039,-73.368811
-810.278530,-2399.964373, -2.638614,  0.000003,146.373149,-73.529496
-849.815084,-2672.332317, -2.415991,  0.000005,170.667947,-73.690110
-884.918418,-2932.244369, -2.197244,  0.000002,193.110317,-73.850617
-915.468958,-3178.769830, -1.982142,  0.000004,213.540974,-74.010998
-941.371700,-3411.037072, -1.770450,  0.000000,231.819514,-74.171231
-962.556368,-3628.236522, -1.561919,  0.000002,247.825347,-74.331299
-978.977455,-3829.623407, -1.356295,  0.000004,261.458346,-74.491190
-990.614146,-4014.520220, -1.153320,  0.000001,272.639425,-74.650893
-997.470087,-4182.318893, -0.952728,  0.000003,281.310834,-74.810390
-999.573047,-4332.482699, -0.754252,  0.000005,287.436405,-74.969674
-996.974493,-4464.547851, -0.557621,  0.000001,291.001438,-75.128738
-989.749002,-4578.124811, -0.362558,  0.000003,292.012589,-75.287572
-977.993586,-4672.899277, -0.168792,  0.000005,290.497496,-75.446182
-961.826924,-4748.632910,  0.023959,  0.000001,286.504215,-75.604559
-941.388478,-4805.163711,  0.215965,  0.000003,280.100529,-75.762707
-916.837507,-4842.406123,  0.407510,  0.000005,271.373166,-75.920628
-888.352032,-4860.350838,  0.598859,  0.000001,260.426707,-76.078329
-856.127660,-4859.064278,  0.790284,  0.000003,247.382578,-76.235817
-820.376402,-4838.687817,  0.982057,  0.000005,232.377705,-76.393094
-781.325362,-4799.436686,  1.174438,  0.000001,215.563239,-76.550176
-739.215416,-4741.598615,  1.367688,  0.000003,197.103031,-76.707077
-694.299792,-4665.532189,  1.562057,  0.000005,177.172168,-76.863793
-646.842652,-4571.664934,  1.757793,  0.000001,155.955317,-77.020355
-597.117603,-4460.491181,  1.955140,  0.000003,133.645084,-77.176770
-545.406199,-4332.569624,  2.154325,  0.000004,110.440306,-77.333053
-491.996397,-4188.520691,  2.355572,  0.000000, 86.544320,-77.489223
-437.181042,-4029.023687,  2.559099,  0.000002, 62.163221,-77.645295
-381.256303,-3854.813682,  2.765113,  0.000004, 37.504131,-77.801280
-324.520152,-3666.678271,  2.973810, -0.000000, 12.773465,-77.957196
-267.270809,-3465.454090,  3.185377,  0.000002,-11.824771,-78.113070
-209.805252,-3252.023202,  3.399988,  0.000003,-36.090597,-78.268911
-152.417719,-3027.309312,  3.617807, -0.000001,-59.829670,-78.424729
-95.398255,-2792.273853,  3.838992,  0.000001,-82.854800,-78.580551
-39.031309,-2547.911950,  4.063681,  0.000003,-104.987409,-78.736387
 16.405641,-2295.248284,  4.292003,  0.000004,-126.058839,-78.892252
 70.643397,-2035.332846,  4.524083,  0.000000,-145.911641,-79.048157
123.422310,-1769.236680,  4.760017,  0.000002,-164.400695,-79.204116
174.493438,-1498.047489,  4.999904,  0.000004,-181.394195,-79.360146
223.619712,-1222.865281,  5.243823, -0.000001,-196.774626,-79.516252
270.576943,-944.797970,  5.491841,  0.000001,-210.439427,-79.672439
315.154797,-664.956952,  5.744014,  0.000003,-222.301704,-79.828722
357.157704,-384.452751,  6.000383,  0.000004,-232.290662,-79.985111
396.405634,-104.390650,  6.260976,  0.000000,-240.351985,-80.141600
432.734808,174.133595,  6.525817,  0.000002,-246.448053,-80.298201
465.998329,450.037993,  6.794903,  0.000003,-250.557970,-80.454913
496.066693,722.258458,  7.068231,  0.000005,-252.677549,-80.611737
522.828241,989.752852,  7.345778,  0.000001,-252.819053,-80.768671
546.189467,1251.504927,  7.627514,  0.000002,-251.010890,-80.925713
566.075267,1506.528121,  7.913397,  0.000004,-247.297135,-81.082861
582.429100,1753.869213,  8.203367,  0.000005,-241.736940,-81.240111
595.213004,1992.611838,  8.497365,  0.000001,-234.403823,-81.397458
604.407570,2221.879803,  8.795309,  0.000002,-225.384867,-81.554891
610.011792,2440.840258,  9.097115,  0.000004,-214.779779,-81.712395
612.042839,2648.706642,  9.402684,  0.000005,-202.699917,-81.869972
610.535728,2844.741444,  9.711915,  0.000001,-189.267187,-82.027608
605.542917,3028.258761, 10.024687,  0.000002,-174.612880,-82.185290
597.133837,3198.626597, 10.340876,  0.000003,-158.876470,-82.343001
585.394277,3355.268996, 10.660353,  0.000005,-142.204323,-82.500737
570.425785,3497.667862, 10.982978,  0.000006,-124.748415,-82.658465
552.344923,3625.364635, 11.308602,  0.000002,-106.664968,-82.816197
531.282486,3737.961614, 11.637074,  0.000003,-88.113138,-82.973894
507.382680,3835.123131, 11.968235,  0.000004,-69.253619,-83.131551
480.802185,3916.576411, 12.301920,  0.000005,-50.247332,-83.289149
451.709234,3982.112185, 12.637956,  0.000007,-31.254057,-83.446675
420.282589,4031.585087, 12.976176,  0.000002,-12.431185,-83.604110
386.710510,4064.913768, 13.316396,  0.000003,  6.067616,-83.761445
351.189689,4082.080751, 13.658437,  0.000004, 24.093550,-83.918656
313.924134,4083.132050, 14.002120,  0.000005, 41.503883,-84.075727
275.124042,4068.176559, 14.347253,  0.000006, 58.163030,-84.232645
235.004673,4037.385162, 14.693657,  0.000002, 73.943557,-84.389397
193.785176,3990.989637, 15.041137,  0.000003, 88.727120,-84.545966
151.687437,3929.281308, 15.389511,  0.000004,102.405332,-84.702335
108.934929,3852.609496, 15.738590,  0.000005,114.880469,-84.858504
 65.751556,3761.379728, 16.088186,  0.000006,126.066158,-85.014446
 22.360507,3656.051755, 16.438119,  0.000007,135.887902,-85.170158
-21.016854,3537.137359, 16.788199,  0.000002,144.283548,-85.325622
-64.162080,3405.197995, 17.138252,  0.000002,151.203595,-85.480841
-106.860718,3260.842229, 17.488098,  0.000003,156.611427,-85.635794
-148.903338,3104.723019, 17.837563,  0.000004,160.483438,-85.790471
-190.086539,2937.534832, 18.186479,  0.000005,162.809023,-85.944882
-230.213871,2760.010655, 18.534676,  0.000006,163.590506,-86.098997
-269.096766,2572.918821, 18.881999,  0.000007,162.842890,-86.252829
-306.555385,2377.059757, 19.228289,  0.000002,160.593587,-86.406370
-342.419405,2173.262632, 19.573401,  0.000002,156.882003,-86.559614
-376.528770,1962.381870, 19.917187,  0.000003,151.759012,-86.712558
-408.734349,1745.293659, 20.259512,  0.000004,145.286431,-86.865202
-438.898577,1522.892341, 20.600241,  0.000004,137.536272,-87.017545
-466.895980,1296.086770, 20.939259,  0.000005,128.590082,-87.169586
-492.613664,1065.796672, 21.276447,  0.000006,118.538068,-87.321329
-515.951719,832.948927, 21.611693,  0.000006,107.478268,-87.472776
-536.823553,598.473919, 21.944899,  0.000001, 95.515610,-87.623913
-555.156169,363.301843, 22.275975,  0.000001, 82.760945,-87.774763
-570.890351,128.359050, 22.604832,  0.000002, 69.330065,-87.925326
-583.980797,-105.435528, 22.931397,  0.000003, 55.342658,-88.075595
-594.396139,-337.173963, 23.255604,  0.000003, 40.921274,-88.225574
-602.118966,-565.962784, 23.577389,  0.000004, 26.190280,-88.375278
-607.145695,-790.926402, 23.896704,  0.000004, 11.274770,-88.524701
-609.486428,-1011.210410, 24.213507,  0.000004, -3.700407,-88.673860
-609.164714,-1225.984769, 24.527765,  0.000005,-18.611752,-88.822745
-606.217277,-1434.446913, 24.839452,  0.000005,-33.338054,-88.971370
-600.693637,-1635.824696, 25.148554,  0.000006,-47.761391,-89.119737
-592.655705,-1829.379188, 25.455063,  0.000006,-61.768038,-89.267840
-582.177305,-2014.407369, 25.758977,  0.000000,-75.249349,-89.415700
-569.343668,-2190.244603, 26.060309,  0.000001,-88.102580,-89.563308
-554.250815,-2356.266989, 26.359072,  0.000001,-100.231675,-89.710674
-537.004967,-2511.893525, 26.655298,  0.000001,-111.547899,-89.857806
-517.721862,-2656.588060, 26.949013,  0.000002,-121.970522,-90.004686
-496.526044,-2789.861114, 27.240262,  0.000002,-131.427352,-90.151336
-473.550128,-2911.271435, 27.529090,  0.000002,-139.855208,-90.297749
-448.934011,-3020.427413, 27.815559,  0.000002,-147.200299,-90.443933
-422.824094,-3116.988251, 28.099722,  0.000003,-153.418534,-90.589878
-395.372439,-3200.664945, 28.381651,  0.000003,-158.475756,-90.735588
-366.735922,-3271.221062, 28.661425,  0.000003,-162.347882,-90.881063
-337.075395,-3328.473288, 28.939120,  0.000003,-165.020946,-91.026296
-306.554817,-3372.291770, 29.214827,  0.000003,-166.491072,-91.171292
-275.340377,-3402.600249, 29.488634,  0.000004,-166.764343,-91.316047
-243.599624,-3419.375989, 29.760641,  0.000004,-165.856634,-91.460554
-211.500615,-3422.649474, 30.030949,  0.000004,-163.793330,-91.604812
-179.211039,-3412.503933, 30.299665,  0.000004,-160.608980,-91.748810
-146.897399,-3389.074617, 30.566894,  0.000004,-156.346859,-91.892546
-114.724151,-3352.547922, 30.832754,  0.000004,-151.058523,-92.036019
-82.852939,-3303.160291, 31.097362,  0.000004,-144.803221,-92.179208
-51.441777,-3241.196923, 31.360833,  0.000004,-137.647334,-92.322124
-20.644321,-3166.990333, 31.623292,  0.000004,-129.663694,-92.464744
  9.390860,-3080.918688, 31.884860,  0.000004,-120.930915,-92.607061
 38.520982,-2983.404024, 32.145662,  0.000004,-111.532632,-92.749070
 66.609668,-2874.910269, 32.405827,  0.000004,-101.556785,-92.890763
 93.527572,-2755.941132, 32.665480,  0.000004,-91.094773,-93.032133
119.152950,-2627.037849, 32.924749,  0.000003,-80.240687,-93.173160
143.372154,-2488.776792, 33.183758,  0.000003,-69.090500,-93.313843
166.080130,-2341.766962, 33.442639,  0.000003,-57.741213,-93.454161
187.180810,-2186.647375, 33.701510,  0.000003,-46.290082,-93.594112
206.587501,-2024.084335, 33.960502,  0.000003,-34.833786,-93.733679
224.223208,-1854.768643, 34.219740,  0.000002,-23.467640,-93.872858
240.020878,-1679.412699, 34.479339,  0.000002,-12.284838,-94.011634
253.923627,-1498.747565, 34.739422,  0.000008, -1.375710,-94.149992
265.884881,-1313.519971, 35.000103,  0.000007,  9.172977,-94.287931
275.868505,-1124.489266, 35.261498,  0.000007, 19.278691,-94.425428
283.848820,-932.424360, 35.523717,  0.000007, 28.863757,-94.562482
289.810620,-738.100633, 35.786864,  0.000006, 37.855903,-94.699078
293.749109,-542.296855, 36.051048,  0.000006, 46.188823,-94.835206
295.669786,-345.792108, 36.316362,  0.000005, 53.802583,-94.970857
295.588277,-149.362730, 36.582905,  0.000005, 60.644067,-95.106015
293.530160, 46.220716, 36.850766,  0.000004, 66.667293,-95.240673
289.530659,240.196421, 37.120031,  0.000003, 71.833685,-95.374836
283.634372,431.814252, 37.390782,  0.000003, 76.112327,-95.508474
275.894931,620.338611, 37.663093,  0.000008, 79.480037,-95.641586
266.374586,805.051215, 37.937036,  0.000007, 81.921514,-95.774167
255.143799,985.253806, 38.212674,  0.000007, 83.429301,-95.906207
242.280776,1160.270726, 38.490069,  0.000006, 84.003758,-96.037703
227.870974,1329.451423, 38.769274,  0.000005, 83.652936,-96.168646
212.006576,1492.172813, 39.050337,  0.000004, 82.392418,-96.299026
194.785935,1647.841541, 39.333300,  0.000003, 80.245055,-96.428836
176.312994,1795.896086, 39.618202,  0.000002, 77.240681,-96.558073
156.696695,1935.808748, 39.905073,  0.000007, 73.415783,-96.686734
136.050362,2067.087481, 40.193938,  0.000007, 68.813070,-96.814809
114.491068,2189.277558, 40.484816,  0.000006, 63.481066,-96.942295
 92.139000,2301.963096, 40.777719,  0.000005, 57.473622,-97.069193
 69.116796,2404.768419, 41.072653,  0.000004, 50.849347,-97.195486
 45.548921,2497.359244, 41.369626,  0.000002, 43.671122,-97.321183
 21.560988,2579.443699, 41.668627,  0.000001, 36.005489,-97.446278
 -2.720881,2650.773160, 41.969648,  0.000006, 27.922026,-97.570766
-27.170699,2711.142940, 42.272677,  0.000005, 19.492787,-97.694650
-51.663257,2760.392763, 42.577690,  0.000004, 10.791607,-97.817911
-76.074732,2798.407092, 42.884660,  0.000003,  1.893514,-97.940562
-100.283308,2825.115253, 43.193562,  0.000002, -7.125926,-98.062595
-124.169774,2840.491412, 43.504355,  0.000006,-16.191225,-98.184000
-147.618068,2844.554344, 43.816997,  0.000005,-25.227633,-98.304795
-170.515844,2837.367063, 44.131448,  0.000004,-34.161686,-98.424955
-192.754987,2819.036241, 44.447653,  0.000003,-42.921838,-98.544486
-214.232105,2789.711492, 44.765559,  0.000001,-51.439017,-98.663389
-234.848985,2749.584495, 45.085109,  0.000006,-59.647142,-98.781656
-254.513035,2698.887922, 45.406242,  0.000005,-67.483634,-98.899289
-273.137669,2637.894251, 45.728890,  0.000003,-74.889879,-99.016283
-290.642672,2566.914411, 46.052986,  0.000002,-81.811657,-99.132635
-306.954524,2486.296300, 46.378460,  0.000006,-88.199538,-99.248342
-322.006680,2396.423148, 46.705235,  0.000005,-94.009185,-99.363395
-335.739833,2297.711776, 47.033230,  0.000004,-99.201680,-99.477802
-348.102094,2190.610711, 47.362374,  0.000002,-103.743758,-99.591548
-359.049179,2075.598221, 47.692583,  0.000001,-107.607998,-99.704636
-368.544542,1953.180214, 48.023771,  0.000005,-110.772936,-99.817055
-376.559421,1823.888068, 48.355852,  0.000003,-113.223223,-99.928808
-383.072932,1688.276364, 48.688744,  0.000002,-114.949590,-100.039881
-388.072046,1546.920550, 49.022360,  0.000006,-115.948884,-100.150279
-391.551545,1400.414535, 49.356612,  0.000005,-116.223980,-100.259984
-393.513975,1249.368227, 49.691414,  0.000003,-115.783700,-100.368996
-393.969512,1094.405045, 50.026674,  0.000001,-114.642621,-100.477307
-392.935822,936.159347, 50.362303,  0.000006,-112.820874,-100.584914
-390.437866,775.273907, 50.698222,  0.000004,-110.343925,-100.691812
-386.507693,612.397291, 51.034334,  0.000002,-107.242279,-100.797986
-381.184170,448.181304, 51.370560,  0.000006,-103.551117,-100.903427
-374.512716,283.278410, 51.706813,  0.000005,-99.310005,-101.008138
-366.544966,118.339149, 52.043011,  0.000003,-94.562439,-101.112099
-357.338454,-45.990383, 52.379067,  0.000001,-89.355480,-101.215311
-346.956220,-209.071048, 52.714906,  0.000005,-83.739280,-101.317757
-335.466447,-370.273112, 53.050450,  0.000003,-77.766638,-101.419434
-322.942026,-528.978652, 53.385618,  0.000002,-71.492532,-101.520338
-309.460140,-684.583898, 53.720344,  0.000006,-64.973620,-101.620439
-295.101820,-836.501500, 54.054552,  0.000004,-58.267752,-101.719754
-279.951479,-984.162718, 54.388173,  0.000002,-51.433498,-101.818250
-264.096429,-1127.019513, 54.721149,  0.000006,-44.529606,-101.915933
-247.626438,-1264.546561, 55.053409,  0.000004,-37.614567,-102.012784
-230.633208,-1396.243134, 55.384901,  0.000008,-30.746107,-102.108799
-213.209902,-1521.634915, 55.715566,  0.000006,-23.980733,-102.203964
-195.450657,-1640.275654, 56.045355,  0.000004,-17.373268,-102.298273
-177.450085,-1751.748729, 56.374215,  0.000007,-10.976447,-102.391710
-159.302796,-1855.668555, 56.702107,  0.000005, -4.840497,-102.484275
-141.102921,-1951.681902, 57.028988,  0.000003,  0.987234,-102.575944
-122.943633,-2039.469029, 57.354816,  0.000007,  6.462641,-102.666714
-104.916696,-2118.744716, 57.679566,  0.000004, 11.545146,-102.756584
-87.112017,-2189.259131, 58.003202,  0.000008, 16.198025,-102.845527
-69.617217,-2250.798566, 58.325701,  0.000006, 20.388618,-102.933548
-52.517206,-2303.186008, 58.647044,  0.000003, 24.088561,-103.020627
-35.893800,-2346.281592, 58.967211,  0.000007, 27.273938,-103.106760
-19.825357,-2379.982877, 59.286186,  0.000005, 29.925445,-103.191936
 -4.386397,-2404.224980, 59.603965,  0.000008, 32.028463,-103.276143
 10.352698,-2418.980577, 59.920540,  0.000006, 33.573091,-103.359376
 24.326015,-2424.259731, 60.235910,  0.000003, 34.554202,-103.441631
 37.472350,-2420.109602, 60.550075,  0.000006, 34.971379,-103.522889
 49.735489,-2406.613996, 60.863040,  0.000004, 34.828882,-103.603152
 61.064406,-2383.892765, 61.174818,  0.000007, 34.135523,-103.682403
 71.413475,-2352.101108, 61.485423,  0.000005, 32.904523,-103.760628
 80.742606,-2311.428691, 61.794866,  0.000008, 31.153368,-103.837833
 89.017398,-2262.098666, 62.103172,  0.000005, 28.903567,-103.914007
 96.209237,-2204.366573, 62.410363,  0.000008, 26.180444,-103.989139
102.295344,-2138.519087, 62.716463,  0.000005, 23.012861,-104.063221
107.258849,-2064.872685, 63.021508,  0.000003, 19.432938,-104.136251
111.088766,-1983.772204, 63.325522,  0.000006, 15.475728,-104.208211
113.780010,-1895.589277, 63.628548,  0.000003, 11.178899,-104.279110
115.333316,-1800.720678, 63.930618,  0.000006,  6.582363,-104.348925
115.755158,-1699.586615, 64.231773,  0.000003,  1.727954,-104.417657
115.057676,-1592.628897, 64.532060,  0.000006, -3.340989,-104.485293
113.258506,-1480.309052, 64.831520,  0.000003, -8.579962,-104.551836
110.380643,-1363.106377, 65.130202,  0.000006,-13.943719,-104.617273
106.452244,-1241.515944, 65.428153,  0.000003,-19.386630,-104.681603
101.506420,-1116.046537, 65.725423,  0.000006,-24.863050,-104.744815
 95.581004,-987.218561, 66.022061,  0.000003,-30.327733,-104.806901
 88.718310,-855.561916, 66.318125,  0.000006,-35.736176,-104.867852
 80.964845,-721.613875, 66.613668,  0.000002,-41.044977,-104.927672
 72.371033,-585.916884, 66.908739,  0.000005,-46.212183,-104.986345
 62.990905,-449.016436, 67.203400,  0.000008,-51.197617,-105.043869
 52.881763,-311.458899, 67.497705,  0.000005,-55.963155,-105.100242
 42.103891,-173.789349, 67.791712,  0.000007,-60.473067,-105.155445
 30.720154,-36.549477, 68.085472,  0.000004,-64.694212,-105.209479
 18.795694, 99.724546, 68.379044,  0.000007,-68.596335,-105.262339
  6.397554,234.504113, 68.672489,  0.000003,-72.152220,-105.314018
 -6.405692,367.270204, 68.965855,  0.000006,-75.337914,-105.364500
-19.544299,497.515353, 69.259202,  0.000003,-78.132855,-105.413789
-32.947708,624.745563, 69.552584,  0.000005,-80.519978,-105.461871
-46.544944,748.482141, 69.846056,  0.000007,-82.485861,-105.508740
-60.264946,868.263466, 70.139666,  0.000004,-84.020717,-105.554400
-74.036945,983.646685, 70.433472,  0.000006,-85.118463,-105.598824
-87.790816,1094.209313, 70.727518,  0.000003,-85.776695,-105.642013
-101.457420,1199.550750, 71.021853,  0.000005,-85.996672,-105.683962
-114.968957,1299.293691, 71.316530,  0.000007,-85.783246,-105.724657
-128.259269,1393.085448, 71.611591,  0.000004,-85.144762,-105.764097
-141.264160,1480.599150, 71.907078,  0.000006,-84.092950,-105.802268
-153.921708,1561.534857, 72.203035,  0.000002,-82.642779,-105.839171
-166.172534,1635.620530, 72.499496,  0.000005,-80.812272,-105.874781
-177.960076,1702.612917, 72.796506,  0.000007,-78.622325,-105.909104
-189.230844,1762.298284, 73.094096,  0.000003,-76.096498,-105.942127
-199.934641,1814.493068, 73.392295,  0.000005,-73.260771,-105.973831
-210.024768,1859.044363, 73.691140,  0.000007,-70.143304,-106.004224
-219.458243,1895.830322, 73.990655,  0.000003,-66.774166,-106.033292
-228.195943,1924.760394, 74.290864,  0.000005,-63.185055,-106.061015
-236.202757,1945.775480, 74.591793,  0.000007,-59.409037,-106.087387
-243.447727,1958.847928, 74.893459,  0.000003,-55.480220,-106.112409
-249.904139,1963.981434, 75.195880,  0.000005,-51.433473,-106.136065
-255.549596,1961.210786, 75.499069,  0.000007,-47.304149,-106.158348
-260.366091,1950.601518, 75.803040,  0.000003,-43.127739,-106.179237
-264.340037,1932.249452, 76.107800,  0.000005,-38.939629,-106.198740
-267.462271,1906.280079, 76.413357,  0.000007,-34.774769,-106.216830
-269.728052,1872.847878, 76.719714,  0.000003,-30.667409,-106.233512
-271.137024,1832.135504, 77.026872,  0.000004,-26.650824,-106.248764
-271.693164,1784.352864, 77.334828,  0.000006,-22.757070,-106.262593
-271.404698,1729.736107, 77.643574,  0.000002,-19.016698,-106.274967
-270.284013,1668.546518, 77.953111,  0.000004,-15.458559,-106.285892
-268.347540,1601.069304, 78.263422,  0.000005,-12.109590,-106.295345
-265.615620,1527.612319, 78.574500,  0.000007, -8.994581,-106.303331
-262.112335,1448.504687, 78.886328,  0.000003, -6.136052,-106.309834
-257.865368,1364.095366, 79.198884,  0.000004, -3.554071,-106.314845
-252.905780,1274.751646, 79.512158,  0.000006, -1.266137,-106.318356
-247.267841,1180.857571, 79.826121,  0.000007,  0.712955,-106.320357
-240.988796,1082.812305, 80.140751,  0.000003,  2.371147,-106.320833
-234.108651,981.028488, 80.456026,  0.000004,  3.699234,-106.319775
-226.669922,875.930499, 80.771910,  0.000006,  4.690858,-106.317184
-218.717397,767.952719, 81.088382,  0.000007,  5.342522,-106.313037
-210.297878,657.537753, 81.405404,  0.000002,  5.653598,-106.307337
-201.459909,545.134638, 81.722943,  0.000004,  5.626299,-106.300069
-192.253530,431.197042, 82.040971,  0.000005,  5.265558,-106.291220
-182.729983,316.181442, 82.359445,  0.000006,  4.579045,-106.280795
-172.941444,200.545323, 82.678327,  0.000008,  3.576953,-106.268774
-162.940755, 84.745371, 82.997585,  0.000003,  2.271982,-106.255147
-152.781133,-30.764308, 83.317171,  0.000004,  0.679129,-106.239913
-142.515912,-145.533954, 83.637050,  0.000005, -1.184452,-106.223055
-132.198258,-259.119875, 83.957181,  0.000006, -3.299598,-106.204576
-121.880916,-371.086167, 84.277516,  0.000008, -5.645373,-106.184460
-111.615928,-481.006345, 84.598017,  0.000003, -8.199200,-106.162695
-101.454403,-588.464956, 84.918637,  0.000004,-10.937148,-106.139286
-91.446253,-693.059143, 85.239335,  0.000005,-13.834087,-106.114208
-81.639965,-794.400114, 85.560067,  0.000006,-16.863932,-106.087467
-72.082372,-892.114587, 85.880790,  0.000007,-19.999879,-106.059058
-62.818440,-985.846129, 86.201455,  0.000008,-23.214646,-106.028958
-53.891045,-1075.256448, 86.522024,  0.000002,-26.480662,-105.997165
-45.340824,-1160.026578, 86.842452,  0.000003,-29.770365,-105.963676
-37.205946,-1239.858010, 87.162694,  0.000004,-33.056365,-105.928475
-29.522006,-1314.473702, 87.482707,  0.000005,-36.311699,-105.891564
-22.321826,-1383.619020, 87.802449,  0.000006,-39.510052,-105.852931
-15.635367,-1447.062580, 88.121882,  0.000007,-42.625938,-105.812564
 -9.489590,-1504.596998, 88.440964,  0.000007,-45.634937,-105.770465
 -3.908354,-1556.039509, 88.759652,  0.000008,-48.513846,-105.726625
  1.087632,-1601.232550, 89.077911,  0.000003,-51.240870,-105.681033
  5.480909,-1640.044153, 89.395703,  0.000003,-53.795767,-105.633679
  9.257307,-1672.368326, 89.712992,  0.000004,-56.160023,-105.584555
 12.405950,-1698.125251, 90.029742,  0.000004,-58.316940,-105.533654
 14.919297,-1717.261439, 90.345918,  0.000005,-60.251779,-105.480976
 16.793133,-1729.749727, 90.661486,  0.000005,-61.951848,-105.426509
 18.026526,-1735.589224, 90.976423,  0.000006,-63.406547,-105.370249
 18.621815,-1734.805119, 91.290694,  0.000006,-64.607473,-105.312182
 18.584544,-1727.448390, 91.604268,  0.000007,-65.548408,-105.252302
 17.923387,-1713.595439, 91.917127,  0.000007,-66.225390,-105.190599
 16.650084,-1693.347588, 92.229240,  0.000007,-66.636680,-105.127072
 14.779313,-1666.830538, 92.540588,  0.000008,-66.782730,-105.061710
 12.328612,-1634.193683, 92.851147,  0.000008,-66.666199,-104.994509
  9.318223,-1595.609358, 93.160901,  0.000008,-66.291840,-104.925455
  5.770970,-1551.272004, 93.469832,  0.000008,-65.666481,-104.854543
  1.712104,-1501.397257, 93.777922,  0.000008,-64.798910,-104.781765
 -2.830840,-1446.220936, 94.085159,  0.000008,-63.699772,-104.707113
 -7.828240,-1385.997997, 94.391530,  0.000008,-62.381473,-104.630578
-13.248536,-1321.001380, 94.697026,  0.000008,-60.858051,-104.552158
-19.058432,-1251.520826, 95.001637,  0.000002,-59.145012,-104.471843
-25.223080,-1177.861604, 95.305360,  0.000002,-57.259195,-104.389623
-31.706279,-1100.343226, 95.608185,  0.000002,-55.218636,-104.305484
-38.470669,-1019.298076, 95.910114,  0.000008,-53.042355,-104.219431
-45.477946,-935.070032, 96.211143,  0.000007,-50.750247,-104.131452
-52.689054,-848.013018, 96.511275,  0.000007,-48.362826,-104.041533
-60.064413,-758.489559, 96.810506,  0.000007,-45.901127,-103.949668
-67.564094,-666.869294, 97.108846,  0.000007,-43.386477,-103.855853
-75.148061,-573.527477, 97.406299,  0.000006,-40.840325,-103.760081
-82.776348,-478.843466, 97.702868,  0.000006,-38.284059,-103.662338
-90.409280,-383.199202, 97.998566,  0.000005,-35.738848,-103.562626
-98.007649,-286.977705, 98.293400,  0.000005,-33.225458,-103.460923
-105.532918,-190.561548, 98.587380,  0.000004,-30.764083,-103.357231
-112.947418,-94.331377, 98.880524,  0.000004,-28.374194,-103.251544
-120.214509,  1.335588, 99.172836,  0.000003,-26.074377,-103.143848
-127.298756, 96.066989, 99.464338,  0.000003,-23.882228,-103.034145
-134.166092,189.496761, 99.755043,  0.000002,-21.814162,-102.922415
-140.783991,281.266532,100.044968,  0.000002,-19.885356,-102.808659
-147.121589,371.026966,100.334129,  0.000001,-18.109595,-102.692865
-153.149821,458.439067,100.622547,  0.000001,-16.499217,-102.575038
-158.841564,543.175443,100.910240,  0.000000,-15.065004,-102.455149
-164.171722,624.921507,101.197226,  0.000006,-13.816119,-102.333203
-169.117358,703.376608,101.483527,  0.000005,-12.760081,-102.209199
-173.657754,778.255129,101.769162,  0.000004,-11.902668,-102.083125
-177.774494,849.287495,102.054153,  0.000004,-11.247969,-101.954965
-181.451547,916.221102,102.338525,  0.000003,-10.798327,-101.824727
-184.675288,978.821214,102.622293,  0.000002,-10.554350,-101.692387
-187.434560,1036.871740,102.905485,  0.000001,-10.514935,-101.557954
-189.720674,1090.175953,103.188121,  0.000001,-10.677314,-101.421424
-191.527452,1138.557126,103.470221,  0.000006,-11.037088,-101.282774
-192.851204,1181.859083,103.751808,  0.000005,-11.588275,-101.142010
-193.690720,1219.946665,104.032903,  0.000004,-12.323429,-100.999122
-194.047231,1252.706124,104.313530,  0.000004,-13.233660,-100.854107
-193.924409,1280.045396,104.593709,  0.000003,-14.308777,-100.706949
-193.328274,1301.894326,104.873456,  0.000002,-15.537357,-100.557657
-192.267151,1318.204784,105.152798,  0.000001,-16.906896,-100.406210
-190.751615,1328.950696,105.431752,  0.000006,-18.403879,-100.252619
-188.794372,1334.127997,105.710336,  0.000005,-20.013943,-100.096865
-186.410205,1333.754481,105.988569,  0.000004,-21.721999,-99.938946
-183.615833,1327.869587,106.266467,  0.000003,-23.512371,-99.778862
-180.429851,1316.534084,106.544049,  0.000002,-25.368910,-99.616598
-176.872559,1299.829687,106.821330,  0.000007,-27.275168,-99.452156
-172.965879,1277.858597,107.098327,  0.000006,-29.214506,-99.285534
-168.733195,1250.742932,107.375049,  0.000005,-31.170262,-99.116721
-164.199235,1218.624135,107.651514,  0.000004,-33.125861,-98.945716
-159.389916,1181.662263,107.927731,  0.000003,-35.064990,-98.772504
-154.332200,1140.035231,108.203713,  0.000007,-36.971679,-98.597096
-149.053961,1093.938008,108.479468,  0.000006,-38.830468,-98.419481
-143.583798,1043.581701,108.755005,  0.000005,-40.626512,-98.239649
-137.950919,989.192638,109.030329,  0.000004,-42.345679,-98.057601
-132.184946,931.011360,109.305453,  0.000008,-43.974703,-97.873329
-126.315803,869.291585,109.580373,  0.000007,-45.501216,-97.686838
-120.373521,804.299117,109.855102,  0.000006,-46.913888,-97.498110
-114.388115,736.310720,110.129635,  0.000004,-48.202487,-97.307152
-108.389415,665.612945,110.403974,  0.000009,-49.357957,-97.113958
-102.406920,592.500956,110.678125,  0.000007,-50.372457,-96.918524
-96.469654,517.277303,110.952080,  0.000006,-51.239405,-96.720838
-90.606036,440.250667,111.225837,  0.000004,-51.953563,-96.520909
-84.843723,361.734644,111.499395,  0.000008,-52.511005,-96.318723
-79.209500,282.046439,111.772748,  0.000007,-52.909138,-96.114283
-73.729145,201.505630,112.045890,  0.000005,-53.146746,-95.907579
-68.427305,120.432881,112.318811,  0.000009,-53.223926,-95.698620
-63.327413, 39.148673,112.591504,  0.000007,-53.142118,-95.487384
-58.451549,-42.027935,112.863959,  0.000005,-52.904025,-95.273882
-53.820374,-122.780560,113.136167,  0.000010,-52.513608,-95.058107
-49.453028,-202.796710,113.408110,  0.000008,-51.976035,-94.840059
-45.367064,-281.768990,113.679782,  0.000006,-51.297581,-94.619726
-41.578373,-359.396259,113.951163,  0.000010,-50.485616,-94.397112
-38.101118,-435.384784,114.222239,  0.000008,-49.548497,-94.172211
-34.947704,-509.449314,114.492995,  0.000005,-48.495474,-93.945016
-32.128715,-581.314172,114.763412,  0.000009,-47.336638,-93.715540
-29.652906,-650.714238,115.033475,  0.000007,-46.082779,-93.483759
-27.527161,-717.395926,115.303162,  0.000005,-44.745333,-93.249689
-25.756508,-781.118102,115.572456,  0.000008,-43.336244,-93.013318
-24.344088,-841.652938,115.841335,  0.000006,-41.867879,-92.774638
-23.291182,-898.786709,116.109776,  0.000004,-40.352911,-92.533657
-22.597229,-952.320535,116.377760,  0.000007,-38.804210,-92.290370
-22.259845,-1002.071044,116.645266,  0.000005,-37.234732,-92.044776
-22.274859,-1047.871007,116.912270,  0.000003,-35.657425,-91.796874
-22.636365,-1089.569852,117.178745,  0.000006,-34.085088,-91.546652
-23.336766,-1127.034161,117.444675,  0.000004,-32.530328,-91.294115
-24.366839,-1160.148044,117.710031,  0.000007,-31.005384,-91.039263
-25.715797,-1188.813504,117.974789,  0.000005,-29.522094,-90.782091
-27.371376,-1212.950669,118.238925,  0.000002,-28.091769,-90.522604
-29.319890,-1232.497981,118.502415,  0.000005,-26.725122,-90.260786
-31.546362,-1247.412325,118.765238,  0.000003,-25.432184,-89.996655
-34.034566,-1257.669040,119.027362,  0.000006,-24.222220,-89.730192
-36.767164,-1263.261912,119.288768,  0.000003,-23.103685,-89.461406
-39.725789,-1264.203054,119.549428,  0.000001,-22.084162,-89.190290
-42.891159,-1260.522735,119.809322,  0.000004,-21.170286,-88.916849
-46.243183,-1252.269126,120.068420,  0.000001,-20.367727,-88.641083
-49.761068,-1239.507990,120.326702,  0.000005,-19.681172,-88.362986
-53.423441,-1222.322298,120.584143,  0.000002,-19.114266,-88.082563
-57.208467,-1200.811788,120.840722,  0.000005,-18.669606,-87.799806
-61.093959,-1175.092451,121.096413,  0.000002,-18.348753,-87.514725
-65.057489,-1145.295953,121.351193,  0.000005,-18.152222,-87.227307
-69.076519,-1111.569023,121.605041,  0.000003,-18.079490,-86.937562
-73.128510,-1074.072767,121.857935, -0.000000,-18.129009,-86.645491
-77.191026,-1032.981928,122.109857,  0.000003,-18.298264,-86.351082
-81.241870,-988.484102,122.360781,  0.000000,-18.583780,-86.054351
-85.259168,-940.778939,122.610692,  0.000003,-18.981149,-85.755293
-89.221484,-890.077230,122.859569,  0.000000,-19.485145,-85.453911
-93.107936,-836.600043,123.107394,  0.000003,-20.089697,-85.150196
-96.898276,-780.577767,123.354145,  0.000001,-20.788010,-84.844159
-100.572990,-722.249132,123.599814,  0.000004,-21.572613,-84.535796
-104.113395,-661.860228,123.844376,  0.000001,-22.435424,-84.225114
-107.501708,-599.663495,124.087818,  0.000004,-23.367841,-83.912106
-110.721145,-535.916664,124.330130,  0.000001,-24.360795,-83.596783
-113.755966,-470.881733,124.571292,  0.000004,-25.404858,-83.279146
-116.591575,-404.823895,124.811292,  0.000001,-26.490319,-82.959186
-119.214540,-338.010476,125.050122,  0.000004,-27.607253,-82.636923
-121.612677,-270.709880,125.287764,  0.000001,-28.745632,-82.312339
-123.775088,-203.190531,125.524213,  0.000004,-29.895386,-81.985450
-125.692191,-135.719803,125.759460,  0.000001,-31.046489,-81.656259
-127.355750,-68.562992,125.993492,  0.000004,-32.189064,-81.324764
-128.758926, -1.982289,126.226304,  0.000007,-33.313433,-80.990963
-129.896251, 63.764225,126.457884,  0.000004,-34.410225,-80.654875
-130.763676,128.423565,126.688234,  0.000006,-35.470404,-80.316487
-131.358550,191.748806,126.917341,  0.000003,-36.485386,-79.975807
-131.679623,253.499985,127.145207,  0.000006,-37.447075,-79.632843
-131.727050,313.445023,127.371821,  0.000003,-38.347932,-79.287590
-131.502327,371.360556,127.597186,  0.000005,-39.181037,-78.940060
-131.008327,427.032759,127.821297,  0.000002,-39.940104,-78.590254
-130.249220,480.258118,128.044156,  0.000005,-40.619580,-78.238181
-129.230445,530.844149,128.265755,  0.000007,-41.214627,-77.883836
-127.958692,578.610086,128.486100,  0.000004,-41.721179,-77.527224
-126.441820,623.387501,128.705189,  0.000007,-42.135944,-77.168354
-124.688822,665.020869,128.923026,  0.000003,-42.456458,-76.807234
-122.709743,703.368101,129.139609,  0.000006,-42.681054,-76.443853
-120.515658,738.300997,129.354941,  0.000002,-42.808889,-76.078239
-118.118545,769.705662,129.569028,  0.000005,-42.839913,-75.710377
-115.532571,797.479939,129.784639,  0.000007,-42.776419,-75.342361
-112.772613,821.536690,130.004454,  0.000004,-42.621396,-74.976134
-109.854143,841.804046,130.231029,  0.000006,-42.378512,-74.613451
-106.793172,858.225577,130.466796,  0.000002,-42.052055,-74.255903
-103.606146,870.760406,130.714048,  0.000005,-41.646894,-73.904850
-100.309865,879.383258,130.974944,  0.000007,-41.168431,-73.561479
-96.921388,884.084461,131.251495,  0.000003,-40.622550,-73.226762
-93.457946,884.869847,131.545569,  0.000005,-40.015569,-72.901455
-89.936866,881.760655,131.858875,  0.000008,-39.354161,-72.586134
-86.375466,874.793320,132.192972,  0.000004,-38.645321,-72.281136
-82.790981,864.019216,132.549266,  0.000006,-37.896282,-71.986625
-79.200463,849.504362,132.928988,  0.000008,-37.114464,-71.702559
-75.620718,831.329069,133.333223,  0.000004,-36.307398,-71.428695
-72.068207,809.587492,133.762884,  0.000006,-35.482677,-71.164619
-68.558985,784.387201,134.218725,  0.000002,-34.647901,-70.909751
-65.108604,755.848639,134.701331,  0.000004,-33.810579,-70.663326
-61.732068,724.104572,135.211130,  0.000006,-32.978101,-70.424457
-58.443752,689.299467,135.748388,  0.000002,-32.157681,-70.192096
-55.257331,651.588864,136.313199,  0.000004,-31.356259,-69.965074
-52.185732,611.138675,136.905515,  0.000006,-30.580499,-69.742119
-49.241081,568.124457,137.525120,  0.000002,-29.836717,-69.521849
-46.434643,522.730666,138.171645,  0.000004,-29.130823,-69.302811
-43.776788,475.149861,138.844578,  0.000005,-28.468298,-69.083492
-41.276948,425.581902,139.543254,  0.000007,-27.854143,-68.862305
-38.943566,374.233105,140.266864,  0.000003,-27.292855,-68.637655
-36.784106,321.315395,141.014467,  0.000005,-26.788381,-68.407915
-34.804982,267.045429,141.784987,  0.000006,-26.344118,-68.171448
-33.011572,211.643718,142.577219,  0.000002,-25.962866,-67.926641
-31.408212,155.333728,143.389833,  0.000004,-25.646842,-67.671904
-29.998151, 98.340996,144.221385,  0.000005,-25.397652,-67.405685
-28.783582, 40.892213,145.070329,  0.000001,-25.216275,-67.126483
-27.765634,-16.785658,145.935000,  0.000003,-25.103103,-66.832874
-26.944394,-74.466285,146.813651,  0.000004,-25.057926,-66.523509
-26.318892,-131.924836,147.704433,  0.000006,-25.079926,-66.197122
-25.887156,-188.938872,148.605420,  0.000001,-25.167712,-65.852549
-25.646216,-245.289180,149.514611,  0.000003,-25.319343,-65.488753
-25.592125,-300.760633,150.429935,  0.000004,-25.532349,-65.104792
-25.720021,-355.142979,151.349264, -0.000000,-25.803747,-64.699852
-26.024143,-408.231653,152.270409,  0.000001,-26.130100,-64.273265
-26.497868,-459.828532,153.191148,  0.000003,-26.507507,-63.824484
-27.133781,-509.742665,154.109211,  0.000004,-26.931707,-63.353093
-27.923707,-557.790971,155.022306, -0.000000,-27.398053,-62.858845
-28.858765,-603.798908,155.928110,  0.000001,-27.901604,-62.341594
-29.929416,-647.601099,156.824301,  0.000003,-28.437157,-61.801376
-31.125549,-689.041893,157.708541,  0.000004,-28.999280,-61.238346
-32.436505,-727.975945,158.578495, -0.000000,-29.582383,-60.652782
-33.851168,-764.268686,159.431841,  0.000001,-30.180745,-60.045132
-35.357998,-797.796788,160.266268,  0.000002,-30.788583,-59.415939
-36.945144,-828.448554,161.079497,  0.000004,-31.400095,-58.765889
-38.600447,-856.124294,161.869276, -0.000001,-32.009494,-58.095792
-40.311562,-880.736630,162.633396,  0.000000,-32.611082,-57.406550
-42.065992,-902.210727,163.369684,  0.000002,-33.199277,-56.699171
-43.851171,-920.484532,164.076034,  0.000003,-33.768657,-55.974774
-45.654511,-935.508913,164.750390,  0.000004,-34.314022,-55.234554
-47.463486,-947.247753,165.390762, -0.000000,-34.830415,-54.479764
-49.265693,-955.678016,165.995230,  0.000001,-35.313170,-53.711755
-51.048896,-960.789740,166.561954,  0.000002,-35.757945,-52.931914
-52.801116,-962.585976,167.089178,  0.000004,-36.160747,-52.141669
-54.510663,-961.082704,167.575229,  0.000005,-36.517963,-51.342498
-56.166213,-956.308661,168.018526,  0.000000,-36.826399,-50.535888
-57.756837,-948.305147,168.417589,  0.000001,-37.083286,-49.723342
-59.272091,-937.125782,168.771036,  0.000003,-37.286295,-48.906371
-60.702020,-922.836205,169.077589,  0.000004,-37.433558,-48.086470
-62.037231,-905.513716,169.336079,  0.000005,-37.523694,-47.265126
-63.268933,-885.246926,169.545448,  0.000000,-37.555765,-46.443786
-64.388956,-862.135304,169.704758,  0.000001,-37.529340,-45.623867
-65.389816,-836.288714,169.813177,  0.000002,-37.444428,-44.806731
-66.264707,-807.826928,169.869998,  0.000004,-37.301529,-43.993706
-67.007560,-776.879072,169.874633,  0.000005,-37.101605,-43.186033
-67.613059,-743.583060,169.826615, -0.000000,-36.846032,-42.384894
-68.076640,-708.084990,169.725603,  0.000001,-36.536628,-41.591397
-68.394521,-670.538524,169.571375,  0.000002,-36.175626,-40.806568
-68.563727,-631.104218,169.363831,  0.000003,-35.765621,-40.031349
-68.582057,-589.948857,169.103000,  0.000004,-35.309582,-39.266584
-68.448116,-547.244757,168.789031, -0.000001,-34.810780,-38.513036
-68.161309,-503.169051,168.422193,  0.000000,-34.272812,-37.771354
-67.721826,-457.902950,168.002878,  0.000001,-33.699509,-37.042116
-67.130631,-411.631029,167.531601,  0.000002,-33.094939,-36.325762
-66.389461,-364.540454,167.008988,  0.000003,-32.463371,-35.622677
-65.500795,-316.820259,166.435784,  0.000004,-31.809207,-34.933110
-64.467845,-268.660564,165.812847, -0.000001,-31.136999,-34.257248
-63.294510,-220.251848,165.141145,  0.000000,-30.451331,-33.595160
-61.985372,-171.784187,164.421759,  0.000001,-29.756857,-32.946819
-60.545654,-123.446514,163.655864,  0.000002,-29.058236,-32.312138
-58.981186,-75.425900,162.844745,  0.000003,-28.360069,-31.690912
-57.298363,-27.906814,161.989779,  0.000004,-27.666903,-31.082879
-55.504129, 18.929554,161.092437,  0.000005,-26.983154,-30.487695
-53.605898, 64.906009,160.154285, -0.000000,-26.313112,-29.904944
-51.611544,109.849989,159.176966,  0.000001,-25.660892,-29.334158
-49.529343,153.594223,158.162210,  0.000002,-25.030404,-28.774791
-47.367924,195.977342,157.111815,  0.000002,-24.425302,-28.226267
-45.136227,236.844462,156.027659,  0.000003,-23.849007,-27.687967
-42.843446,276.047771,154.911681,  0.000004,-23.304634,-27.159210
-40.498997,313.447019,153.765878,  0.000005,-22.795006,-26.639304
-38.112449,348.910035,152.592311, -0.000000,-22.322611,-26.127540
-35.693482,382.313188,151.393082,  0.000000,-21.889618,-25.623183
-33.251832,413.541802,150.170345,  0.000001,-21.497832,-25.125498
-30.797262,442.490541,148.926296,  0.000002,-21.148692,-24.633724
-28.339480,469.063754,147.663158,  0.000003,-20.843289,-24.147131
-25.888116,493.175791,146.383187,  0.000003,-20.582322,-23.664991
-23.452659,514.751249,145.088663,  0.000004,-20.366152,-23.186593
-21.042435,533.725197,143.781885, -0.000001,-20.194752,-22.711249
-18.666525,550.043377,142.465166, -0.000000,-20.067749,-22.238304
-16.333755,563.662305,141.140823,  0.000000,-19.984402,-21.767114
-14.052639,574.549391,139.811176,  0.000001,-19.943669,-21.297099
-11.831342,582.682967,138.478551,  0.000002,-19.944147,-20.827724
 -9.677658,588.052314,137.145254,  0.000002,-19.984147,-20.358461
 -7.598942,590.657606,135.813590,  0.000003,-20.061688,-19.888880
 -5.602110,590.509840,134.485837,  0.000004,-20.174530,-19.418566
 -3.693607,587.630711,133.164256, -0.000002,-20.320185,-18.947173
 -1.879350,582.052459,131.851084, -0.000001,-20.495946,-18.474406
 -0.164752,573.817648,130.548524, -0.000000,-20.698920,-18.000026
  1.445345,562.978936,129.258740,  0.000000,-20.926059,-17.523854
  2.946648,549.598795,127.983866,  0.000001,-21.174157,-17.045762
  4.335467,533.749192,126.725988,  0.000002,-21.439926,-16.565673
  5.608691,515.511238,125.487144,  0.000002,-21.719986,-16.083583
  6.763809,494.974802,124.269329,  0.000003,-22.010928,-15.599520
  7.798930,472.238099,123.074471, -0.000002,-22.309306,-15.113578
  8.712763,447.407232,121.904460, -0.000002,-22.611709,-14.625887
  9.504623,420.595739,120.761115, -0.000001,-22.914744,-14.136629
 10.174435,391.924071,119.646195, -0.000000,-23.215118,-13.646033
 10.722728,361.519077,118.561400,  0.000000,-23.509610,-13.154361
 11.150601,329.513467,117.508356,  0.000001,-23.795133,-12.661908
 11.459741,296.045240,116.488629,  0.000001,-24.068761,-12.169009
 11.652395,261.257093,115.503715,  0.000002,-24.327716,-11.676021
 11.731343,225.295852,114.555034,  0.000003,-24.569432,-11.183316
 11.699899,188.311837,113.643941, -0.000003,-24.791545,-10.691298
 11.561864,150.458268,112.771715, -0.000002,-24.991930,-10.200361
 11.321523,111.890629,111.939559, -0.000001,-25.168696, -9.710933
 10.983595, 72.766030,111.148607, -0.000001,-25.320223, -9.223427
 10.553228, 33.242609,110.399921, -0.000000,-25.445157, -8.738264
 10.035962, -6.521134,109.694483,  0.000001,-25.542406, -8.255860
  9.437672,-46.366935,109.033206,  0.000001,-25.611181, -7.776601
  8.764575,-86.137413,108.416929,  0.000002,-25.650980, -7.300877
  8.023168,-125.676661,107.846422,  0.000002,-25.661573, -6.829051
  7.220208,-164.830861,107.322384, -0.000003,-25.643029, -6.361462
  6.362653,-203.448875,106.845436, -0.000002,-25.595701, -5.898422
  5.457649,-241.382812,106.416146, -0.000002,-25.520222, -5.440201
  4.512490,-278.488604,106.035001, -0.000001,-25.417489, -4.987040
  3.534563,-314.626534,105.702433, -0.000000,-25.288653, -4.539155
  2.531330,-349.661758,105.418808,  0.000000,-25.135120, -4.096688
  1.510276,-383.464800,105.184428,  0.000001,-24.958531, -3.659769
  0.478894,-415.912034,104.999546,  0.000002,-24.760741, -3.228468
 -0.555388,-446.886125,104.864351,  0.000002,-24.543810, -2.802789
 -1.585206,-476.276437,104.778984, -0.000003,-24.309986, -2.382718
 -2.603310,-503.979440,104.743535, -0.000002,-24.061649, -1.968176
 -3.602600,-529.899056,104.758046, -0.000002,-23.801359, -1.559012
 -4.576157,-553.946987,104.822512, -0.000001,-23.531774, -1.155058
 -5.517268,-576.043021,104.936894, -0.000000,-23.255656, -0.756076
 -6.419459,-596.115274,105.101110,  0.000000,-22.975830, -0.361760
 -7.276527,-614.098348,105.313103,  0.000001,-22.694212,  0.028217
 -8.082588,-629.935605,105.570790,  0.000002,-22.412770,  0.414220
 -8.832088,-643.579336,105.872094,  0.000002,-22.133468,  0.796620
 -9.519853,-654.990879,106.214940,  0.000003,-21.858306,  1.175779
-10.141086,-664.140712,106.597256, -0.000002,-21.589270,  1.552090
