SHIH-XIAN-YANG/Robotic-vitual-system/run/exp0/log/joint_vel.txt
# Joint1, Joint2, Joint3, Joint4, Joint5, Joint6
  0.000000,  0.000000,  0.000000,  0.000000,  0.000000,  0.000000
 10.458063,  8.220169,  0.170029,  0.000000, -6.217645,  0.000000
 31.289814, 24.621876,  0.508580,  0.000000,-18.582729,  0.000000
 51.869121, 40.907872,  0.842370,  0.000000,-30.737987,  0.000000
 72.114324, 57.040251,  1.169189,  0.000000,-42.616375,  0.000000
 92.030158, 73.020279,  1.488138,  0.000000,-54.223389,  0.000000
111.621973, 88.849393,  1.798363,  0.000000,-65.565219,  0.000000
130.895043,104.529020,  2.099049,  0.000000,-76.647923,  0.000000
149.854553,120.060570,  2.389418,  0.000000,-87.477422,  0.000000
168.505603,135.445443,  2.668736,  0.000000,-98.059500,  0.000000
186.853214,150.685023,  2.936310,  0.000000,-108.399811,  0.000000
204.902321,165.780682,  3.191494,  0.000000,-118.503878,  0.000000
222.657780,180.733780,  3.433684,  0.000000,-128.377098,  0.000000
240.124370,195.545663,  3.662326,  0.000000,-138.024746,  0.000000
257.306790,210.217664,  3.876914,  0.000000,-147.451976,  0.000000
274.209664,224.751105,  4.076990,  0.000000,-156.663822,  0.000000
290.837538,239.147294,  4.262147,  0.000000,-165.665207,  0.000000
307.194888,253.407528,  4.432026,  0.000000,-174.460938,  0.000000
323.286115,267.533089,  4.586321,  0.000000,-183.055713,  0.000000
339.115548,281.525251,  4.724775,  0.000000,-191.454125,  0.000005
354.687446,295.385273,  4.847184,  0.000000,-199.660660,  0.000029
370.006000,309.114403,  4.953393,  0.000000,-207.679700,  0.000095
385.075331,322.713876,  5.043300,  0.000000,-215.515531,  0.000236
399.899494,336.184918,  5.116852,  0.000000,-223.172337,  0.000493
414.482478,349.528742,  5.174045,  0.000000,-230.654209,  0.000914
428.828205,362.746547,  5.214925,  0.000000,-237.965143,  0.001555
442.940538,375.839526,  5.239587,  0.000000,-245.109045,  0.002478
456.823272,388.808857,  5.248174,  0.000000,-252.089732,  0.003753
470.480143,401.655707,  5.240873,  0.000000,-258.910931,  0.005452
483.914825,414.381233,  5.217919,  0.000000,-265.576287,  0.007654
497.130934,426.986580,  5.179588,  0.000000,-272.089361,  0.010442
510.132026,439.472885,  5.126201,  0.000000,-278.453631,  0.013901
522.921599,451.841271,  5.058120,  0.000000,-284.672497,  0.018119
535.503093,464.092851,  4.975744,  0.000000,-290.749282,  0.023185
547.879895,476.228729,  4.879512,  0.000000,-296.687231,  0.029190
560.055334,488.249997,  4.769897,  0.000000,-302.489516,  0.036224
572.032687,500.157738,  4.647408,  0.000000,-308.159237,  0.044376
583.815176,511.953024,  4.512584,  0.000000,-313.699423,  0.053735
595.405972,523.636917,  4.365994,  0.000000,-319.113033,  0.064387
606.808194,535.210469,  4.208237,  0.000000,-324.402958,  0.076417
618.024908,546.674722,  4.039934,  0.000000,-329.572026,  0.089904
629.059134,558.030708,  3.861732,  0.000000,-334.622996,  0.104924
639.913841,569.279450,  3.674299,  0.000000,-339.558567,  0.121551
650.591948,580.421959,  3.478321,  0.000000,-344.381375,  0.139851
661.096330,591.459241,  3.274500,  0.000000,-349.093998,  0.159885
671.429812,602.392288,  3.063554,  0.000000,-353.698952,  0.181711
681.595175,613.222085,  2.846211,  0.000000,-358.198697,  0.205379
691.595154,623.949606,  2.623210,  0.000000,-362.595636,  0.230932
701.432441,634.575819,  2.395295,  0.000000,-366.892120,  0.258407
711.109681,645.101679,  2.163218,  0.000000,-371.090442,  0.287836
720.629479,655.528134,  1.927731,  0.000000,-375.192845,  0.319242
729.994395,665.856123,  1.689586,  0.000000,-379.201522,  0.352643
739.206951,676.086575,  1.449534,  0.000000,-383.118612,  0.388048
748.269625,686.220413,  1.208323,  0.000000,-386.946209,  0.425462
757.184855,696.258548,  0.966691,  0.000000,-390.686358,  0.464882
765.955040,706.201885,  0.725370,  0.000000,-394.341056,  0.506298
774.582539,716.051318,  0.485081,  0.000000,-397.912255,  0.549694
783.069675,725.807734,  0.246530,  0.000000,-401.401864,  0.595050
791.418731,735.472012,  0.010412,  0.000000,-404.811745,  0.642338
799.631953,745.045022, -0.222597, -0.000000,-408.143722,  0.691525
807.711552,754.527625, -0.451840, -0.000000,-411.399573,  0.742574
815.659700,763.920676, -0.676678, -0.000000,-414.581039,  0.795444
823.478538,773.225021, -0.896497, -0.000000,-417.689817,  0.850088
831.170168,782.441496, -1.110702, -0.000000,-420.727570,  0.906457
838.736660,791.570933, -1.318727, -0.000000,-423.695920,  0.964499
846.180051,800.614152, -1.520031, -0.000000,-426.596452,  1.024158
853.502342,809.571968, -1.714099, -0.000000,-429.430715,  1.085377
860.705505,818.445188, -1.900446, -0.000000,-432.200225,  1.148097
867.791476,827.234610, -2.078618, -0.000000,-434.906460,  1.212257
874.762164,835.941026, -2.248189, -0.000000,-437.550866,  1.277798
881.619443,844.565220, -2.408766, -0.000000,-440.134856,  1.344659
888.365159,853.107968, -2.559991, -0.000000,-442.659809,  1.412779
895.001126,861.570040, -2.701534, -0.000000,-445.127076,  1.482098
901.529131,869.952197, -2.833103, -0.000000,-447.537972,  1.552560
907.950929,878.255194, -2.954438, -0.000000,-449.893788,  1.624107
914.268249,886.479779, -3.065314, -0.000000,-452.195780,  1.696686
920.482790,894.626691, -3.165540, -0.000000,-454.445179,  1.770245
926.596224,902.696666, -3.254961, -0.000000,-456.643186,  1.844736
932.610197,910.690429, -3.333457, -0.000000,-458.790975,  1.920113
938.526327,918.608699, -3.400940, -0.000000,-460.889695,  1.996334
944.346205,926.452191, -3.457360, -0.000000,-462.940465,  2.073362
950.071397,934.221610, -3.502698, -0.000000,-464.944381,  2.151163
955.703444,941.917655, -3.536972, -0.000000,-466.902514,  2.229707
961.243862,949.541020, -3.560232, -0.000000,-468.815910,  2.308969
966.694140,957.092391, -3.572560, -0.000000,-470.685590,  2.388928
972.055747,964.572448, -3.574070, -0.000000,-472.512555,  2.469568
977.330123,971.981864, -3.564909, -0.000000,-474.297778,  2.550878
982.518689,979.321306, -3.545254, -0.000000,-476.042215,  2.632849
987.622840,986.591436, -3.515310, -0.000000,-477.746797,  2.715480
992.643950,992.174009, -3.475313, -0.000000,-479.412435,  2.798772
997.583369,994.141960, -3.425525, -0.000000,-481.040018,  2.882731
1002.442428,992.199216, -3.366234, -0.000000,-482.630416,  2.967369
1007.222433,986.379574, -3.297755, -0.000000,-484.184478,  3.052698
1011.924670,976.733211, -3.220425, -0.000000,-485.703035,  3.138737
1016.550405,963.324963, -3.134606, -0.000000,-487.186897,  3.225508
1021.100883,946.233959, -3.040678, -0.000000,-488.636858,  3.313036
1025.577327,925.553212, -2.939043, -0.000000,-490.053691,  3.401348
1029.980942,901.758049, -2.830121, -0.000000,-491.438155,  3.490476
1034.312914,876.730207, -2.714350, -0.000000,-492.790988,  3.580452
1038.574407,851.931810, -2.592181, -0.000000,-494.112912,  3.671311
1042.766568,827.367573, -2.464081, -0.000000,-495.404635,  3.763092
1046.890526,803.035316, -2.330528, -0.000000,-496.666846,  3.855831
1050.947389,778.932851, -2.192011, -0.000000,-497.900220,  3.949569
1054.938250,755.058006, -2.049029, -0.000000,-499.105414,  4.044346
1058.864183,731.408631, -1.902088, -0.000000,-500.283074,  4.140203
1062.726243,707.982599, -1.751699, -0.000000,-501.433828,  4.237179
1066.525469,684.777798, -1.598379, -0.000000,-502.558290,  4.335317
1070.262885,661.792141, -1.442646, -0.000000,-503.657063,  4.434654
1073.939496,639.023557, -1.285021, -0.000000,-504.730731,  4.535232
1077.556290,616.469996, -1.126023, -0.000000,-505.779870,  4.637086
1081.114242,594.129428, -0.966172, -0.000000,-506.805039,  4.740254
1084.614308,571.999842, -0.805980, -0.000000,-507.806787,  4.844770
1088.057430,550.079244, -0.645958, -0.000000,-508.785647,  4.950667
1091.444535,528.365661, -0.486610, -0.000000,-509.742143,  5.057975
1094.776534,506.857139, -0.328431, -0.000000,-510.676787,  5.166722
1098.054324,485.551740, -0.171908, -0.000000,-511.590077,  5.276933
1101.278786,464.447547, -0.017518, -0.000000,-512.482501,  5.388632
1104.450788,443.542658,  0.134275, -0.000000,-513.354536,  5.501838
1107.571184,422.835193,  0.283018, -0.000000,-514.206647,  5.616567
1110.640813,402.323286,  0.428273, -0.000000,-515.039291,  5.732835
1113.125291,382.005091,  0.569618, -0.000000,-515.852911,  5.850652
1112.253750,361.878778,  0.706644, -0.000000,-516.647943,  5.970025
1105.818372,341.942536,  0.838963, -0.000000,-517.424810,  6.090960
1093.906559,322.194568,  0.966202, -0.000000,-518.183929,  6.213458
1076.649695,302.633098,  1.088007, -0.000000,-518.925704,  6.337517
1054.204641,283.256363,  1.204045, -0.000000,-519.650532,  6.463135
1026.752486,264.062620,  1.314003, -0.000000,-520.358799,  6.590303
994.497312,245.050140,  1.417588, -0.000000,-521.050885,  6.719011
958.714255,226.217211,  1.514529, -0.000000,-521.727159,  6.849249
922.039702,207.562138,  1.604577, -0.000000,-522.387982,  6.981000
885.949734,189.083241,  1.687504, -0.000000,-523.033708,  7.114249
850.446828,170.778856,  1.763106, -0.000000,-523.664681,  7.248975
815.521529,152.647335,  1.831203, -0.000000,-524.281237,  7.385159
781.164442,134.687046,  1.891637, -0.000000,-524.883708,  7.522778
747.366323,116.896371,  1.944271, -0.000000,-525.472414,  7.661808
714.118077, 99.273709,  1.988995, -0.000000,-526.047670,  7.802223
681.410758, 81.817474,  2.025720, -0.000000,-526.609783,  7.943998
649.235565, 64.526092,  2.054382, -0.000000,-525.549862,  8.087106
617.583842, 47.398008,  2.074938, -0.000000,-520.736518,  8.231519
586.447072, 30.431679,  2.087368, -0.000000,-511.701747,  8.377210
555.816876, 13.625578,  2.091676, -0.000000,-498.575801,  8.524151
525.685014, -3.021808,  2.087887, -0.000000,-481.526007,  8.672315
496.043377,-19.511979,  2.076047, -0.000000,-460.749680,  8.821674
466.883990,-35.846419,  2.056226, -0.000000,-438.036184,  8.972202
438.199008,-52.026598,  2.028512, -0.000000,-415.452306,  9.123872
409.980711,-68.053974,  1.993012, -0.000000,-393.379901,  9.276660
382.221508,-83.929990,  1.949857, -0.000000,-371.811730,  9.430543
354.913928,-99.656075,  1.899192, -0.000000,-350.736323,  9.585497
328.050625,-115.233644,  1.841182, -0.000000,-330.142424,  9.741502
301.624370,-130.664102,  1.776010, -0.000000,-310.019032,  9.898538
275.628053,-145.948836,  1.703873, -0.000000,-290.355397, 10.056587
250.054680,-161.089223,  1.624986, -0.000000,-271.141014, 10.215634
224.897368,-176.086626,  1.539576, -0.000000,-252.365620, 10.375665
200.149349,-190.942396,  1.447886, -0.000000,-234.019186, 10.536666
175.803964,-205.657870,  1.350169, -0.000000,-216.091910, 10.698629
151.854663,-220.234374,  1.246692, -0.000000,-198.574217, 10.861545
128.295001,-234.673218,  1.137731, -0.000000,-181.456749, 11.025408
105.118639,-248.975704,  1.023572, -0.000000,-164.730361, 11.190214
 82.319342,-263.143120,  0.904510, -0.000000,-148.386120, 11.355961
 59.890974,-277.176740,  0.780847, -0.000000,-132.415294, 11.522648
 37.827501,-291.077828,  0.652891, -0.000000,-116.809351, 11.690279
 16.122986,-304.847637,  0.520955, -0.000000,-101.559955, 11.858855
 -5.228410,-318.487405,  0.385358, -0.000000,-86.658961, 12.028383
-26.232434,-331.998361,  0.246420, -0.000000,-72.098408, 12.198870
-46.894735,-345.381722,  0.104463, -0.000000,-57.870518, 12.370325
-67.220875,-358.638692, -0.040189, -0.000000,-43.967692, 12.542758
-87.216321,-371.770465, -0.187211, -0.000000,-30.382502, 12.716180
-106.886455,-384.778223, -0.336283, -0.000000,-17.107691, 12.890604
-126.236569,-397.663137, -0.487084, -0.000000, -4.136168, 13.066045
-145.271869,-410.426369, -0.639297, -0.000000,  8.538996, 13.242506
-163.997477,-423.069066, -0.792608, -0.000000, 20.924572, 13.419976
-182.418431,-435.592367, -0.946708, -0.000000, 33.027176, 13.598423
-200.539689,-447.997399, -1.101291, -0.000000, 44.853273, 13.777800
-218.366126,-460.285281, -1.256061, -0.000000, 56.409181, 13.958041
-235.902538,-472.457117, -1.410724, -0.000000, 67.701072, 14.139068
-253.153645,-484.514004, -1.564998, -0.000000, 78.734978, 14.320785
-270.124087,-496.457027, -1.718606, -0.000001, 89.516794, 14.503085
-286.818431,-508.287262, -1.871282, -0.000001,100.052279, 14.685848
-303.241170,-520.005774, -2.022769, -0.000001,110.347062, 14.868942
-319.396721,-531.613618, -2.172822, -0.000001,120.406640, 15.052226
-335.289431,-543.111839, -2.321205, -0.000001,130.236388, 15.235551
-350.923578,-554.501472, -2.467695, -0.000001,139.841557, 15.418761
-366.303368,-565.783543, -2.612079, -0.000001,149.227278, 15.601693
-381.432938,-576.959068, -2.754160, -0.000001,158.398565, 15.784182
-396.316360,-588.029053, -2.893751, -0.000001,167.360316, 15.966057
-410.957639,-598.994494, -3.030680, -0.000001,176.117319, 16.147150
-425.360714,-609.856379, -3.164789, -0.000001,184.674251, 16.327289
-439.529460,-620.615686, -3.295932, -0.000001,193.035685, 16.506306
-453.467690,-631.273383, -3.423980, -0.000001,201.206085, 16.684035
-467.179154,-641.830431, -3.548817, -0.000001,209.189818, 16.860313
-480.667542,-652.287779, -3.670342, -0.000001,216.991146, 17.034984
-493.936482,-662.646370, -3.788467, -0.000001,224.614239, 17.207898
-506.989545,-672.907135, -3.903123, -0.000001,232.063168, 17.378910
-519.830244,-683.070999, -4.014250, -0.000001,239.341912, 17.547888
-532.462033,-692.183143, -4.121809, -0.000001,246.454360, 17.714704
-544.888310,-698.895868, -4.225770, -0.000001,253.404310, 17.879245
-557.112421,-702.814345, -4.326122, -0.000001,260.195475, 18.041405
-569.137653,-703.940984, -4.422866, -0.000001,266.831484, 18.201091
-580.967243,-702.290861, -4.516017, -0.000001,273.315880, 18.358223
-592.604373,-697.889836, -4.605606, -0.000001,279.652128, 18.512730
-604.052174,-690.774376, -4.691674, -0.000001,285.843612, 18.664557
-615.313727,-680.991327, -4.774280, -0.000001,291.893641, 18.813660
-626.392062,-668.597666, -4.853493, -0.000001,297.805444, 18.960007
-637.290160,-653.660201, -4.929393, -0.000001,303.582182, 19.103580
-647.773273,-636.255242, -5.002077, -0.000001,308.965989, 19.244374
-656.176329,-616.468234, -5.071649, -0.000001,312.719018, 19.382395
-661.065027,-594.873177, -5.138226, -0.000001,313.862763, 19.517661
-662.448279,-572.740103, -5.201936, -0.000001,312.416759, 19.650202
-660.363554,-550.812532, -5.262917, -0.000001,308.430649, 19.780060
-654.865471,-529.092024, -5.321315, -0.000001,301.974399, 19.907285
-646.025214,-507.576642, -5.377288, -0.000001,293.137336, 20.031939
-633.929963,-486.264448, -5.430998, -0.000001,282.027131, 20.154093
-618.682240,-465.153524, -5.482618, -0.000001,268.768649, 20.273824
-600.399198,-444.241969, -5.532327, -0.000001,253.502670, 20.391219
-579.211837,-423.527899, -5.580311, -0.000001,236.384493, 20.506371
-555.264163,-403.009450, -5.626760, -0.000001,218.495864, 20.619377
-528.712293,-382.684775, -5.671871, -0.000001,200.924319, 20.730341
-500.081862,-362.552044, -5.715844, -0.000001,183.753171, 20.839370
-470.865469,-342.609443, -5.758882, -0.000001,166.974318, 20.946574
-442.115781,-322.855177, -5.801193, -0.000001,150.578809, 21.052063
-413.833762,-303.287468, -5.842987, -0.000001,134.557886, 21.155950
-386.011872,-283.904554, -5.884473, -0.000001,118.902992, 21.258349
-358.642626,-264.704689, -5.925863, -0.000001,103.605763, 21.359370
-331.718659,-245.686145, -5.967370, -0.000001, 88.658028, 21.459123
-305.232728,-226.847210, -6.009203, -0.000001, 74.051803, 21.557716
-279.177705,-208.186187, -6.051574, -0.000001, 59.779284, 21.655252
-253.546581,-189.701397, -6.094691, -0.000001, 45.832848, 21.751831
-228.332458,-171.391174, -6.138759, -0.000001, 32.205045, 21.847546
-203.528553,-153.253871, -6.183981, -0.000001, 18.888595, 21.942488
-179.128190,-135.287853, -6.230557, -0.000001,  5.876384, 22.036738
-155.124806,-117.491505, -6.278680, -0.000001, -6.838539, 22.130372
-131.511941,-99.863223, -6.328541, -0.000001,-19.262965, 22.223460
-108.283242,-82.401420, -6.380324, -0.000001,-31.403531, 22.316062
-85.432458,-65.104523, -6.434208, -0.000001,-43.266723, 22.408231
-62.953442,-47.970977, -6.490365, -0.000001,-54.858879, 22.500013
-40.840145,-30.999237, -6.548960, -0.000001,-66.186189, 22.591444
-19.086616,-14.187776, -6.610151, -0.000001,-77.254706, 22.682552
  2.312996,  2.464920, -6.674088, -0.000001,-88.070342, 22.773356
 23.364452, 18.960350, -6.740913, -0.000001,-98.638874, 22.863868
 44.073413, 35.299999, -6.810759, -0.000001,-108.965948, 22.954091
 64.445454, 51.485339, -6.883752, -0.000001,-119.057081, 23.044018
 84.486055, 67.517826, -6.960005, -0.000001,-128.917662, 23.133636
104.200608, 83.398906, -7.039626, -0.000001,-138.552960, 23.222924
123.594419, 99.130006, -7.122709, -0.000001,-147.968121, 23.311852
142.672705,114.712544, -7.209343, -0.000001,-157.168176, 23.400386
161.440599,130.147922, -7.299602, -0.000001,-166.158037, 23.488483
179.903153,145.437531, -7.393554, -0.000001,-174.942508, 23.576094
198.065333,160.582747, -7.491253, -0.000001,-183.526282, 23.663165
215.932026,175.584933, -7.592745, -0.000001,-191.913943, 23.749638
233.508039,190.445441, -7.698064, -0.000001,-199.845799, 23.835450
250.798102,205.165609, -7.807236, -0.000001,-206.513123, 23.920532
267.806868,219.746760, -7.920274, -0.000001,-211.353385, 24.004815
284.538912,234.190210, -8.037181, -0.000001,-214.347734, 24.088226
300.998736,248.497258, -8.157950, -0.000001,-215.497699, 24.170689
317.190770,262.669191, -8.282565, -0.000001,-214.820039, 24.252130
333.119371,276.707287, -8.410997, -0.000001,-212.346347, 24.332472
348.788823,290.612809, -8.543211, -0.000001,-208.122566, 24.411637
364.203343,304.387009, -8.679158, -0.000001,-202.208408, 24.489550
379.367080,318.031128, -8.818783, -0.000001,-194.676660, 24.566136
394.284112,331.546393, -8.962019, -0.000001,-185.612395, 24.641322
408.958454,344.934022, -9.108791, -0.000001,-175.112093, 24.715037
423.394055,358.195220, -9.259017, -0.000001,-163.282680, 24.787215
437.594797,371.331181, -9.412603, -0.000001,-150.240495, 24.857790
451.564503,384.343087, -9.569449, -0.000001,-136.110195, 24.926701
464.809062,397.232111, -9.729449, -0.000001,-121.034558, 24.993894
476.237803,409.999413, -9.892485, -0.000001,-105.695733, 25.059315
485.241447,422.646142,-10.058436, -0.000001,-90.700331, 25.122918
491.801529,435.173437,-10.227173, -0.000001,-76.047446, 25.184661
495.916613,447.582426,-10.398561, -0.000001,-61.729333, 25.244507
497.597674,459.874227,-10.572458, -0.000001,-47.738345, 25.302427
496.867851,472.049945,-10.748719, -0.000001,-34.067007, 25.358394
493.762171,484.110677,-10.927192, -0.000001,-20.708016, 25.412389
488.327221,496.057509,-11.107721, -0.000001, -7.654237, 25.464399
480.620761,507.891517,-11.290147, -0.000001,  5.101303, 25.514415
470.711286,519.164975,-11.474308, -0.000001, 17.565420, 25.562436
458.677547,528.884883,-11.660036, -0.000001, 29.744770, 25.608465
444.608015,536.494672,-11.847163, -0.000001, 41.645860, 25.652511
428.600311,541.977311,-12.035519, -0.000001, 53.275047, 25.694588
410.760593,545.326616,-12.224932, -0.000001, 64.638543, 25.734715
391.202908,546.544824,-12.415227, -0.000001, 75.742419, 25.772916
370.048517,545.642511,-12.606232, -0.000001, 86.592606, 25.809219
347.425185,542.638496,-12.797772, -0.000001, 97.194900, 25.843658
323.466454,537.559704,-12.989672, -0.000001,107.554964, 25.876268
298.310889,530.441008,-13.181761, -0.000001,117.678333, 25.907089
272.586686,521.325030,-13.373866, -0.000001,127.570415, 25.936164
247.064583,510.261926,-13.565816, -0.000001,137.181009, 25.963538
221.955933,497.309133,-13.757444, -0.000001,145.999213, 25.989260
197.255770,482.531089,-13.948584, -0.000001,153.538524, 26.013378
172.957461,465.998938,-14.139073, -0.000001,159.751728, 26.035943
149.054471,447.790198,-14.328752, -0.000001,164.607188, 26.057007
125.540366,427.988413,-14.517463, -0.000001,168.084957, 26.076622
102.408821,407.468554,-14.705056, -0.000001,170.176737, 26.094841
 79.653610,387.101961,-14.891382, -0.000001,170.885781, 26.111715
 57.268612,366.927515,-15.076299, -0.000001,170.226697, 26.127295
 35.247803,346.943593,-15.259669, -0.000001,168.225162, 26.141631
 13.585258,327.148396,-15.441357, -0.000001,164.917553, 26.154773
 -7.724851,307.540142,-15.621238, -0.000001,160.350488, 26.166766
-28.688259,288.117066,-15.799190, -0.000001,154.580298, 26.177655
-49.310606,268.877419,-15.975096, -0.000001,147.672418, 26.187482
-69.597441,249.819469,-16.148847, -0.000001,139.700717, 26.196286
-89.554222,230.941499,-16.320340, -0.000001,130.746766, 26.204104
-109.186320,212.241810,-16.489478, -0.000001,120.899057, 26.210968
-128.499016,193.718719,-16.656172, -0.000001,110.252166, 26.216909
-147.497507,175.370557,-16.820337, -0.000001, 98.905893, 26.221952
-166.186906,157.195673,-16.981897, -0.000001, 86.964357, 26.226120
-184.572240,139.192430,-17.140784, -0.000001, 74.535078, 26.229431
-202.658457,121.359207,-17.296934, -0.000001, 61.728041, 26.231900
-220.450422,103.694399,-17.450291, -0.000001, 48.654752, 26.233540
-237.754766, 86.196415,-17.600807, -0.000001, 35.427294, 26.234356
-253.922470, 68.863679,-17.748441, -0.000001, 22.171371, 26.234353
-268.468458, 51.694631,-17.893158, -0.000001,  9.085709, 26.233530
-281.336844, 34.687726,-18.034931, -0.000001, -3.702519, 26.231883
-292.484177, 17.841432,-18.173737, -0.000001,-16.198593, 26.229406
-301.876301,  1.154231,-18.309564, -0.000001,-28.409171, 26.226087
-309.488388,-15.375378,-18.442404, -0.000001,-40.267520, 26.221914
-315.304936,-31.748883,-18.572256, -0.000001,-51.610395, 26.216869
-319.319733,-47.967759,-18.699125, -0.000001,-62.302817, 26.210934
-321.535767,-64.033466,-18.823022, -0.000001,-72.265176, 26.204085
-321.965090,-79.947451,-18.943966, -0.000001,-81.425484, 26.196300
-320.628638,-95.711146,-19.061981, -0.000001,-89.719418, 26.187557
-317.556013,-111.325972,-19.177100, -0.000001,-97.090732, 26.177842
-312.785211,-126.793332,-19.289363, -0.000001,-103.491602, 26.167148
-306.362333,-142.114622,-19.398818, -0.000001,-108.882902, 26.155476
-298.341238,-157.291219,-19.505522, -0.000001,-113.234396, 26.142834
-288.783176,-172.324490,-19.609536, -0.000001,-116.524864, 26.129237
-277.756382,-187.215789,-19.710931, -0.000001,-118.742144, 26.114705
-265.335638,-201.966457,-19.809782, -0.000001,-119.883099, 26.099268
-251.601813,-216.577821,-19.906172, -0.000001,-119.953517, 26.082958
-236.641377,-231.051197,-20.000190, -0.000001,-118.967931, 26.065816
-220.545887,-245.387889,-20.091929, -0.000001,-116.949374, 26.047885
-203.411461,-259.589187,-20.181488, -0.000001,-113.929062, 26.029214
-185.338233,-273.656370,-20.268971, -0.000001,-109.946026, 26.009857
-166.429794,-287.590705,-20.354486, -0.000001,-105.046669, 25.989870
-146.792624,-301.393445,-20.438147, -0.000001,-99.284283, 25.969314
-126.535516,-315.065835,-20.520068, -0.000001,-92.718503, 25.948250
-105.768997,-328.609104,-20.600369, -0.000001,-85.414732, 25.926743
-84.604744,-342.024472,-20.679172, -0.000001,-77.443510, 25.904859
-63.155006,-355.313147,-20.756603, -0.000001,-68.879863, 25.882664
-41.532029,-368.351437,-20.832787, -0.000001,-59.802617, 25.860225
-19.898101,-380.400685,-20.907853, -0.000001,-50.293692, 25.837609
  1.513641,-390.827324,-20.981930, -0.000001,-40.437387, 25.814881
 22.578092,-399.598966,-21.055149, -0.000001,-30.319644, 25.792107
 43.299847,-406.692613,-21.127641, -0.000001,-20.027319, 25.769347
 63.684473,-412.092021,-21.199535, -0.000001, -9.647450, 25.746664
 83.737455,-415.787706,-21.270964, -0.000001,  0.733461, 25.724114
103.462388,-417.776933,-21.342056, -0.000001, 11.030154, 25.701752
122.677168,-418.063675,-21.412939, -0.000001, 21.159297, 25.679629
141.154478,-416.658555,-21.483741, -0.000001, 31.040146, 25.657792
158.809230,-413.578756,-21.554587, -0.000001, 40.595172, 25.636285
175.562651,-408.847907,-21.625600, -0.000001, 49.750654, 25.615146
191.341547,-402.495943,-21.696899, -0.000001, 58.437232, 25.594409
206.078600,-394.558947,-21.768602, -0.000001, 66.590418, 25.574104
219.712626,-385.078962,-21.840824, -0.000001, 74.151055, 25.554256
232.188810,-374.103786,-21.913674, -0.000001, 81.065726, 25.534883
243.458901,-361.686742,-21.987260, -0.000001, 87.287117, 25.516000
253.481368,-347.886431,-22.061684, -0.000001, 92.774313, 25.497617
262.221526,-332.766467,-22.137044, -0.000001, 97.493046, 25.479737
269.651624,-316.395189,-22.213434, -0.000001,101.415883, 25.462362
275.750891,-298.845359,-22.290944, -0.000001,104.522349, 25.445485
280.505559,-280.193850,-22.369656, -0.000001,106.798998, 25.429096
283.908835,-261.065583,-22.449650, -0.000001,108.239421, 25.413182
285.960848,-242.081580,-22.531000, -0.000001,108.844197, 25.397723
286.668562,-223.276687,-22.613772, -0.000001,108.620791, 25.382697
286.045646,-204.649383,-22.698029, -0.000001,107.583385, 25.368077
284.112327,-186.197994,-22.783827, -0.000001,105.752671, 25.353833
280.895195,-167.920857,-22.871218, -0.000001,103.155583, 25.339933
276.426992,-149.816327,-22.960245, -0.000001, 99.824984, 25.326341
270.746362,-131.882773,-23.050948, -0.000001, 95.799311, 25.313019
263.897587,-114.118582,-23.143358, -0.000001, 91.122175, 25.299925
255.930281,-96.522153,-23.237503, -0.000001, 85.841931, 25.287020
246.899078,-79.091902,-23.333403, -0.000001, 80.011203, 25.274258
236.863287,-61.826261,-23.431072, -0.000001, 73.686397, 25.261596
225.886534,-44.723674,-23.530519, -0.000001, 66.927173, 25.248988
214.036380,-27.782601,-23.631746, -0.000001, 59.795914, 25.236391
201.383935,-11.001518,-23.734751, -0.000001, 52.357162, 25.223759
188.003448,  5.621088,-23.839523, -0.000001, 44.677065, 25.211047
173.971892, 22.086711,-23.946048, -0.000001, 36.822802, 25.198213
159.368540, 38.396835,-24.054306, -0.000001, 28.862015, 25.185214
144.274534, 54.552929,-24.164271, -0.000001, 20.862244, 25.172009
128.772452, 70.556447,-24.275912, -0.000001, 12.890375, 25.158559
112.945868, 86.408830,-24.389192, -0.000001,  5.012093, 25.144828
 96.878922,102.111505,-24.504071, -0.000001, -2.708640, 25.130780
 80.655882,117.665886,-24.620501, -0.000001,-10.210086, 25.116385
 64.360718,133.073373,-24.738434, -0.000001,-17.433212, 25.101612
 48.076683,148.335355,-24.857814, -0.000001,-24.322134, 25.086436
 31.885898,163.453204,-24.978582, -0.000001,-30.824532, 25.070834
 15.868955,178.428282,-25.100675, -0.000001,-36.892036, 25.054784
  0.104523,193.261938,-25.224027, -0.000001,-42.480560, 25.038271
-15.331017,207.955506,-25.348567, -0.000001,-47.550608, 25.021282
-30.363937,222.510311,-25.474224, -0.000001,-52.067531, 25.003806
-44.923492,236.927662,-25.600920, -0.000001,-56.001746, 24.985836
-58.942250,251.208857,-25.728576, -0.000001,-59.328904, 24.967370
-72.356378,265.355183,-25.857113, -0.000001,-62.030014, 24.948407
-85.105931,279.367913,-25.986447, -0.000001,-64.091525, 24.928950
-97.135094,293.248308,-26.116493, -0.000001,-65.505358, 24.909007
-108.392418,306.594873,-26.247165, -0.000001,-66.268892, 24.888586
-118.831023,318.846527,-26.378374, -0.000001,-66.384910, 24.867700
-128.408774,329.825450,-26.510033, -0.000001,-65.861493, 24.846364
-137.088432,339.497197,-26.642052, -0.000001,-64.711881, 24.824595
-144.837784,347.833312,-26.774341, -0.000001,-62.954286, 24.802413
-151.629738,354.810781,-26.906810, -0.000001,-60.611674, 24.779840
-157.442393,360.412079,-27.039369, -0.000001,-57.711502, 24.756900
-162.259084,364.625200,-27.171930, -0.000001,-54.285428, 24.733618
-166.068400,367.443666,-27.304402, -0.000001,-50.368992, 24.710021
-168.864173,368.866516,-27.436699, -0.000001,-46.001264, 24.686136
-170.645439,368.898264,-27.568734, -0.000001,-41.224470, 24.661994
-171.416382,367.548850,-27.700421, -0.000001,-36.083601, 24.637623
-171.186238,364.833557,-27.831676, -0.000001,-30.625998, 24.613054
-169.969192,360.772917,-27.962418, -0.000001,-24.900933, 24.588316
-167.784236,355.392594,-28.092568, -0.000001,-18.959170, 24.563440
-164.655013,348.723242,-28.222046, -0.000001,-12.852524, 24.538454
-160.609637,340.800355,-28.350780, -0.000001, -6.633425, 24.513389
-155.680497,331.664092,-28.478696, -0.000001, -0.354470, 24.488272
-149.904030,321.359086,-28.605725, -0.000001,  5.932010, 24.463131
-143.320493,309.934238,-28.731800, -0.000001, 12.174380, 24.437991
-135.973704,297.442494,-28.856860, -0.000001, 18.322112, 24.412878
-127.910778,283.940609,-28.980842, -0.000001, 24.326193, 24.387813
-119.181845,269.488902,-29.103692, -0.000001, 30.139499, 24.362820
-109.839757,254.150985,-29.225357, -0.000001, 35.717164, 24.337916
-99.939787,237.993502,-29.345787, -0.000001, 41.016911, 24.313121
-89.539315,221.085834,-29.464937, -0.000001, 45.999368, 24.288448
-78.697516,203.499820,-29.582766, -0.000001, 50.628349, 24.263912
-67.475033,185.369826,-29.699236, -0.000001, 54.871102, 24.239523
-55.933652,167.101984,-29.814315, -0.000001, 58.698540, 24.215291
-44.135977,149.005194,-29.927971, -0.000001, 62.085415, 24.191222
-32.145102,131.079301,-30.040182, -0.000001, 65.010480, 24.167321
-20.024283,113.322697,-30.150924, -0.000001, 67.456604, 24.143589
 -7.836618, 95.733785,-30.260181, -0.000001, 69.410852, 24.120027
  4.355268, 78.310979,-30.367941, -0.000001, 70.864530, 24.096631
 16.489537, 61.052713,-30.474193, -0.000001, 71.813199, 24.073399
 28.505441, 43.957431,-30.578935, -0.000001, 72.256650, 24.050322
 40.343610, 27.023594,-30.682164, -0.000001, 72.198840, 24.027394
 51.946343, 10.249679,-30.783884, -0.000001, 71.647802, 24.004603
 63.257869, -6.365826,-30.884102, -0.000001, 70.615522, 23.981938
 74.224610,-22.824416,-30.982830, -0.000001, 69.117778, 23.959386
 84.795424,-39.127574,-31.080081, -0.000001, 67.173959, 23.936931
 94.921829,-55.276767,-31.175874, -0.000001, 64.806851, 23.914557
104.558215,-71.273449,-31.270232, -0.000001, 62.042399, 23.892248
113.662041,-87.119060,-31.363179, -0.000001, 58.909452, 23.869984
122.194004,-102.815028,-31.454744, -0.000001, 55.439476, 23.847748
130.118201,-118.362765,-31.544958, -0.000001, 51.666263, 23.825519
137.402268,-133.763671,-31.633858, -0.000001, 47.625613, 23.803277
144.017493,-149.019133,-31.721480, -0.000001, 43.355017, 23.781003
149.938916,-164.045927,-31.807865, -0.000001, 38.893314, 23.758675
155.145410,-178.491398,-31.893057, -0.000001, 34.280360, 23.736274
159.619735,-192.061111,-31.977099, -0.000001, 29.556678, 23.713778
163.348574,-204.706705,-32.060041, -0.000001, 24.763120, 23.691170
166.322556,-216.384877,-32.141933, -0.000001, 19.940519, 23.668429
168.536244,-227.056425,-32.222824, -0.000001, 15.129357, 23.645537
169.988119,-236.686374,-32.302771, -0.000001, 10.369436, 23.622476
170.680532,-245.244079,-32.381826, -0.000001,  5.699557, 23.599229
170.619647,-252.703316,-32.460046, -0.000001,  1.157217, 23.575781
169.815356,-259.042356,-32.537490, -0.000001, -3.221684, 23.552117
168.281183,-264.244013,-32.614214, -0.000001, -7.403112, 23.528224
166.034169,-268.295686,-32.690279, -0.000001,-11.355157, 23.504090
163.094741,-271.189370,-32.765743, -0.000001,-15.048262, 23.479704
159.486563,-272.921660,-32.840668, -0.000001,-18.455434, 23.455057
155.236377,-273.493728,-32.915113, -0.000001,-21.552432, 23.430140
150.373826,-272.911288,-32.989139, -0.000001,-24.317922, 23.404949
144.931266,-271.184541,-33.062805, -0.000001,-26.733615, 23.379478
138.943571,-268.328105,-33.136173, -0.000001,-28.784372, 23.353724
132.447922,-264.360924,-33.209300, -0.000001,-30.458284, 23.327685
125.483586,-259.306163,-33.282246, -0.000001,-31.746723, 23.301362
118.091698,-253.191092,-33.355068, -0.000001,-32.644366, 23.274755
110.315022,-246.046944,-33.427824, -0.000001,-33.149190, 23.247868
102.197715,-237.908767,-33.500568, -0.000001,-33.262443, 23.220703
 93.785089,-228.815263,-33.573355, -0.000001,-32.988584, 23.193268
 85.123364,-218.808604,-33.646238, -0.000001,-32.335203, 23.165567
 76.259424,-207.934248,-33.719268, -0.000001,-31.312909, 23.137610
 67.240569,-196.240734,-33.792493, -0.000001,-29.935201, 23.109404
 58.114272,-183.779472,-33.865963, -0.000001,-28.218316, 23.080960
 48.927940,-170.604519,-33.939721, -0.000001,-26.181053, 23.052288
 39.728667,-156.772349,-34.013812, -0.000001,-23.844583, 23.023399
 30.563007,-142.341618,-34.088277, -0.000001,-21.232238, 22.994306
 21.476744,-127.372913,-34.163154, -0.000001,-18.369290, 22.965021
 12.514667,-111.928505,-34.238480, -0.000001,-15.282711, 22.935556
  3.720361,-96.072089,-34.314290, -0.000001,-12.000930, 22.905926
 -4.864002,-79.868530,-34.390613, -0.000001, -8.553574, 22.876143
-13.197855,-63.383594,-34.467481, -0.000001, -4.971208, 22.846221
-21.242424,-46.683689,-34.544917, -0.000001, -1.285069, 22.816173
-28.960894,-29.848766,-34.622947, -0.000001,  2.473200, 22.786014
-36.318581,-13.048761,-34.701590, -0.000001,  6.271821, 22.755754
-43.283068,  3.593175,-34.780865, -0.000001, 10.079139, 22.725409
-49.824350, 20.077950,-34.860786, -0.000001, 13.863886, 22.694988
-55.914946, 36.407045,-34.941367, -0.000001, 17.595432, 22.664505
-61.530011, 52.581930,-35.022617, -0.000001, 21.244028, 22.633971
-66.647428, 68.604061,-35.104543, -0.000001, 24.781037, 22.603395
-71.247881, 84.474882,-35.187148, -0.000001, 28.179158, 22.572788
-75.314917,100.135357,-35.270435, -0.000001, 31.412628, 22.542157
-78.834997,115.437245,-35.354401, -0.000001, 34.457415, 22.511512
-81.797521,130.263914,-35.439043, -0.000001, 37.291389, 22.480858
-84.194847,144.560523,-35.524353, -0.000001, 39.894477, 22.450203
-86.022292,158.274967,-35.610323, -0.000001, 42.248803, 22.419550
-87.278114,171.357790,-35.696941, -0.000001, 44.338797, 22.388905
-87.963487,183.762362,-35.784192, -0.000001, 46.151294, 22.358269
-88.082455,195.445040,-35.872060, -0.000001, 47.675609, 22.327645
-87.641875,206.365322,-35.960525, -0.000001, 48.903585, 22.297033
-86.651347,216.485980,-36.049568, -0.000001, 49.829627, 22.266435
-85.123129,225.773181,-36.139164, -0.000001, 50.450710, 22.235848
-83.072040,234.196603,-36.229288, -0.000001, 50.766368, 22.205270
-80.515355,241.729521,-36.319913, -0.000001, 50.778657, 22.174699
-77.472681,248.348893,-36.411011, -0.000001, 50.492107, 22.144131
-73.965835,254.035420,-36.502550, -0.000001, 49.913645, 22.113561
-70.018696,258.773596,-36.594498, -0.000001, 49.052503, 22.082984
-65.657067,262.551744,-36.686821, -0.000001, 47.920112, 22.052394
-60.908513,265.362033,-36.779485, -0.000001, 46.529971, 22.021783
-55.802200,267.200483,-36.872452, -0.000001, 44.897511, 21.991145
-50.368730,268.066951,-36.965687, -0.000001, 43.039936, 21.960472
-44.639964,267.965108,-37.059149, -0.000001, 40.976056, 21.929755
-38.648849,266.902394,-37.152801, -0.000001, 38.726110, 21.898986
-32.429230,264.889965,-37.246602, -0.000001, 36.311577, 21.868156
-26.015677,261.942621,-37.340511, -0.000001, 33.754982, 21.837256
-19.443291,258.078724,-37.434488, -0.000001, 31.079696, 21.806277
-12.747526,253.320101,-37.528491, -0.000001, 28.309726, 21.775208
 -5.964006,247.691930,-37.622479, -0.000001, 25.469516, 21.744042
  0.871665,241.222624,-37.716410, -0.000001, 22.583731, 21.712769
  7.724075,233.943693,-37.810243, -0.000001, 19.677056, 21.681379
 14.558182,225.889597,-37.903936, -0.000001, 16.773989, 21.649865
 21.339491,217.097593,-37.997448, -0.000001, 13.898643, 21.618217
 28.034218,207.607569,-38.090738, -0.000001, 11.074552, 21.586427
 34.609449,197.461869,-38.183767, -0.000001,  8.324488, 21.554489
 41.033302,186.705106,-38.276494, -0.000001,  5.670278, 21.522394
 47.275069,175.383978,-38.368882, -0.000001,  3.132644, 21.490135
 53.305360,163.547061,-38.460891, -0.000001,  0.731047, 21.457708
 59.096231,151.244615,-38.552486, -0.000001, -1.516459, 21.425105
 64.621311,138.528369,-38.643630, -0.000001, -3.593351, 21.392323
 69.855911,125.451308,-38.734288, -0.000001, -5.484757, 21.359357
 74.777130,112.067458,-38.824427, -0.000001, -7.177546, 21.326203
 79.363947, 98.431668,-38.914015, -0.000001, -8.660418, 21.292858
 83.597303, 84.599387,-39.003021, -0.000001, -9.923971, 21.259321
 87.460170, 70.626440,-39.091415, -0.000001,-10.960746, 21.225588
 90.937616, 56.568814,-39.179170, -0.000001,-11.765263, 21.191661
 94.016849, 42.482428,-39.266260, -0.000001,-12.334041, 21.157538
 96.687254, 28.422922,-39.352660, -0.000001,-12.665590, 21.123219
 98.940422, 14.445435,-39.438347, -0.000001,-12.760404, 21.088707
100.770162,  0.604399,-39.523300, -0.000001,-12.620918, 21.054002
102.172503,-13.046679,-39.607500, -0.000001,-12.251470, 21.019107
103.145687,-26.455411,-39.690929, -0.000001,-11.658230, 20.984024
103.690149,-39.570729,-39.773573, -0.000001,-10.849125, 20.948758
103.808486,-52.343081,-39.855416, -0.000001, -9.833750, 20.913312
103.505415,-64.724604,-39.936447, -0.000001, -8.623263, 20.877689
102.787725,-76.669310,-40.016657, -0.000001, -7.230270, 20.841896
101.664212,-88.133246,-40.096036, -0.000001, -5.668702, 20.805936
100.145612,-99.074657,-40.174580, -0.000001, -3.953678, 20.769816
 98.244520,-109.454132,-40.252283, -0.000001, -2.101366, 20.733540
 95.975302,-119.234739,-40.329144, -0.000001, -0.128832, 20.697114
 93.354000,-128.382159,-40.405162, -0.000001,  1.946110, 20.660544
 90.398230,-136.864797,-40.480338, -0.000001,  4.105061, 20.623837
 87.127072,-144.653887,-40.554675, -0.000001,  6.329193, 20.586998
 83.560953,-151.723589,-40.628179, -0.000001,  8.599412, 20.550032
 79.721530,-158.051064,-40.700856, -0.000001, 10.896519, 20.512947
 75.631561,-163.616546,-40.772713, -0.000001, 13.201370, 20.475748
 71.314777,-168.403397,-40.843762, -0.000001, 15.495034, 20.438440
 66.795751,-172.398150,-40.914014, -0.000001, 17.758945, 20.401028
 62.099759,-175.590539,-40.983482, -0.000001, 19.975050, 20.363519
 57.252648,-177.973519,-41.052180, -0.000001, 22.125949, 20.325917
 52.280694,-179.543267,-41.120124, -0.000001, 24.195032, 20.288226
 47.210465,-180.299178,-41.187332, -0.000001, 26.166604, 20.250451
 42.068684,-180.243841,-41.253823, -0.000001, 28.025998, 20.212595
 36.882088,-179.383010,-41.319616, -0.000001, 29.759685, 20.174663
 31.677298,-177.725557,-41.384731, -0.000001, 31.355366, 20.136656
 26.480683,-175.283415,-41.449192, -0.000001, 32.802060, 20.098579
 21.318227,-172.071512,-41.513021, -0.000001, 34.090169, 20.060433
 16.215409,-168.107687,-41.576241, -0.000001, 35.211543, 20.022219
 11.197075,-163.412605,-41.638878, -0.000001, 36.159524, 19.983939
  6.287324,-158.009650,-41.700957, -0.000001, 36.928978, 19.945595
  1.509393,-151.924820,-41.762502, -0.000001, 37.516317, 19.907185
 -3.114447,-145.186603,-41.823542, -0.000001, 37.919507, 19.868710
 -7.562992,-137.825846,-41.884103, -0.000001, 38.138060, 19.830170
-11.816200,-129.875625,-41.944212, -0.000001, 38.173016, 19.791563
-15.855275,-121.371090,-42.003897, -0.000001, 38.026915, 19.752888
-19.662747,-112.349319,-42.063185, -0.000001, 37.703752, 19.714144
-23.222543,-102.849157,-42.122105, -0.000001, 37.208922, 19.675328
-26.520053,-92.911051,-42.180684, -0.000001, 36.549157, 19.636437
-29.542180,-82.576881,-42.238950, -0.000001, 35.732452, 19.597469
-32.277390,-71.889785,-42.296930, -0.000001, 34.767979, 19.558421
-34.715750,-60.893979,-42.354653, -0.000001, 33.665994, 19.519289
-36.848957,-49.634580,-42.412144, -0.000001, 32.437739, 19.480070
-38.670360,-38.157420,-42.469431, -0.000001, 31.095332, 19.440759
-40.174968,-26.508864,-42.526541, -0.000001, 29.651658, 19.401353
-41.359463,-14.735618,-42.583498, -0.000001, 28.120248, 19.361848
-42.222184, -2.884553,-42.640328, -0.000001, 26.515161, 19.322240
-42.763123,  8.997490,-42.697055, -0.000001, 24.850858, 19.282523
-42.983898, 20.863874,-42.753703, -0.000001, 23.142078, 19.242695
-42.887728, 32.668356,-42.810295, -0.000001, 21.403713, 19.202750
-42.479394, 44.365259,-42.866852, -0.000001, 19.650683, 19.162684
-41.765193, 55.909651,-42.923396, -0.000001, 17.897812, 19.122494
-40.752890, 67.257514,-42.979947, -0.000001, 16.159705, 19.082175
-39.451658, 78.365910,-43.036524, -0.000001, 14.450634, 19.041723
-37.872013, 89.193145,-43.093145, -0.000001, 12.784426, 19.001135
-36.025746, 99.698919,-43.149827, -0.000001, 11.174351, 18.960406
-33.925842,109.844477,-43.206585, -0.000001,  9.633022, 18.919534
-31.586405,119.592751,-43.263435, -0.000001,  8.172305, 18.878515
-29.022569,128.908489,-43.320389, -0.000001,  6.803226, 18.837346
-26.250405,137.758386,-43.377460, -0.000001,  5.535894, 18.796026
-23.286836,146.111197,-43.434659, -0.000001,  4.379433, 18.754550
-20.149532,153.937846,-43.491995, -0.000001,  3.341920, 18.712919
-16.856816,161.211527,-43.549477, -0.000001,  2.430332, 18.671128
-13.427560,167.907788,-43.607112, -0.000001,  1.650504, 18.629178
 -9.881085,174.004616,-43.664905, -0.000001,  1.007103, 18.587067
 -6.237056,179.482502,-43.722862, -0.000001,  0.503597, 18.544794
 -2.515380,184.324501,-43.780985, -0.000001,  0.142255, 18.502358
  1.263903,188.516282,-43.839276, -0.000001, -0.075867, 18.459761
  5.080716,192.046163,-43.897736, -0.000001, -0.150904, 18.417000
  8.915053,194.905139,-43.956365, -0.000001, -0.084175, 18.374077
 12.747073,197.086902,-44.015160, -0.000001,  0.121852, 18.330993
 16.557208,198.587841,-44.074119, -0.000001,  0.463595, 18.287748
 20.326246,199.407039,-44.133237, -0.000001,  0.936402, 18.244344
 24.035434,199.546260,-44.192509, -0.000001,  1.534609, 18.200782
 27.666562,199.009922,-44.251928, -0.000001,  2.251595, 18.157063
 31.202048,197.805059,-44.311487, -0.000001,  3.079858, 18.113190
 34.625022,195.941276,-44.371177, -0.000001,  4.011084, 18.069164
 37.919398,193.430696,-44.430989, -0.000001,  5.036228, 18.024987
 41.069948,190.287890,-44.490911, -0.000001,  6.145601, 17.980662
 44.062367,186.529805,-44.550932, -0.000001,  7.328961, 17.936191
 46.883334,182.175683,-44.611040, -0.000001,  8.575599, 17.891577
 49.520565,177.246964,-44.671220, -0.000001,  9.874441, 17.846822
 51.962866,171.767191,-44.731460, -0.000001, 11.214141, 17.801929
 54.200169,165.761901,-44.791744, -0.000001, 12.583177, 17.756900
 56.223576,159.258512,-44.852057, -0.000001, 13.969954, 17.711737
 58.025380,152.286199,-44.912382, -0.000001, 15.362895, 17.666445
 59.599099,144.875771,-44.972702, -0.000001, 16.750539, 17.621024
 60.939484,137.059537,-45.033001, -0.000001, 18.121636, 17.575478
 62.042533,128.871170,-45.093261, -0.000001, 19.465231, 17.529808
 62.905499,120.345561,-45.153463, -0.000001, 20.770755, 17.484017
 63.526879,111.518680,-45.213589, -0.000001, 22.028103, 17.438108
 63.906415,102.427423,-45.273620, -0.000001, 23.227715, 17.392081
 64.045072, 93.109461,-45.333538, -0.000001, 24.360643, 17.345939
 63.945021, 83.603089,-45.393323, -0.000001, 25.418618, 17.299684
 63.609614, 73.947070,-45.452956, -0.000001, 26.394107, 17.253317
 63.043346, 64.180478,-45.512418, -0.000001, 27.280365, 17.206840
 62.251823, 54.342546,-45.571690, -0.000001, 28.071481, 17.160253
 61.241716, 44.472510,-45.630752, -0.000001, 28.762412, 17.113557
 60.020717, 34.609454,-45.689585, -0.000001, 29.349012, 17.066753
 58.597482, 24.792158,-45.748171, -0.000001, 29.828058, 17.019841
 56.981581, 15.058948,-45.806491, -0.000001, 30.197255, 16.972823
 55.183431,  5.447551,-45.864527, -0.000001, 30.455249, 16.925697
 53.214238, -4.005052,-45.922261, -0.000001, 30.601622, 16.878464
 51.085927,-13.262763,-45.979674, -0.000001, 30.636879, 16.831123
 48.811073,-22.290505,-46.036751, -0.000001, 30.562435, 16.783674
 46.402830,-31.054348,-46.093473, -0.000001, 30.380587, 16.736116
 43.874857,-39.521639,-46.149826, -0.000001, 30.094486, 16.688448
 41.241240,-47.661117,-46.205794, -0.000001, 29.708092, 16.640670
 38.516419,-55.443031,-46.261362, -0.000001, 29.226137, 16.592779
 35.715106,-62.839238,-46.316515, -0.000001, 28.654070, 16.544775
 32.852212,-69.823309,-46.371239, -0.000001, 27.998005, 16.496656
 29.942764,-76.370618,-46.425523, -0.000001, 27.264656, 16.448420
 27.001832,-82.458426,-46.479353, -0.000001, 26.461280, 16.400066
 24.044449,-88.065955,-46.532718, -0.000001, 25.595602, 16.351591
 21.085538,-93.174460,-46.585608, -0.000001, 24.675749, 16.302995
 18.139835,-97.767285,-46.638013, -0.000001, 23.710179, 16.254275
 15.221819,-101.829911,-46.689923, -0.000001, 22.707598, 16.205428
 12.345642,-105.350006,-46.741331, -0.000001, 21.676896, 16.156454
  9.525061,-108.317450,-46.792230, -0.000001, 20.627061, 16.107349
  6.773373,-110.724361,-46.842612, -0.000001, 19.567108, 16.058113
  4.103356,-112.565114,-46.892473, -0.000001, 18.506007, 16.008742
  1.527207,-113.836342,-46.941807, -0.000001, 17.452604, 15.959235
 -0.943507,-114.536937,-46.990611, -0.000001, 16.415553, 15.909590
 -3.297904,-114.668036,-47.038882, -0.000001, 15.403246, 15.859805
 -5.525832,-114.233001,-47.086617, -0.000001, 14.423749, 15.809878
 -7.617907,-113.237394,-47.133817, -0.000001, 13.484742, 15.759808
 -9.565558,-111.688932,-47.180479, -0.000001, 12.593454, 15.709593
-11.361052,-109.597448,-47.226605, -0.000001, 11.756619, 15.659231
-12.997529,-106.974837,-47.272197, -0.000001, 10.980422, 15.608721
-14.469020,-103.834991,-47.317256, -0.000001, 10.270456, 15.558061
-15.770470,-100.193733,-47.361785, -0.000001,  9.631688, 15.507252
-16.897750,-96.068742,-47.405788, -0.000001,  9.068423, 15.456290
-17.847664,-91.479470,-47.449270, -0.000001,  8.584281, 15.405176
-18.617956,-86.447050,-47.492236, -0.000001,  8.182175, 15.353909
-19.207309,-80.994208,-47.534691, -0.000001,  7.864300, 15.302488
-19.615337,-75.145155,-47.576643, -0.000001,  7.632123, 15.250913
-19.842580,-68.925489,-47.618099, -0.000001,  7.486379, 15.199183
-19.890483,-62.362077,-47.659067, -0.000001,  7.427082, 15.147298
-19.761381,-55.482950,-47.699555, -0.000001,  7.453532, 15.095258
-19.458477,-48.317174,-47.739572, -0.000001,  7.564327, 15.043063
-18.985808,-40.894739,-47.779128, -0.000001,  7.757392, 14.990714
-18.348222,-33.246429,-47.818233, -0.000001,  8.030002, 14.938210
-17.551339,-25.403695,-47.856897, -0.000001,  8.378813, 14.885552
-16.601511,-17.398532,-47.895132, -0.000001,  8.799901, 14.832740
-15.505784, -9.263345,-47.932949, -0.000001,  9.288802, 14.779776
-14.271851, -1.030821,-47.970359, -0.000001,  9.840555, 14.726659
-12.908006,  7.266202,-48.007374, -0.000001, 10.449752, 14.673391
-11.423094, 15.594863,-48.044007, -0.000001, 11.110589, 14.619973
 -9.826458, 23.922410,-48.080269, -0.000001, 11.816917, 14.566405
 -8.127887, 32.216323,-48.116174, -0.000001, 12.562302, 14.512689
 -6.337559, 40.444447,-48.151734, -0.000001, 13.340080, 14.458825
 -4.465988, 48.575108,-48.186962, -0.000001, 14.143412, 14.404814
 -2.523962, 56.577239,-48.221871, -0.000001, 14.965351, 14.350658
 -0.522487, 64.420495,-48.256473, -0.000001, 15.798892, 14.296357
  1.527271, 72.075367,-48.290782, -0.000001, 16.637036, 14.241914
  3.614045, 79.513293,-48.324809, -0.000001, 17.472847, 14.187328
  5.726526, 86.706764,-48.358568, -0.000001, 18.299506, 14.132600
  7.853419, 93.629421,-48.392072, -0.000001, 19.110368, 14.077733
  9.983502,100.256155,-48.425332, -0.000001, 19.899014, 14.022726
 12.105682,106.563190,-48.458360, -0.000001, 20.659299, 13.967581
 14.209045,112.528176,-48.491169, -0.000001, 21.385400, 13.912299
 16.282914,118.130257,-48.523770, -0.000001, 22.071859, 13.856880
 18.316900,123.350149,-48.556174, -0.000001, 22.713623, 13.801325
 20.300947,128.170203,-48.588392, -0.000001, 23.306080, 13.745635
 22.225380,132.574460,-48.620435, -0.000001, 23.845090, 13.689810
 24.080950,136.548703,-48.652313, -0.000001, 24.327012, 13.633852
 25.858877,140.080505,-48.684036, -0.000001, 24.748728, 13.577759
 27.550883,143.159256,-48.715612, -0.000001, 25.107661, 13.521533
 29.149233,145.776201,-48.747051, -0.000001, 25.401787, 13.465174
 30.646763,147.924454,-48.778361, -0.000001, 25.629646, 13.408682
 32.036911,149.599018,-48.809549, -0.000001, 25.790344, 13.352056
 33.313744,150.796786,-48.840624, -0.000001, 25.883551, 13.295298
 34.471976,151.516543,-48.871591, -0.000001, 25.909501, 13.238407
 35.506987,151.758956,-48.902458, -0.000001, 25.868974, 13.181382
 36.414843,151.526559,-48.933229, -0.000001, 25.763289, 13.124223
 37.192299,150.823729,-48.963910, -0.000001, 25.594282, 13.066930
 37.836813,149.656656,-48.994504, -0.000001, 25.364281, 13.009503
 38.346548,148.033309,-49.025017, -0.000001, 25.076085, 12.951940
 38.720370,145.963385,-49.055451, -0.000001, 24.732930, 12.894242
 38.957847,143.458267,-49.085809, -0.000001, 24.338459, 12.836407
 39.059240,140.530962,-49.116092, -0.000001, 23.896681, 12.778435
 39.025498,137.196040,-49.146304, -0.000001, 23.411939, 12.720325
 38.858236,133.469567,-49.176443, -0.000001, 22.888866, 12.662075
 38.559727,129.369030,-49.206511, -0.000001, 22.332343, 12.603686
 38.132873,124.913259,-49.236508, -0.000001, 21.747453, 12.545156
 37.581191,120.122342,-49.266432, -0.000001, 21.139442, 12.486484
 36.908782,115.017543,-49.296282, -0.000001, 20.513667, 12.427670
 36.120304,109.621202,-49.326056, -0.000001, 19.875553, 12.368712
 35.220940,103.956647,-49.355752, -0.000001, 19.230548, 12.309609
 34.216368, 98.048090,-49.385366, -0.000001, 18.584078, 12.250361
 33.112724, 91.920531,-49.414895, -0.000001, 17.941499, 12.190965
 31.916564, 85.599651,-49.444336, -0.000001, 17.308058, 12.131422
 30.634827, 79.111706,-49.473683, -0.000001, 16.688849, 12.071731
 29.274796, 72.483423,-49.502931, -0.000001, 16.088774, 12.011890
 27.844053, 65.741889,-49.532075, -0.000001, 15.512506, 11.951898
 26.350441, 58.914445,-49.561110, -0.000001, 14.964450, 11.891755
 24.802019, 52.028574,-49.590029, -0.000001, 14.448719, 11.831460
 23.207017, 45.111794,-49.618825, -0.000001, 13.969093, 11.771012
 21.573795, 38.191550,-49.647492, -0.000001, 13.529001, 11.710411
 19.910797, 31.295106,-49.676022, -0.000001, 13.131497, 11.649655
 18.226510, 24.449439,-49.704409, -0.000001, 12.779235, 11.588745
 16.529415, 17.681137,-49.732643, -0.000001, 12.474459, 11.527679
 14.827950, 11.016297,-49.760717, -0.000001, 12.218987, 11.466457
 13.130465,  4.480424,-49.788623, -0.000001, 12.014203, 11.405079
 11.445182, -1.901661,-49.816353, -0.000001, 11.861051, 11.343544
  9.780153, -8.105918,-49.843897, -0.000001, 11.760037, 11.281852
  8.143225,-14.109174,-49.871248, -0.000001, 11.711226, 11.220003
  6.541999,-19.889207,-49.898396, -0.000001, 11.714251, 11.157997
  4.983797,-25.424828,-49.925332, -0.000001, 11.768322, 11.095833
  3.475629,-30.695958,-49.952048, -0.000001, 11.872240, 11.033512
  2.024161,-35.683696,-49.978534, -0.000001, 12.024408, 10.971034
  0.635684,-40.370386,-50.004782, -0.000001, 12.222857, 10.908398
 -0.683910,-44.739678,-50.030782, -0.000001, 12.465259, 10.845604
 -1.929155,-48.776583,-50.056527, -0.000001, 12.748961, 10.782654
 -3.095032,-52.467521,-50.082006, -0.000001, 13.071003, 10.719547
 -4.176990,-55.800366,-50.107211, -0.000001, 13.428153, 10.656283
 -5.170959,-58.764480,-50.132135, -0.000001, 13.816933, 10.592863
 -6.073371,-61.350750,-50.156768, -0.000001, 14.233656, 10.529286
 -6.881165,-63.551606,-50.181102, -0.000001, 14.674455, 10.465555
 -7.591800,-65.361046,-50.205129, -0.000001, 15.135320, 10.401667
 -8.203260,-66.774644,-50.228842, -0.000001, 15.612132, 10.337625
 -8.714058,-67.789559,-50.252232, -0.000001, 16.100699, 10.273429
 -9.123234,-68.404533,-50.275294, -0.000001, 16.596792, 10.209079
 -9.430357,-68.619887,-50.298019, -0.000001, 17.096181, 10.144575
 -9.635518,-68.437507,-50.320400, -0.000001, 17.594667, 10.079917
 -9.739323,-67.860824,-50.342433, -0.000001, 18.088120, 10.015107
 -9.742885,-66.894794,-50.364109, -0.000001, 18.572509,  9.950145
 -9.647807,-65.545865,-50.385425, -0.000001, 19.043936,  9.885031
 -9.456175,-63.821940,-50.406374, -0.000001, 19.498664,  9.819766
 -9.170535,-61.732339,-50.426951, -0.000001, 19.933148,  9.754349
 -8.793877,-59.287749,-50.447152, -0.000001, 20.344059,  9.688781
 -8.329613,-56.500175,-50.466972, -0.000001, 20.728310,  9.623063
 -7.781557,-53.382884,-50.486408, -0.000001, 21.083079,  9.557195
 -7.153894,-49.950340,-50.505456, -0.000001, 21.405825,  9.491177
 -6.451164,-46.218146,-50.524113, -0.000001, 21.694307,  9.425009
 -5.678224,-42.202965,-50.542376, -0.000000, 21.946598,  9.358692
 -4.840227,-37.922458,-50.560244, -0.000000, 22.161098,  9.292226
 -3.942589,-33.395199,-50.577713, -0.000000, 22.336539,  9.225610
 -2.990959,-28.640600,-50.594783, -0.000000, 22.471992,  9.158845
 -1.991184,-23.678828,-50.611453, -0.000000, 22.566872,  9.091930
 -0.949285,-18.530721,-50.627722, -0.000000, 22.620935,  9.024867
  0.128586,-13.217701,-50.643590, -0.000000, 22.634276,  8.957654
  1.236169, -7.761687,-50.659056, -0.000000, 22.607324,  8.890292
  2.367138, -2.185002,-50.674122, -0.000000, 22.540832,  8.822781
  3.515127,  3.489711,-50.688789, -0.000000, 22.435868,  8.755119
  4.673765,  9.239588,-50.703056, -0.000000, 22.293801,  8.687308
  5.836709, 15.041627,-50.716927, -0.000000, 22.116284,  8.619347
  6.997676, 20.872786,-50.730404, -0.000000, 21.905240,  8.551236
  8.150473, 26.710070,-50.743487, -0.000000, 21.662835,  8.482974
  9.289027, 32.530621,-50.756181, -0.000000, 21.391467,  8.414560
 10.407414, 38.311808,-50.768488, -0.000000, 21.093731,  8.345996
 11.499889, 44.031313,-50.780412, -0.000000, 20.772407,  8.277279
 12.560910, 49.667217,-50.791955, -0.000000, 20.430423,  8.208411
 13.585166, 55.198083,-50.803122, -0.000000, 20.070838,  8.139389
 14.567598, 60.603037,-50.813917, -0.000000, 19.696808,  8.070215
 15.503426, 65.861845,-50.824344, -0.000000, 19.311563,  8.000887
 16.388163, 70.954988,-50.834409, -0.000000, 18.918377,  7.931405
 17.217640, 75.863734,-50.844114, -0.000000, 18.520541,  7.861769
 17.988020, 80.570205,-50.853466, -0.000000, 18.121336,  7.791978
 18.695812, 85.057444,-50.862470, -0.000000, 17.724007,  7.722031
 19.337888, 89.309469,-50.871130, -0.000000, 17.331734,  7.651928
 19.911490, 93.311337,-50.879453, -0.000000, 16.947607,  7.581669
 20.414243, 97.049187,-50.887444, -0.000000, 16.574606,  7.511254
 20.844159,100.510293,-50.895108, -0.000000, 16.215574,  7.440681
 21.199644,103.683101,-50.902451, -0.000000, 15.873195,  7.369951
 21.479498,106.557271,-50.909479, -0.000000, 15.549979,  7.299062
 21.682922,109.123704,-50.916198, -0.000000, 15.248237,  7.228016
 21.809510,111.374575,-50.922614, -0.000000, 14.970071,  7.156810
 21.859250,113.303346,-50.928732, -0.000000, 14.717356,  7.085446
 21.832519,114.904791,-50.934558, -0.000000, 14.491730,  7.013922
 21.730073,116.175004,-50.940098, -0.000000, 14.294581,  6.942238
 21.553042,117.111404,-50.945358, -0.000000, 14.127044,  6.870395
 21.302919,117.712734,-50.950344, -0.000000, 13.989988,  6.798392
 20.981543,117.979064,-50.955061, -0.000000, 13.884021,  6.726228
 20.591092,117.911774,-50.959514, -0.000000, 13.809484,  6.653904
 20.134064,117.513541,-50.963709, -0.000000, 13.766450,  6.581419
 19.613260,116.788322,-50.967651, -0.000000, 13.754735,  6.508774
 19.031767,115.741327,-50.971346, -0.000000, 13.773893,  6.435967
 18.392937,114.378990,-50.974798, -0.000000, 13.823233,  6.363001
 17.700372,112.708937,-50.978012, -0.000000, 13.901823,  6.289873
 16.957893,110.739944,-50.980993, -0.000000, 14.008500,  6.216584
 16.169527,108.481898,-50.983745, -0.000000, 14.141888,  6.143135
 15.339480,105.945750,-50.986272, -0.000000, 14.300408,  6.069525
 14.472114,103.143461,-50.988579, -0.000000, 14.482298,  5.995755
 13.571920,100.087954,-50.990669, -0.000000, 14.685623,  5.921824
 12.643500, 96.793051,-50.992545, -0.000000, 14.908303,  5.847733
 11.691536, 93.273414,-50.994211, -0.000000, 15.148126,  5.773482
 10.720769, 89.544484,-50.995670, -0.000000, 15.402768,  5.699071
  9.735973, 85.622412,-50.996925, -0.000000, 15.669817,  5.624500
  8.741931, 81.523993,-50.997978, -0.000000, 15.946792,  5.549769
  7.743409, 77.266592,-50.998832, -0.000000, 16.231165,  5.474879
  6.745135, 72.868076,-50.999487, -0.000000, 16.520384,  5.399830
  5.751774, 68.346740,-50.999948, -0.000000, 16.811891,  5.324622
  4.767902, 63.721228,-51.000213, -0.000000, 17.103146,  5.249255
  3.797992, 59.010462,-51.000286, -0.000000, 17.391647,  5.173729
  2.846384, 54.233564,-51.000166, -0.000000, 17.674950,  5.098046
  1.917271, 49.409779,-50.999854, -0.000000, 17.950686,  5.022204
  1.014677, 44.558400,-50.999351, -0.000000, 18.216586,  4.946205
  0.142437, 39.698693,-50.998656, -0.000000, 18.470491,  4.870048
 -0.695815, 34.849817,-50.997770, -0.000000, 18.710371,  4.793733
 -1.496666, 30.030754,-50.996692, -0.000000, 18.934342,  4.717261
 -2.256937, 25.260237,-50.995421, -0.000000, 19.140675,  4.640633
 -2.973694, 20.556671,-50.993956, -0.000000, 19.327812,  4.563847
 -3.644265, 15.938073,-50.992296, -0.000000, 19.494376,  4.486905
 -4.266246, 11.421995,-50.990439, -0.000000, 19.639176,  4.409807
 -4.837507,  7.025464,-50.988385, -0.000000, 19.761219,  4.332552
 -5.356209,  2.764919,-50.986130, -0.000000, 19.859711,  4.255141
 -5.820797, -1.343853,-50.983672, -0.000000, 19.934065,  4.177573
 -6.230016, -5.285772,-50.981010, -0.000000, 19.983899,  4.099850
 -6.582904, -9.046518,-50.978141, -0.000000, 20.009038,  4.021971
 -6.878800,-12.612584,-50.975061, -0.000000, 20.009512,  3.943936
 -7.117338,-15.971322,-50.971769, -0.000000, 19.985554,  3.865745
 -7.298449,-19.110989,-50.968260, -0.000000, 19.937594,  3.787398
 -7.422357,-22.020780,-50.964531, -0.000000, 19.866252,  3.708895
 -7.489572,-24.690873,-50.960580, -0.000000, 19.772331,  3.630237
 -7.500885,-27.112453,-50.956402, -0.000000, 19.656808,  3.551423
 -7.457360,-29.277744,-50.951994, -0.000000, 19.520822,  3.472452
 -7.360328,-31.180029,-50.947352, -0.000000, 19.365666,  3.393326
 -7.211370,-32.813671,-50.942472, -0.000000, 19.192769,  3.314044
 -7.012313,-34.174127,-50.937350, -0.000000, 19.003684,  3.234606
 -6.765215,-35.257959,-50.931982, -0.000000, 18.800077,  3.155012
 -6.472349,-36.062836,-50.926364, -0.000000, 18.583707,  3.075261
 -6.136193,-36.587541,-50.920492, -0.000000, 18.356411,  2.995354
 -5.759411,-36.831963,-50.914362, -0.000000, 18.120089,  2.915291
 -5.344841,-36.797091,-50.907968, -0.000000, 17.876689,  2.835071
 -4.895474,-36.485005,-50.901308, -0.000000, 17.628186,  2.754694
 -4.414442,-35.898857,-50.894376, -0.000000, 17.376568,  2.674161
 -3.904994,-35.042852,-50.887169, -0.000000, 17.123820,  2.593471
 -3.370485,-33.922223,-50.879683, -0.000000, 16.871905,  2.512623
 -2.814353,-32.543206,-50.871912, -0.000000, 16.622751,  2.431619
 -2.240101,-30.913008,-50.863854, -0.000000, 16.378234,  2.350458
 -1.651280,-29.039767,-50.855503, -0.000000, 16.140164,  2.269139
 -1.051469,-26.932521,-50.846857, -0.000000, 15.910269,  2.187663
 -0.444260,-24.601161,-50.837911, -0.000000, 15.690187,  2.106029
  0.166768,-22.056388,-50.828661, -0.000000, 15.481447,  2.024238
  0.778057,-19.309664,-50.819104, -0.000000, 15.285464,  1.942289
  1.386096,-16.373164,-50.809235, -0.000000, 15.103524,  1.860183
  1.987434,-13.259721,-50.799053, -0.000000, 14.936779,  1.777919
  2.578699, -9.982773,-50.788552, -0.000000, 14.786239,  1.695497
  3.156609, -6.556305,-50.777730, -0.000000, 14.652762,  1.612917
  3.717994, -2.994788,-50.766584, -0.000000, 14.537055,  1.530180
  4.259808,  0.686875,-50.755112, -0.000000, 14.439666,  1.447285
  4.779140,  4.473417,-50.743309, -0.000000, 14.360983,  1.364232
  5.273233,  8.349267,-50.731174, -0.000000, 14.301233,  1.281022
  5.739488, 12.298611,-50.718704, -0.000000, 14.260482,  1.197654
  6.175484, 16.305460,-50.705897, -0.000000, 14.238639,  1.114128
  6.578981, 20.353709,-50.692751, -0.000000, 14.235457,  1.030446
  6.947931, 24.427206,-50.679263, -0.000000, 14.250538,  0.946605
  7.280488, 28.509813,-50.665433, -0.000000, 14.283337,  0.862608
  7.575012, 32.585467,-50.651258, -0.000000, 14.333170,  0.778454
  7.830076, 36.638248,-50.636738, -0.000000, 14.399224,  0.694143
  8.044471, 40.652435,-50.621870, -0.000000, 14.480559,  0.609675
  8.217208, 44.612571,-50.606655, -0.000000, 14.576125,  0.525051
  8.347519, 48.503516,-50.591091, -0.000000, 14.684768,  0.440271
  8.434862, 52.310511,-50.575178, -0.000000, 14.805241,  0.355334
  8.478918, 56.019227,-50.558914, -0.000000, 14.936218,  0.270242
  8.479590, 59.615821,-50.542301, -0.000000, 15.076304,  0.184994
  8.437000, 63.086989,-50.525338, -0.000000, 15.224048,  0.099591
  8.351489, 66.420009,-50.508025, -0.000000, 15.377955,  0.014033
  8.223607, 69.602792,-50.490362, -0.000000, 15.536503, -0.071681
  8.054112, 72.623921,-50.472350, -0.000000, 15.698149, -0.157548
  7.843962, 75.472693,-50.453989, -0.000000, 15.861349, -0.243570
  7.594306, 78.139158,-50.435281, -0.000000, 16.024565, -0.329746
  7.306480, 80.614147,-50.416226, -0.000000, 16.186284, -0.416076
  6.981993, 82.889309,-50.396825, -0.000000, 16.345021, -0.502559
  6.622519, 84.957131,-50.377080, -0.000000, 16.499342, -0.589195
  6.229887, 86.810969,-50.356992, -0.000000, 16.647865, -0.675984
  5.806071, 88.445062,-50.336562, -0.000000, 16.789276, -0.762925
  5.353174, 89.854551,-50.315792, -0.000000, 16.922339, -0.850019
  4.873419, 91.035493,-50.294684, -0.000000, 17.045903, -0.937264
  4.369136, 91.984866,-50.273240, -0.000000, 17.158911, -1.024661
  3.842748, 92.700577,-50.251462, -0.000000, 17.260408, -1.112209
  3.296759, 93.181465,-50.229351, -0.000000, 17.349547, -1.199909
  2.733735, 93.427295,-50.206911, -0.000000, 17.425592, -1.287759
  2.156300, 93.438757,-50.184143, -0.000000, 17.487928, -1.375759
  1.567111, 93.217452,-50.161049, -0.000000, 17.536060, -1.463910
  0.968854, 92.765884,-50.137633, -0.000000, 17.569616, -1.552210
  0.364221, 92.087439,-50.113896, -0.000000, 17.588349, -1.640660
 -0.244095, 91.186371,-50.089841, -0.000000, 17.592136, -1.729260
 -0.853420, 90.067773,-50.065470, -0.000000, 17.580980, -1.818008
 -1.461111, 88.737558,-50.040786, -0.000000, 17.555005, -1.906905
 -2.064567, 87.202422,-50.015792, -0.000000, 17.514455, -1.995950
 -2.661241, 85.469820,-49.990491, -0.000000, 17.459690, -2.085144
 -3.248658, 83.547927,-49.964883, -0.000000, 17.391182, -2.174486
 -3.824418, 81.445601,-49.938974, -0.000000, 17.309506, -2.263975
 -4.386216, 79.172345,-49.912764, -0.000000, 17.215339, -2.353612
 -4.931843, 76.738265,-49.886257, -0.000000, 17.109449, -2.443397
 -5.459207, 74.154024,-49.859455, -0.000000, 16.992690, -2.533328
 -5.966331, 71.430799,-49.832360, -0.000000, 16.865991, -2.623406
 -6.451369, 68.580233,-49.804976, -0.000000, 16.730349, -2.713631
 -6.912611, 65.614383,-49.777303, -0.000000, 16.586822, -2.804001
 -7.348490, 62.545676,-49.749346, -0.000000, 16.436512, -2.894518
 -7.757588, 59.386849,-49.721105, -0.000000, 16.280565, -2.985181
 -8.138643, 56.150906,-49.692583, -0.000000, 16.120153, -3.075989
 -8.490548, 52.851059,-49.663783, -0.000000, 15.956469, -3.166943
 -8.812363, 49.500676,-49.634706, -0.000000, 15.790713, -3.258042
 -9.103311, 46.113230,-49.605354, -0.000000, 15.624085, -3.349285
 -9.362781, 42.702242,-49.575730, -0.000000, 15.457775, -3.440674
 -9.590331, 39.281229,-49.545834, -0.000000, 15.292950, -3.532206
 -9.785687, 35.863653,-49.515669, -0.000000, 15.130749, -3.623883
 -9.948741, 32.462863,-49.485235, -0.000000, 14.972271, -3.715704
-10.079552, 29.092052,-49.454536, -0.000000, 14.818568, -3.807668
-10.178340, 25.764198,-49.423570, -0.000000, 14.670637, -3.899776
-10.245488, 22.492019,-49.392341, -0.000000, 14.529412, -3.992027
-10.281531, 19.287926,-49.360849,  0.000000, 14.395756, -4.084420
-10.287158, 16.163971,-49.329095,  0.000000, 14.270459, -4.176956
-10.263202, 13.131810,-49.297080,  0.000000, 14.154227, -4.269634
-10.210636, 10.202653,-49.264804,  0.000000, 14.047682, -4.362454
-10.130568,  7.387227,-49.232269,  0.000000, 13.951357, -4.455415
-10.024227,  4.695738,-49.199473,  0.000000, 13.865689, -4.548518
 -9.892965,  2.137830,-49.166419,  0.000000, 13.791023, -4.641761
 -9.738239, -0.277442,-49.133106,  0.000000, 13.727608, -4.735145
 -9.561608, -2.541649,-49.099534,  0.000000, 13.675592, -4.828670
 -9.364724, -4.647015,-49.065703,  0.000000, 13.635030, -4.922333
 -9.149319, -6.586441,-49.031613,  0.000000, 13.605879, -5.016137
 -8.917197, -8.353532,-48.997263,  0.000000, 13.588003, -5.110079
 -8.670224, -9.942612,-48.962654,  0.000000, 13.581173, -5.204160
 -8.410320,-11.348746,-48.927784,  0.000000, 13.585071, -5.298379
 -8.139443,-12.567750,-48.892653,  0.000000, 13.599297, -5.392735
 -7.859585,-13.596207,-48.857261,  0.000000, 13.623368, -5.487229
 -7.572755,-14.431470,-48.821605,  0.000000, 13.656728, -5.581860
 -7.280975,-15.071668,-48.785686,  0.000000, 13.698751, -5.676627
 -6.986266,-15.515713,-48.749503,  0.000000, 13.748746, -5.771530
 -6.690637,-15.763290,-48.713053,  0.000000, 13.805970, -5.866569
 -6.396078,-15.814861,-48.676336,  0.000000, 13.869625, -5.961742
 -6.104547,-15.671653,-48.639351,  0.000000, 13.938876, -6.057050
 -5.817965,-15.335647,-48.602095,  0.000000, 14.012849, -6.152492
 -5.538200,-14.809571,-48.564569,  0.000000, 14.090645, -6.248067
 -5.267065,-14.096876,-48.526768,  0.000000, 14.171346, -6.343774
 -5.006306,-13.201723,-48.488694,  0.000000, 14.254021, -6.439615
 -4.757594,-12.128961,-48.450342,  0.000000, 14.337738, -6.535587
 -4.522518,-10.884100,-48.411713,  0.000000, 14.421566, -6.631690
 -4.302579, -9.473288,-48.372803,  0.000000, 14.504589, -6.727924
 -4.099183, -7.903281,-48.333611,  0.000000, 14.585907, -6.824288
 -3.913633, -6.181412,-48.294135,  0.000000, 14.664650, -6.920781
 -3.747128, -4.315560,-48.254374,  0.000000, 14.739979, -7.017403
 -3.600755, -2.314111,-48.214324,  0.000000, 14.811093, -7.114154
 -3.475484, -0.185929,-48.173985,  0.000000, 14.877240, -7.211033
 -3.372169,  2.059691,-48.133353,  0.000000, 14.937717, -7.308038
 -3.291541,  4.413057,-48.092428,  0.000000, 14.991879, -7.405171
 -3.234208,  6.864121,-48.051207,  0.000000, 15.039139, -7.502429
 -3.200653,  9.402522,-48.009688,  0.000000, 15.078977, -7.599813
 -3.191233, 12.017631,-47.967869,  0.000000, 15.110941, -7.697321
 -3.206179, 14.698589,-47.925748,  0.000000, 15.134649, -7.794954
 -3.245596, 17.434357,-47.883322,  0.000000, 15.149791, -7.892710
 -3.309465, 20.213757,-47.840591,  0.000000, 15.156133, -7.990590
 -3.397644, 23.025518,-47.797552,  0.000000, 15.153517, -8.088591
 -3.509871, 25.858321,-47.754203,  0.000000, 15.141859, -8.186714
 -3.645765, 28.700844,-47.710543,  0.000000, 15.121149, -8.284959
 -3.804832, 31.541805,-47.666568,  0.000000, 15.091454, -8.383324
 -3.986467, 34.370006,-47.622279,  0.000000, 15.052913, -8.481808
 -4.189961, 37.174380,-47.577672,  0.000000, 15.005732, -8.580412
 -4.414501, 39.944028,-47.532747,  0.000000, 14.950189, -8.679135
 -4.659182, 42.668265,-47.487501,  0.000000, 14.886624, -8.777975
 -4.923008, 45.336656,-47.441934,  0.000000, 14.815437, -8.876933
 -5.204898, 47.939060,-47.396043,  0.000000, 14.737086, -8.976008
 -5.503696, 50.465665,-47.349827,  0.000000, 14.652081, -9.075198
 -5.818177, 52.907025,-47.303285,  0.000000, 14.560976, -9.174504
 -6.147050, 55.254092,-47.256416,  0.000000, 14.464371, -9.273925
 -6.488971, 57.498254,-47.209218,  0.000000, 14.362898, -9.373459
 -6.842547, 59.631358,-47.161691,  0.000000, 14.257222, -9.473107
 -7.206344, 61.645747,-47.113832,  0.000000, 14.148032, -9.572868
 -7.578896, 63.534282,-47.065643,  0.000000, 14.036034, -9.672741
 -7.958712, 65.290364,-47.017120,  0.000000, 13.921947, -9.772725
 -8.344284, 66.907962,-46.968265,  0.000000, 13.806498, -9.872821
 -8.734096, 68.381630,-46.919075,  0.000000, 13.690412, -9.973026
 -9.126629, 69.706521,-46.869551,  0.000000, 13.574408,-10.073340
 -9.520371, 70.878408,-46.819692,  0.000000, 13.459195,-10.173763
 -9.913823, 71.893690,-46.769498,  0.000000, 13.345463,-10.274294
-10.305510, 72.749407,-46.718967,  0.000000, 13.233881,-10.374933
-10.693983, 73.443242,-46.668101,  0.000000, 13.125087,-10.475678
-11.077829, 73.973531,-46.616899,  0.000000, 13.019691,-10.576528
-11.455677, 74.339261,-46.565360,  0.000000, 12.918260,-10.677484
-11.826206, 74.540070,-46.513485,  0.000000, 12.821324,-10.778544
-12.188148, 74.576245,-46.461274,  0.000000, 12.729365,-10.879708
-12.540295, 74.448714,-46.408727,  0.000000, 12.642818,-10.980975
-12.881506, 74.159042,-46.355844,  0.000000, 12.562065,-11.082343
-13.210711, 73.709416,-46.302626,  0.000000, 12.487435,-11.183813
-13.526912, 73.102635,-46.249073,  0.000000, 12.419202,-11.285383
-13.829193, 72.342092,-46.195186,  0.000000, 12.357581,-11.387054
-14.116719, 71.431760,-46.140965,  0.000000, 12.302731,-11.488823
-14.388743, 70.376169,-46.086410,  0.000000, 12.254749,-11.590690
-14.644605, 69.180386,-46.031523,  0.000000, 12.213677,-11.692654
-14.883735, 67.849991,-45.976303,  0.000000, 12.179497,-11.794715
-15.105656, 66.391052,-45.920753,  0.000000, 12.152133,-11.896871
-15.309986, 64.810096,-45.864873,  0.000000, 12.131456,-11.999122
-15.496437, 63.114084,-45.808663,  0.000000, 12.117281,-12.101467
-15.664813, 61.310376,-45.752125,  0.000000, 12.109373,-12.203905
-15.815016, 59.406700,-45.695259,  0.000000, 12.107446,-12.306435
-15.947039, 57.411125,-45.638067,  0.000000, 12.111171,-12.409057
-16.060970, 55.332018,-45.580550,  0.000000, 12.120175,-12.511768
-16.156984, 53.178016,-45.522709,  0.000000, 12.134047,-12.614569
-16.235349, 50.957987,-45.464544,  0.000000, 12.152340,-12.717459
-16.296416, 48.680995,-45.406058,  0.000000, 12.174579,-12.820436
-16.340621, 46.356261,-45.347251,  0.000000, 12.200260,-12.923500
-16.368481, 43.993129,-45.288124,  0.000000, 12.228860,-13.026649
-16.380587, 41.601025,-45.228679,  0.000000, 12.259837,-13.129883
-16.377604, 39.189422,-45.168917,  0.000000, 12.292637,-13.233201
-16.360264, 36.767802,-45.108839,  0.000000, 12.326701,-13.336601
-16.329365, 34.345617,-45.048446,  0.000000, 12.361464,-13.440084
-16.285761, 31.932256,-44.987739,  0.000000, 12.396364,-13.543647
-16.230361, 29.537002,-44.926720,  0.000000, 12.430846,-13.647289
-16.164122, 27.169005,-44.865390,  0.000000, 12.464366,-13.751011
-16.088044, 24.837240,-44.803750,  0.000000, 12.496395,-13.854810
-16.003164, 22.550477,-44.741801,  0.000000, 12.526424,-13.958686
-15.910551, 20.317244,-44.679544,  0.000000, 12.553966,-14.062638
-15.811299, 18.145801,-44.616981,  0.000000, 12.578562,-14.166664
-15.706521, 16.044105,-44.554112,  0.000000, 12.599785,-14.270764
-15.597348, 14.019783,-44.490938,  0.000000, 12.617239,-14.374936
-15.484913, 12.080102,-44.427461,  0.000000, 12.630567,-14.479179
-15.370357, 10.231947,-44.363682,  0.000000, 12.639447,-14.583493
-15.254812,  8.481794,-44.299600,  0.000000, 12.643603,-14.687877
-15.139406,  6.835686,-44.235218,  0.000000, 12.642796,-14.792328
-15.025248,  5.299217,-44.170537,  0.000000, 12.636836,-14.896847
-14.913428,  3.877509,-44.105556,  0.000000, 12.625574,-15.001431
-14.805012,  2.575198,-44.040277,  0.000001, 12.608908,-15.106081
-14.701032,  1.396417,-43.974700,  0.000001, 12.586784,-15.210794
-14.602489,  0.344784,-43.908826,  0.000001, 12.559188,-15.315570
-14.510339, -0.576606,-43.842656,  0.000001, 12.526156,-15.420407
-14.425498, -1.365194,-43.776190,  0.000001, 12.487766,-15.525305
-14.348830, -2.018959,-43.709429,  0.000001, 12.444137,-15.630262
-14.281149, -2.536426,-43.642373,  0.000001, 12.395432,-15.735277
-14.223212, -2.916664,-43.575022,  0.000001, 12.341852,-15.840349
-14.175719, -3.159288,-43.507378,  0.000001, 12.283634,-15.945477
-14.139307, -3.264457,-43.439439,  0.000001, 12.221050,-16.050659
-14.114550, -3.232870,-43.371207,  0.000001, 12.154405,-16.155895
-14.101953, -3.065755,-43.302681,  0.000001, 12.084031,-16.261184
-14.101957, -2.764868,-43.233862,  0.000001, 12.010286,-16.366523
-14.114932, -2.332475,-43.164749,  0.000001, 11.933550,-16.471912
-14.141178, -1.771345,-43.095343,  0.000001, 11.854224,-16.577350
-14.180924, -1.084731,-43.025644,  0.000001, 11.772721,-16.682835
-14.234329, -0.276358,-42.955651,  0.000001, 11.689467,-16.788367
-14.301480,  0.649597,-42.885365,  0.000001, 11.604898,-16.893943
-14.382394,  1.688525,-42.814784,  0.000001, 11.519450,-16.999564
-14.477018,  2.835405,-42.743909,  0.000001, 11.433564,-17.105227
-14.585231,  4.084827,-42.672740,  0.000001, 11.347674,-17.210931
-14.706845,  5.431017,-42.601276,  0.000001, 11.262210,-17.316675
-14.841607,  6.867859,-42.529517,  0.000001, 11.177591,-17.422459
-14.989200,  8.388926,-42.457462,  0.000001, 11.094223,-17.528279
-15.149247,  9.987504,-42.385111,  0.000001, 11.012495,-17.634136
-15.321314, 11.656620,-42.312463,  0.000001, 10.932778,-17.740028
-15.504909, 13.389076,-42.239517,  0.000001, 10.855419,-17.845954
-15.699492, 15.177472,-42.166274,  0.000001, 10.780740,-17.951912
-15.904471, 17.014240,-42.092732,  0.000001, 10.709038,-18.057901
-16.119213, 18.891678,-42.018891,  0.000001, 10.640579,-18.163920
-16.343040, 20.801973,-41.944751,  0.000001, 10.575600,-18.269967
-16.575239, 22.737241,-41.870309,  0.000001, 10.514303,-18.376041
-16.815065, 24.689553,-41.795567,  0.000001, 10.456858,-18.482141
-17.061741, 26.650967,-41.720522,  0.000001, 10.403401,-18.588265
-17.314467, 28.613563,-41.645175,  0.000001, 10.354032,-18.694412
-17.572425, 30.569470,-41.569523,  0.000001, 10.308816,-18.800581
-17.834778, 32.510895,-41.493568,  0.000001, 10.267783,-18.906770
-18.100680, 34.430160,-41.417307,  0.000001, 10.230926,-19.012978
-18.369275, 36.319724,-41.340741,  0.000001, 10.198204,-19.119203
-18.639707, 38.172216,-41.263868,  0.000001, 10.169545,-19.225444
-18.911122, 39.980460,-41.186687,  0.000001, 10.144841,-19.331700
-19.182671, 41.737504,-41.109198,  0.000001, 10.123955,-19.437969
-19.453516, 43.436646,-41.031399,  0.000001, 10.106717,-19.544249
-19.722831, 45.071453,-40.953291,  0.000001, 10.092933,-19.650540
-19.989813, 46.635794,-40.874872,  0.000001, 10.082381,-19.756839
-20.253677, 48.123853,-40.796142,  0.000001, 10.074815,-19.863146
-20.513666, 49.530153,-40.717099,  0.000001, 10.069970,-19.969458
-20.769051, 50.849576,-40.637744,  0.000001, 10.067560,-20.075775
-21.019138, 52.077381,-40.558074,  0.000001, 10.067284,-20.182094
-21.263266, 53.209216,-40.478091,  0.000001, 10.068826,-20.288414
-21.500815, 54.241136,-40.397793,  0.000001, 10.071861,-20.394735
-21.731204, 55.169616,-40.317179,  0.000001, 10.076056,-20.501053
-21.953898, 55.991557,-40.236248,  0.000001, 10.081073,-20.607368
-22.168406, 56.704303,-40.155002,  0.000001, 10.086571,-20.713679
-22.374285, 57.305639,-40.073437,  0.000001, 10.092211,-20.819982
-22.571141, 57.793805,-39.991555,  0.000001, 10.097657,-20.926278
-22.758633, 58.167494,-39.909355,  0.000001, 10.102579,-21.032564
-22.936469, 58.425857,-39.826836,  0.000001, 10.106657,-21.138839
-23.104410, 58.568503,-39.743998,  0.000001, 10.109581,-21.245101
-23.262271, 58.595493,-39.660841,  0.000001, 10.111057,-21.351348
-23.409919, 58.507344,-39.577364,  0.000001, 10.110804,-21.457580
-23.547277, 58.305017,-39.493567,  0.000001, 10.108562,-21.563793
-23.674316, 57.989914,-39.409449,  0.000001, 10.104090,-21.669988
-23.791065, 57.563868,-39.325012,  0.000001, 10.097167,-21.776162
-23.897600, 57.029132,-39.240253,  0.000001, 10.087599,-21.882313
-23.994050, 56.388370,-39.155174,  0.000001, 10.075214,-21.988439
-24.080593, 55.644640,-39.069775,  0.000001, 10.059865,-22.094540
-24.157454, 54.801383,-38.984054,  0.000001, 10.041433,-22.200613
-24.224905, 53.862403,-38.898013,  0.000001, 10.019825,-22.306657
-24.283259, 52.831851,-38.811651,  0.000001,  9.994978,-22.412670
-24.332875, 51.714210,-38.724969,  0.000001,  9.966852,-22.518651
-24.374149, 50.514268,-38.637967,  0.000001,  9.935439,-22.624597
-24.407513, 49.237102,-38.550644,  0.000001,  9.900755,-22.730507
-24.433435, 47.888055,-38.463001,  0.000001,  9.862844,-22.836379
-24.452413, 46.472715,-38.375039,  0.000001,  9.821776,-22.942212
-24.464976, 44.996885,-38.286758,  0.000001,  9.777646,-23.048004
-24.471675, 43.466567,-38.198157,  0.000001,  9.730571,-23.153752
-24.473085, 41.887931,-38.109239,  0.000001,  9.680694,-23.259456
-24.469801, 40.267292,-38.020002,  0.000001,  9.628176,-23.365113
-24.462432, 38.611086,-37.930447,  0.000001,  9.573198,-23.470722
-24.451600, 36.925839,-37.840576,  0.000001,  9.515959,-23.576281
-24.437937, 35.218146,-37.750388,  0.000001,  9.456675,-23.681789
-24.422081, 33.494640,-37.659885,  0.000001,  9.395573,-23.787243
-24.404671, 31.761971,-37.569066,  0.000001,  9.332894,-23.892641
-24.386347, 30.026774,-37.477932,  0.000001,  9.268887,-23.997982
-24.367744, 28.295647,-37.386485,  0.000001,  9.203809,-24.103264
-24.349490, 26.575125,-37.294724,  0.000001,  9.137922,-24.208486
-24.332203, 24.871653,-37.202651,  0.000001,  9.071491,-24.313645
-24.316489, 23.191564,-37.110266,  0.000001,  9.004781,-24.418739
-24.302935, 21.541052,-37.017570,  0.000001,  8.938057,-24.523767
-24.292111, 19.926151,-36.924564,  0.000001,  8.871578,-24.628727
-24.284567, 18.352710,-36.831248,  0.000001,  8.805599,-24.733617
-24.280825, 16.826375,-36.737625,  0.000001,  8.740366,-24.838435
-24.281385, 15.352566,-36.643693,  0.000001,  8.676117,-24.943180
-24.286714, 13.936457,-36.549455,  0.000001,  8.613076,-25.047849
-24.297252, 12.582957,-36.454910,  0.000001,  8.551456,-25.152440
-24.313406, 11.296696,-36.360061,  0.000001,  8.491455,-25.256952
-24.335547, 10.082005,-36.264908,  0.000001,  8.433252,-25.361383
-24.364011,  8.942902,-36.169451,  0.000001,  8.377014,-25.465730
-24.399100,  7.883082,-36.073692,  0.000001,  8.322883,-25.569993
-24.441074,  6.905898,-35.977631,  0.000001,  8.270987,-25.674168
-24.490158,  6.014356,-35.881270,  0.000001,  8.221430,-25.778255
-24.546534,  5.211105,-35.784609,  0.000001,  8.174298,-25.882250
-24.610349,  4.498425,-35.687649,  0.000001,  8.129654,-25.986153
-24.681705,  3.878227,-35.590392,  0.000001,  8.087541,-26.089961
-24.760667,  3.352042,-35.492837,  0.000001,  8.047979,-26.193672
-24.847260,  2.921020,-35.394986,  0.000001,  8.010967,-26.297285
-24.941468,  2.585932,-35.296840,  0.000001,  7.976485,-26.400796
-25.043238,  2.347162,-35.198400,  0.000001,  7.944490,-26.504205
-25.152479,  2.204716,-35.099666,  0.000001,  7.914921,-26.607510
-25.269060,  2.158218,-35.000639,  0.000001,  7.887697,-26.710708
-25.392816,  2.206919,-34.901321,  0.000001,  7.862719,-26.813797
-25.523549,  2.349701,-34.801711,  0.000001,  7.839871,-26.916775
-25.661024,  2.585083,-34.701811,  0.000001,  7.819021,-27.019640
-25.804976,  2.911229,-34.601622,  0.000001,  7.800023,-27.122391
-25.955112,  3.325962,-34.501143,  0.000001,  7.782719,-27.225025
-26.111108,  3.826770,-34.400377,  0.000001,  7.766937,-27.327540
-26.272615,  4.410818,-34.299323,  0.000001,  7.752496,-27.429934
-26.439259,  5.074967,-34.197983,  0.000001,  7.739208,-27.532206
-26.610647,  5.815783,-34.096356,  0.000001,  7.726877,-27.634352
-26.786363,  6.629554,-33.994445,  0.000001,  7.715301,-27.736371
-26.965976,  7.512309,-33.892248,  0.000001,  7.704278,-27.838261
-27.149039,  8.459830,-33.789768,  0.000001,  7.693602,-27.940019
-27.335094,  9.467676,-33.687004,  0.000001,  7.683067,-28.041644
-27.523672, 10.531200,-33.583957,  0.000001,  7.672471,-28.143134
-27.714296, 11.645567,-33.480628,  0.000001,  7.661614,-28.244486
-27.906485, 12.805775,-33.377017,  0.000001,  7.650301,-28.345699
-28.099756, 14.006678,-33.273125,  0.000001,  7.638345,-28.446769
-28.293625, 15.243004,-33.168952,  0.000001,  7.625567,-28.547696
-28.487611, 16.509380,-33.064498,  0.000001,  7.611796,-28.648476
-28.681237, 17.800350,-32.959764,  0.000001,  7.596873,-28.749109
-28.874035, 19.110399,-32.854751,  0.000001,  7.580651,-28.849590
-29.065544, 20.433977,-32.749459,  0.000001,  7.562995,-28.949920
-29.255317, 21.765516,-32.643888,  0.000001,  7.543786,-29.050095
-29.442920, 23.099458,-32.538038,  0.000001,  7.522918,-29.150113
-29.627933, 24.430270,-32.431911,  0.000001,  7.500301,-29.249971
-29.809955, 25.752471,-32.325506,  0.000001,  7.475860,-29.349669
-29.988607, 27.060653,-32.218823,  0.000001,  7.449538,-29.449204
-30.163526, 28.349497,-32.111863,  0.000001,  7.421294,-29.548572
-30.334375, 29.613798,-32.004626,  0.000001,  7.391101,-29.647774
-30.500842, 30.848482,-31.897113,  0.000001,  7.358953,-29.746805
-30.662636, 32.048625,-31.789324,  0.000001,  7.324858,-29.845664
-30.819497, 33.209474,-31.681258,  0.000001,  7.288839,-29.944349
-30.971190, 34.326460,-31.572916,  0.000001,  7.250938,-30.042857
-31.117509, 35.395220,-31.464299,  0.000001,  7.211210,-30.141186
-31.258277, 36.411607,-31.355406,  0.000001,  7.169724,-30.239335
-31.393345, 37.371709,-31.246238,  0.000001,  7.126563,-30.337301
-31.522595, 38.271861,-31.136796,  0.000001,  7.081826,-30.435081
-31.645940, 39.108656,-31.027078,  0.000001,  7.035618,-30.532673
-31.763320, 39.878961,-30.917085,  0.000001,  6.988060,-30.630076
-31.874709, 40.579923,-30.806819,  0.000001,  6.939280,-30.727286
-31.980107, 41.208980,-30.696278,  0.000001,  6.889414,-30.824303
-32.079546, 41.763869,-30.585462,  0.000001,  6.838608,-30.921122
-32.173083, 42.242633,-30.474373,  0.000001,  6.787012,-31.017743
-32.260808, 42.643626,-30.363011,  0.000001,  6.734780,-31.114163
-32.342835, 42.965516,-30.251375,  0.000001,  6.682070,-31.210379
-32.419304, 43.207292,-30.139465,  0.000001,  6.629042,-31.306390
-32.490382, 43.368262,-30.027283,  0.000001,  6.575856,-31.402193
-32.556260, 43.448052,-29.914828,  0.000001,  6.522673,-31.497786
-32.617149, 43.446613,-29.802100,  0.000001,  6.469650,-31.593167
-32.673285, 43.364208,-29.689100,  0.000001,  6.416941,-31.688333
-32.724922, 43.201420,-29.575828,  0.000001,  6.364697,-31.783282
-32.772332, 42.959137,-29.462284,  0.000001,  6.313060,-31.878012
-32.815805, 42.638554,-29.348469,  0.000001,  6.262168,-31.972520
-32.855644, 42.241164,-29.234382,  0.000001,  6.212151,-32.066805
-32.892169, 41.768747,-29.120024,  0.000001,  6.163129,-32.160864
-32.925707, 41.223365,-29.005396,  0.000001,  6.115213,-32.254694
-32.956598, 40.607351,-28.890498,  0.000001,  6.068503,-32.348294
-32.985188, 39.923296,-28.775329,  0.000001,  6.023089,-32.441660
-33.011830, 39.174039,-28.659892,  0.000001,  5.979049,-32.534792
-33.036880, 38.362653,-28.544185,  0.000001,  5.936446,-32.627686
-33.060698, 37.492433,-28.428209,  0.000001,  5.895336,-32.720340
-33.083642, 36.566880,-28.311965,  0.000001,  5.855758,-32.812752
-33.106070, 35.589684,-28.195454,  0.000001,  5.817738,-32.904920
-33.128338, 34.564713,-28.078675,  0.000001,  5.781292,-32.996840
-33.150793, 33.495992,-27.961630,  0.000001,  5.746421,-33.088512
-33.173780, 32.387690,-27.844318,  0.000001,  5.713113,-33.179933
-33.197632, 31.244099,-27.726740,  0.000001,  5.681345,-33.271099
-33.222673, 30.069619,-27.608898,  0.000001,  5.651081,-33.362010
-33.249217, 28.868736,-27.490791,  0.000001,  5.622274,-33.452662
-33.277562, 27.646012,-27.372421,  0.000001,  5.594866,-33.543054
-33.307995, 26.406057,-27.253787,  0.000001,  5.568787,-33.633183
-33.340786, 25.153516,-27.134890,  0.000001,  5.543960,-33.723046
-33.376187, 23.893051,-27.015732,  0.000001,  5.520297,-33.812642
-33.414433, 22.629318,-26.896313,  0.000001,  5.497703,-33.901968
-33.455742, 21.366955,-26.776634,  0.000001,  5.476076,-33.991021
-33.500309, 20.110560,-26.656695,  0.000001,  5.455307,-34.079800
-33.548311, 18.864671,-26.536497,  0.000001,  5.435283,-34.168302
-33.599903, 17.633756,-26.416042,  0.000001,  5.415885,-34.256525
-33.655219, 16.422189,-26.295330,  0.000001,  5.396993,-34.344466
-33.714370, 15.234237,-26.174361,  0.000001,  5.378484,-34.432124
-33.777446, 14.074042,-26.053137,  0.000001,  5.360233,-34.519495
-33.844513, 12.945610,-25.931659,  0.000001,  5.342117,-34.606577
-33.915616, 11.852789,-25.809928,  0.000001,  5.324013,-34.693369
-33.990775, 10.799262,-25.687944,  0.000001,  5.305800,-34.779867
-34.069992,  9.788529,-25.565708,  0.000001,  5.287359,-34.866070
-34.153242,  8.823897,-25.443223,  0.000001,  5.268576,-34.951974
-34.240483,  7.908469,-25.320488,  0.000001,  5.249343,-35.037579
-34.331647,  7.045130,-25.197504,  0.000001,  5.229555,-35.122881
-34.426651,  6.236542,-25.074273,  0.000001,  5.209117,-35.207878
-34.525386,  5.485128,-24.950796,  0.000001,  5.187936,-35.292568
-34.627729,  4.793073,-24.827074,  0.000001,  5.165932,-35.376949
-34.733537,  4.162312,-24.703108,  0.000001,  5.143031,-35.461017
-34.842648,  3.594522,-24.578899,  0.000001,  5.119166,-35.544772
-34.954887,  3.091122,-24.454448,  0.000001,  5.094284,-35.628210
-35.070061,  2.653270,-24.329757,  0.000001,  5.068336,-35.711329
-35.187964,  2.281852,-24.204826,  0.000001,  5.041287,-35.794127
-35.308377,  1.977492,-24.079657,  0.000001,  5.013111,-35.876602
-35.431071,  1.740542,-23.954251,  0.000002,  4.983790,-35.958750
-35.555805,  1.571087,-23.828610,  0.000002,  4.953319,-36.040571
-35.682329,  1.468945,-23.702733,  0.000002,  4.921701,-36.122062
-35.810386,  1.433673,-23.576623,  0.000002,  4.888950,-36.203220
-35.939714,  1.464564,-23.450281,  0.000002,  4.855088,-36.284043
-36.070044,  1.560658,-23.323708,  0.000002,  4.820148,-36.364528
-36.201105,  1.720744,-23.196905,  0.000002,  4.784170,-36.444674
-36.332624,  1.943368,-23.069874,  0.000002,  4.747204,-36.524479
-36.464327,  2.226841,-22.942616,  0.000002,  4.709306,-36.603939
-36.595942,  2.569243,-22.815131,  0.000002,  4.670542,-36.683053
-36.727197,  2.968440,-22.687422,  0.000002,  4.630981,-36.761818
-36.857826,  3.422086,-22.559489,  0.000002,  4.590702,-36.840232
-36.987566,  3.927637,-22.431334,  0.000002,  4.549784,-36.918293
-37.116160,  4.482364,-22.302958,  0.000002,  4.508317,-36.995999
-37.243361,  5.083363,-22.174363,  0.000002,  4.466388,-37.073346
-37.368926,  5.727567,-22.045548,  0.000002,  4.424092,-37.150334
-37.492625,  6.411761,-21.916517,  0.000002,  4.381523,-37.226960
-37.614238,  7.132596,-21.787270,  0.000002,  4.338778,-37.303221
-37.733555,  7.886599,-21.657808,  0.000002,  4.295954,-37.379115
-37.850381,  8.670192,-21.528131,  0.000002,  4.253146,-37.454642
-37.964533,  9.479700,-21.398236,  0.000002,  4.210447,-37.529801
-38.075847, 10.311371,-21.268119,  0.000002,  4.167947,-37.604596
-38.184170, 11.161385,-21.137770,  0.000002,  4.125731,-37.679030
-38.289370, 12.025878,-21.007179,  0.000002,  4.083882,-37.753111
-38.391328, 12.900950,-20.876335,  0.000002,  4.042474,-37.826844
-38.489944, 13.782684,-20.745222,  0.000002,  4.001579,-37.900238
-38.585133, 14.667161,-20.613823,  0.000002,  3.961260,-37.973302
-38.676831, 15.550477,-20.482121,  0.000002,  3.921575,-38.046046
-38.764987, 16.428754,-20.350095,  0.000002,  3.882575,-38.118479
-38.849570, 17.298160,-20.217724,  0.000002,  3.844304,-38.190613
-38.930566, 18.154922,-20.084985,  0.000002,  3.806799,-38.262458
-39.007976, 18.995338,-19.951854,  0.000002,  3.770088,-38.334024
-39.081821, 19.815797,-19.818306,  0.000002,  3.734193,-38.405320
-39.152134, 20.612784,-19.684315,  0.000002,  3.699128,-38.476357
-39.218968, 21.382902,-19.549855,  0.000002,  3.664898,-38.547144
-39.282389, 22.122878,-19.414899,  0.000002,  3.631504,-38.617688
-39.342476, 22.829580,-19.279419,  0.000002,  3.598936,-38.687996
-39.399327, 23.500025,-19.143388,  0.000002,  3.567179,-38.758075
-39.453049, 24.131388,-19.006779,  0.000002,  3.536211,-38.827928
-39.503762, 24.721020,-18.869563,  0.000002,  3.506002,-38.897560
-39.551600, 25.266448,-18.731715,  0.000002,  3.476518,-38.966973
-39.596706, 25.765388,-18.593207,  0.000002,  3.447719,-39.036166
-39.639232, 26.215754,-18.454013,  0.000002,  3.419558,-39.105139
-39.679343, 26.615661,-18.314108,  0.000002,  3.391984,-39.173889
-39.717207, 26.963435,-18.173467,  0.000002,  3.364944,-39.242411
-39.753001, 27.257616,-18.032067,  0.000002,  3.338377,-39.310701
-39.786909, 27.496960,-17.889886,  0.000002,  3.312224,-39.378750
-39.819119, 27.680449,-17.746903,  0.000002,  3.286419,-39.446549
-39.849822, 27.807287,-17.603097,  0.000002,  3.260897,-39.514088
-39.879213, 27.876903,-17.458451,  0.000002,  3.235590,-39.581354
-39.907488, 27.888956,-17.312949,  0.000002,  3.210430,-39.648334
-39.934843, 27.843330,-17.166574,  0.000002,  3.185350,-39.715012
-39.961475, 27.740135,-17.019315,  0.000002,  3.160281,-39.781372
-39.987578, 27.579703,-16.871160,  0.000002,  3.135157,-39.847397
-40.013344, 27.362589,-16.722100,  0.000002,  3.109913,-39.913068
-40.038963, 27.089564,-16.572128,  0.000002,  3.084487,-39.978365
-40.064619, 26.761612,-16.421239,  0.000002,  3.058819,-40.043267
-40.090492, 26.379925,-16.269429,  0.000002,  3.032852,-40.107754
-40.116753, 25.945895,-16.116698,  0.000002,  3.006534,-40.171802
-40.143568, 25.461109,-15.963048,  0.000002,  2.979814,-40.235391
-40.171097, 24.927342,-15.808482,  0.000002,  2.952649,-40.298497
-40.199488, 24.346547,-15.653007,  0.000002,  2.924999,-40.361097
-40.228882, 23.720847,-15.496631,  0.000002,  2.896830,-40.423169
-40.259410, 23.052526,-15.339364,  0.000002,  2.868112,-40.484689
-40.291191, 22.344017,-15.181221,  0.000002,  2.838821,-40.545634
-40.324335, 21.597895,-15.022215,  0.000002,  2.808939,-40.605983
-40.358939, 20.816862,-14.862366,  0.000002,  2.778455,-40.665714
-40.395091, 20.003739,-14.701693,  0.000002,  2.747360,-40.724805
-40.432864, 19.161453,-14.540219,  0.000002,  2.715656,-40.783236
-40.472320, 18.293022,-14.377968,  0.000002,  2.683345,-40.840987
-40.513509, 17.401549,-14.214966,  0.000002,  2.650440,-40.898040
-40.556467, 16.490201,-14.051243,  0.000002,  2.616956,-40.954377
-40.601220, 15.562204,-13.886830,  0.000002,  2.582915,-41.009981
-40.647779, 14.620826,-13.721760,  0.000002,  2.548343,-41.064838
-40.696144, 13.669363,-13.556067,  0.000002,  2.513271,-41.118934
-40.746301, 12.711129,-13.389788,  0.000002,  2.477735,-41.172256
-40.798226, 11.749441,-13.222962,  0.000002,  2.441776,-41.224793
-40.851882, 10.787607,-13.055630,  0.000002,  2.405436,-41.276535
-40.907220,  9.828911,-12.887833,  0.000002,  2.368764,-41.327474
-40.964182,  8.876605,-12.719615,  0.000002,  2.331809,-41.377604
-41.022696,  7.933889,-12.551021,  0.000002,  2.294625,-41.426919
-41.082683,  7.003908,-12.382097,  0.000002,  2.257265,-41.475415
-41.144053,  6.089733,-12.212890,  0.000002,  2.219786,-41.523091
-41.206706,  5.194353,-12.043449,  0.000002,  2.182246,-41.569945
-41.270535,  4.320662,-11.873824,  0.000002,  2.144704,-41.615979
-41.335424,  3.471450,-11.704065,  0.000002,  2.107217,-41.661194
-41.401252,  2.649392,-11.534223,  0.000002,  2.069844,-41.705595
-41.467888,  1.857039,-11.364351,  0.000002,  2.032642,-41.749184
-41.535198,  1.096808,-11.194500,  0.000002,  1.995669,-41.791970
-41.603043,  0.370974,-11.024724,  0.000002,  1.958977,-41.833958
-41.671278, -0.318338,-10.855076,  0.000002,  1.922621,-41.875157
-41.739758, -0.969159,-10.685608,  0.000002,  1.886651,-41.915576
-41.808330, -1.579686,-10.516375,  0.000002,  1.851113,-41.955225
-41.876846, -2.148283,-10.347429,  0.000002,  1.816053,-41.994115
-41.945150, -2.673490,-10.178823,  0.000002,  1.781511,-42.032257
-42.013092, -3.154026,-10.010611,  0.000002,  1.747525,-42.069664
-42.080518, -3.588793, -9.842843,  0.000002,  1.714128,-42.106348
-42.147278, -3.976878, -9.675573,  0.000002,  1.681348,-42.142322
-42.213223, -4.317559, -9.508851,  0.000002,  1.649212,-42.177600
-42.278208, -4.610299, -9.342726,  0.000002,  1.617739,-42.212195
-42.342089, -4.854755, -9.177249,  0.000002,  1.586945,-42.246121
-42.404729, -5.050773, -9.012468,  0.000002,  1.556841,-42.279392
-42.465994, -5.198389, -8.848429,  0.000002,  1.527433,-42.312022
-42.525758, -5.297825, -8.685179,  0.000002,  1.498724,-42.344023
-42.583897, -5.349491, -8.522762,  0.000002,  1.470711,-42.375410
-42.640299, -5.353980, -8.361221,  0.000002,  1.443386,-42.406195
-42.694854, -5.312062, -8.200597,  0.000002,  1.416737,-42.436392
-42.747462, -5.224684, -8.040932,  0.000002,  1.390750,-42.466011
-42.798033, -5.092962, -7.882262,  0.000002,  1.365405,-42.495066
-42.846481, -4.918176, -7.724625,  0.000002,  1.340677,-42.523566
-42.892733, -4.701765, -7.568055,  0.000002,  1.316540,-42.551523
-42.936723, -4.445319, -7.412586,  0.000002,  1.292963,-42.578947
-42.978395, -4.150572, -7.258247,  0.000002,  1.269913,-42.605846
-43.017700, -3.819393, -7.105068,  0.000002,  1.247354,-42.632230
-43.054603, -3.453782, -6.953075,  0.000002,  1.225248,-42.658105
-43.089076, -3.055854, -6.802293,  0.000002,  1.203554,-42.683479
-43.121100, -2.627838, -6.652745,  0.000002,  1.182231,-42.708359
-43.150669, -2.172061, -6.504450,  0.000002,  1.161235,-42.732749
-43.177783, -1.690941, -6.357427,  0.000002,  1.140522,-42.756655
-43.202453, -1.186978, -6.211691,  0.000002,  1.120048,-42.780081
-43.224701, -0.662739, -6.067256,  0.000002,  1.099768,-42.803030
-43.244555, -0.120855, -5.924132,  0.000002,  1.079636,-42.825505
-43.262055,  0.435998, -5.782329,  0.000002,  1.059610,-42.847508
-43.277248,  1.005104, -5.641853,  0.000002,  1.039646,-42.869040
-43.290190,  1.583720, -5.502708,  0.000002,  1.019702,-42.890102
-43.300945,  2.169087, -5.364897,  0.000002,  0.999738,-42.910695
-43.309583,  2.758442, -5.228417,  0.000002,  0.979715,-42.930819
-43.316184,  3.349026, -5.093267,  0.000002,  0.959597,-42.950473
-43.320832,  3.938096, -4.959442,  0.000002,  0.939350,-42.969655
-43.323618,  4.522938, -4.826935,  0.000002,  0.918942,-42.988366
-43.324640,  5.100873, -4.695735,  0.000002,  0.898344,-43.006603
-43.324000,  5.669271, -4.565831,  0.000002,  0.877532,-43.024365
-43.321804,  6.225560, -4.437210,  0.000002,  0.856482,-43.041650
-43.318163,  6.767234, -4.309855,  0.000002,  0.835175,-43.058456
-43.313191,  7.291864, -4.183748,  0.000002,  0.813595,-43.074781
-43.307004,  7.797107, -4.058870,  0.000002,  0.791729,-43.090622
-43.299723,  8.280714, -3.935198,  0.000002,  0.769569,-43.105979
-43.291467,  8.740537, -3.812709,  0.000002,  0.747109,-43.120848
-43.282358,  9.174538, -3.691376,  0.000002,  0.724345,-43.135230
-43.272519,  9.580798, -3.571172,  0.000002,  0.701281,-43.149121
-43.262070,  9.957520, -3.452069,  0.000002,  0.677918,-43.162521
-43.251134, 10.303036, -3.334034,  0.000002,  0.654266,-43.175429
-43.239829, 10.615815, -3.217035,  0.000002,  0.630334,-43.187845
-43.228272, 10.894466, -3.101039,  0.000002,  0.606136,-43.199767
-43.216581, 11.137743, -2.986010,  0.000002,  0.581687,-43.211197
-43.204865, 11.344547, -2.871910,  0.000002,  0.557007,-43.222134
-43.193234, 11.513932, -2.758702,  0.000002,  0.532115,-43.232580
-43.181792, 11.645106, -2.646347,  0.000002,  0.507035,-43.242536
-43.170640, 11.737434, -2.534803,  0.000002,  0.481790,-43.252003
-43.159871, 11.790439, -2.424028,  0.000002,  0.456407,-43.260984
-43.149577, 11.803800, -2.313981,  0.000002,  0.430914,-43.269481
-43.139840, 11.777356, -2.204617,  0.000002,  0.405337,-43.277497
-43.130739, 11.711103, -2.095892,  0.000002,  0.379706,-43.285036
-43.122345, 11.605196, -1.987761,  0.000002,  0.354049,-43.292101
-43.114723, 11.459943, -1.880176,  0.000002,  0.328397,-43.298696
-43.107932, 11.275803, -1.773092,  0.000002,  0.302778,-43.304826
-43.102022, 11.053387, -1.666461,  0.000002,  0.277220,-43.310495
-43.097037, 10.793451, -1.560236,  0.000002,  0.251751,-43.315709
-43.093013, 10.496894, -1.454367,  0.000002,  0.226398,-43.320472
-43.089980, 10.164749, -1.348807,  0.000002,  0.201186,-43.324790
-43.087959,  9.798186, -1.243505,  0.000002,  0.176139,-43.328668
-43.086965,  9.398498, -1.138413,  0.000002,  0.151280,-43.332112
-43.087003,  8.967099, -1.033481,  0.000002,  0.126627,-43.335128
-43.088073,  8.505517, -0.928659,  0.000002,  0.102200,-43.337721
-43.090168,  8.015389, -0.823898,  0.000002,  0.078015,-43.339896
-43.093271,  7.498450, -0.719147,  0.000002,  0.054083,-43.341660
-43.097360,  6.956527, -0.614357,  0.000002,  0.030416,-43.343017
-43.102407,  6.391532, -0.509477,  0.000002,  0.007023,-43.343972
-43.108375,  5.805453, -0.404458,  0.000002, -0.016093,-43.344531
-43.115223,  5.200346, -0.299251,  0.000002, -0.038928,-43.344698
-43.122903,  4.578329, -0.193809,  0.000002, -0.061481,-43.344477
-43.131360,  3.941572, -0.088088,  0.000002, -0.083755,-43.343871
-43.140536,  3.292287,  0.017956,  0.000002, -0.105750,-43.342885
-43.150366,  2.632721,  0.124362,  0.000002, -0.127474,-43.341521
-43.160783,  1.965146,  0.231169,  0.000002, -0.148933,-43.339782
-43.171712,  1.291850,  0.338413,  0.000002, -0.170136,-43.337670
-43.183077,  0.615128,  0.446130,  0.000002, -0.191094,-43.335188
-43.194798, -0.062731,  0.554350,  0.000002, -0.211819,-43.332335
-43.206793, -0.739444,  0.663105,  0.000002, -0.232327,-43.329114
-43.218976, -1.412754,  0.772423,  0.000002, -0.252634,-43.325526
-43.231260, -2.080430,  0.882330,  0.000002, -0.272756,-43.321569
-43.243555, -2.740280,  0.992850,  0.000002, -0.292714,-43.317245
-43.255773, -3.390158,  1.104007,  0.000002, -0.312528,-43.312553
-43.267823, -4.027975,  1.215822,  0.000002, -0.332219,-43.307490
-43.279614, -4.651701,  1.328312,  0.000002, -0.351809,-43.302057
-43.291056, -5.259378,  1.441496,  0.000002, -0.371323,-43.296251
-43.302060, -5.849126,  1.555390,  0.000002, -0.390784,-43.290070
-43.312538, -6.419148,  1.670006,  0.000002, -0.410217,-43.283511
-43.322402, -6.967737,  1.785357,  0.000002, -0.429647,-43.276571
-43.331568, -7.493285,  1.901455,  0.000002, -0.449099,-43.269247
-43.339955, -7.994286,  2.018307,  0.000002, -0.468597,-43.261535
-43.347482, -8.469341,  2.135923,  0.000002, -0.488168,-43.253431
-43.354074, -8.917164,  2.254308,  0.000002, -0.507834,-43.244930
-43.359657, -9.336586,  2.373467,  0.000002, -0.527621,-43.236028
-43.364163, -9.726559,  2.493404,  0.000002, -0.547552,-43.226719
-43.367526,-10.086159,  2.614122,  0.000002, -0.567649,-43.216999
-43.369686,-10.414589,  2.735622,  0.000002, -0.587934,-43.206861
-43.370585,-10.711180,  2.857903,  0.000002, -0.608427,-43.196300
-43.370174,-10.975394,  2.980967,  0.000002, -0.629147,-43.185309
-43.368405,-11.206828,  3.104809,  0.000002, -0.650113,-43.173883
-43.365237,-11.405209,  3.229429,  0.000002, -0.671341,-43.162015
-43.360633,-11.570397,  3.354821,  0.000002, -0.692846,-43.149698
-43.354562,-11.702385,  3.480983,  0.000002, -0.714641,-43.136925
-43.346999,-11.801299,  3.607908,  0.000002, -0.736738,-43.123690
-43.337922,-11.867394,  3.735590,  0.000002, -0.759146,-43.109986
-43.327319,-11.901054,  3.864025,  0.000002, -0.781875,-43.095804
-43.315177,-11.902789,  3.993203,  0.000002, -0.804930,-43.081140
-43.301494,-11.873233,  4.123118,  0.000002, -0.828316,-43.065984
-43.286271,-11.813137,  4.253762,  0.000002, -0.852036,-43.050330
-43.269513,-11.723372,  4.385127,  0.000002, -0.876091,-43.034171
-43.251232,-11.604919,  4.517202,  0.000002, -0.900481,-43.017500
-43.231444,-11.458867,  4.649981,  0.000002, -0.925203,-43.000309
-43.210169,-11.286405,  4.783452,  0.000002, -0.950253,-42.982592
-43.187434,-11.088822,  4.917607,  0.000002, -0.975626,-42.964341
-43.163267,-10.867497,  5.052436,  0.000002, -1.001315,-42.945550
-43.137703,-10.623893,  5.187929,  0.000002, -1.027311,-42.926212
-43.110779,-10.359554,  5.324076,  0.000002, -1.053606,-42.906320
-43.082537,-10.076095,  5.460867,  0.000002, -1.080188,-42.885868
-43.053020, -9.775195,  5.598292,  0.000002, -1.107045,-42.864850
-43.022277, -9.458595,  5.736341,  0.000002, -1.134166,-42.843258
-42.990358, -9.128083,  5.875005,  0.000002, -1.161535,-42.821088
-42.957315, -8.785493,  6.014273,  0.000002, -1.189140,-42.798334
-42.923204, -8.432695,  6.154136,  0.000002, -1.216966,-42.774989
-42.888080, -8.071587,  6.294584,  0.000002, -1.244996,-42.751049
-42.852002, -7.704088,  6.435608,  0.000002, -1.273217,-42.726507
-42.815029, -7.332132,  6.577198,  0.000002, -1.301612,-42.701360
-42.777219, -6.957656,  6.719347,  0.000002, -1.330166,-42.675601
-42.738635, -6.582597,  6.862044,  0.000002, -1.358863,-42.649228
-42.699335, -6.208880,  7.005282,  0.000002, -1.387689,-42.622234
-42.659381, -5.838416,  7.149051,  0.000002, -1.416628,-42.594617
-42.618831, -5.473088,  7.293345,  0.000002, -1.445667,-42.566371
-42.577744, -5.114751,  7.438154,  0.000002, -1.474791,-42.537493
-42.536178, -4.765217,  7.583472,  0.000002, -1.503988,-42.507980
-42.494189, -4.426256,  7.729292,  0.000002, -1.533246,-42.477828
-42.451831, -4.099584,  7.875605,  0.000002, -1.562553,-42.447034
-42.409156, -3.786857,  8.022405,  0.000002, -1.591899,-42.415595
-42.366215, -3.489668,  8.169687,  0.000002, -1.621275,-42.383508
-42.323055, -3.209540,  8.317442,  0.000002, -1.650672,-42.350771
-42.279721, -2.947917,  8.465665,  0.000002, -1.680085,-42.317381
-42.236255, -2.706164,  8.614351,  0.000002, -1.709506,-42.283337
-42.192695, -2.485558,  8.763493,  0.000002, -1.738931,-42.248635
-42.149078, -2.287289,  8.913086,  0.000002, -1.768357,-42.213274
-42.105436, -2.112448,  9.063123,  0.000002, -1.797782,-42.177253
-42.061797, -1.962029,  9.213601,  0.000002, -1.827204,-42.140570
-42.018185, -1.836927,  9.364514,  0.000002, -1.856624,-42.103223
-41.974624, -1.737929,  9.515857,  0.000002, -1.886042,-42.065212
-41.931128, -1.665718,  9.667624,  0.000002, -1.915463,-42.026535
