SHIH-XIAN-YANG/Robotic-vitual-system/run/exp0/log/tor.txt
# Joint1, Joint2, Joint3, Joint4, Joint5, Joint6
  0.000000,  0.000000,  0.000000,  0.000000,  0.000000,  0.000000
50000.000000,50000.000000,243.818850,  0.000000,-951.846847,  0.000000
50000.000000,50000.000000,243.521850,  0.000000,-951.728482,  0.000000
50000.000000,50000.000000,242.566830,  0.000000,-951.493089,  0.000000
50000.000000,50000.000000,240.896048,  0.000000,-951.261690,  0.000000
50000.000000,50000.000000,238.523544,  0.000000,-951.035562,  0.000000
50000.000000,50000.000000,235.465800,  0.000000,-950.814600,  0.000000
50000.000000,50000.000000,231.741139,  0.000000,-950.598686,  0.000000
50000.000000,50000.000000,227.369642,  0.000000,-950.387705,  0.000000
50000.000000,50000.000000,222.373071,  0.000000,-950.181545,  0.000000
50000.000000,50000.000000,216.774773,  0.000000,-949.980094,  0.000000
50000.000000,50000.000000,210.599593,  0.000000,-949.783246,  0.000000
50000.000000,50000.000000,203.873780,  0.000000,-949.590896,  0.000000
50000.000000,50000.000000,196.624887,  0.000000,-949.402940,  0.000000
50000.000000,50000.000000,188.881672,  0.000000,-949.219278,  0.000000
50000.000000,50000.000000,180.673994,  0.000000,-949.039813,  0.000000
50000.000000,50000.000000,172.032712,  0.000000,-948.864448,  0.000000
50000.000000,50000.000000,162.989577,  0.000000,-948.693089,  0.000000
50000.000000,50000.000000,153.577121,  0.000000,-948.525645,  0.000000
50000.000000,50000.000000,143.828558,  0.000000,-948.362027,  0.000351
50000.000000,50000.000000,133.777664,  0.000000,-948.202147,  0.001402
50000.000000,50000.000000,123.458676,  0.000000,-948.045919,  0.003501
50000.000000,50000.000000,112.906181,  0.000000,-947.893261,  0.006990
50000.000000,50000.000000,102.155006,  0.000000,-947.744091,  0.012201
50000.000000,50000.000000, 91.240111,  0.000000,-947.598329,  0.019458
50000.000000,50000.000000, 80.196479,  0.000000,-947.455897,  0.029069
50000.000000,50000.000000, 69.059020,  0.000000,-947.316719,  0.041329
50000.000000,50000.000000, 57.862456,  0.000000,-947.180721,  0.056515
50000.000000,50000.000000, 46.641221,  0.000000,-947.047831,  0.074884
50000.000000,50000.000000, 35.429371,  0.000000,-946.917976,  0.096673
50000.000000,50000.000000, 24.260475,  0.000000,-946.791088,  0.122097
50000.000000,50000.000000, 13.167523,  0.000000,-946.667099,  0.151348
50000.000000,50000.000000,  2.182844,  0.000000,-946.545943,  0.184591
50000.000000,50000.000000, -8.661996,  0.000000,-946.427554,  0.221968
50000.000000,50000.000000,-19.336274,  0.000000,-946.311871,  0.263593
50000.000000,50000.000000,-29.810183,  0.000000,-946.198831,  0.309558
50000.000000,50000.000000,-40.054920,  0.000000,-946.088373,  0.359923
50000.000000,50000.000000,-50.042761,  0.000000,-945.980439,  0.414727
50000.000000,50000.000000,-59.747114,  0.000000,-945.874971,  0.473978
50000.000000,50000.000000,-69.142602,  0.000000,-945.771912,  0.537664
50000.000000,50000.000000,-78.205114,  0.000000,-945.671208,  0.605742
50000.000000,50000.000000,-86.911863,  0.000000,-945.572805,  0.678151
50000.000000,50000.000000,-95.241433,  0.000000,-945.476650,  0.754803
50000.000000,50000.000000,-103.173837,  0.000000,-945.382692,  0.835591
50000.000000,50000.000000,-110.690538,  0.000000,-945.290880,  0.920386
50000.000000,50000.000000,-117.774509,  0.000000,-945.201166,  1.009040
50000.000000,50000.000000,-124.410246,  0.000000,-945.113502,  1.101390
50000.000000,50000.000000,-130.583803,  0.000000,-945.027841,  1.197256
50000.000000,50000.000000,-136.282808,  0.000000,-944.944137,  1.296443
50000.000000,50000.000000,-141.496492,  0.000000,-944.862345,  1.398747
50000.000000,50000.000000,-146.215681,  0.000000,-944.782422,  1.503953
50000.000000,50000.000000,-150.432818,  0.000000,-944.704324,  1.611837
50000.000000,50000.000000,-154.141959,  0.000000,-944.628011,  1.722169
50000.000000,50000.000000,-157.338766,  0.000000,-944.553442,  1.834718
50000.000000,50000.000000,-160.020508,  0.000000,-944.480576,  1.949249
50000.000000,50000.000000,-162.186034,  0.000000,-944.409375,  2.065525
50000.000000,50000.000000,-163.835775,  0.000000,-944.339801,  2.183313
50000.000000,50000.000000,-164.971703,  0.000000,-944.271816,  2.302385
50000.000000,50000.000000,-165.597314,  0.000000,-944.205385,  2.422517
50000.000000,50000.000000,-165.717595, -0.000002,-944.140471,  2.543490
50000.000000,50000.000000,-165.339000, -0.000002,-944.077041,  2.665097
50000.000000,50000.000000,-164.469389, -0.000002,-944.015059,  2.787141
50000.000000,50000.000000,-163.118006, -0.000002,-943.954494,  2.909434
50000.000000,50000.000000,-161.295425, -0.000002,-943.895312,  3.031803
50000.000000,50000.000000,-159.013504, -0.000002,-943.837483,  3.154089
50000.000000,50000.000000,-156.285323, -0.000002,-943.780974,  3.276146
50000.000000,50000.000000,-153.125146, -0.000002,-943.725757,  3.397847
50000.000000,50000.000000,-149.548344, -0.000002,-943.671801,  3.519078
50000.000000,50000.000000,-145.571350, -0.000002,-943.619078,  3.639744
50000.000000,50000.000000,-141.211583, -0.000002,-943.567560,  3.759767
50000.000000,50000.000000,-136.487394, -0.000002,-943.517219,  3.879086
50000.000000,50000.000000,-131.417992, -0.000001,-943.468027,  3.997660
50000.000000,50000.000000,-126.023374, -0.000001,-943.419960,  4.115461
50000.000000,50000.000000,-120.324264, -0.000001,-943.372991,  4.232483
50000.000000,50000.000000,-114.342029, -0.000001,-943.327095,  4.348736
50000.000000,50000.000000,-108.098617, -0.000001,-943.282247,  4.464244
50000.000000,50000.000000,-101.616475, -0.000001,-943.238424,  4.579051
50000.000000,50000.000000,-94.918487, -0.000003,-943.195603,  4.693214
50000.000000,50000.000000,-88.027882, -0.000003,-943.153759,  4.806806
50000.000000,50000.000000,-80.968183, -0.000002,-943.112872,  4.919910
50000.000000,50000.000000,-73.763112, -0.000002,-943.072919,  5.032628
50000.000000,50000.000000,-66.436528, -0.000002,-943.033878,  5.145067
50000.000000,50000.000000,-59.012350, -0.000002,-942.995730,  5.257350
50000.000000,50000.000000,-51.514489, -0.000002,-942.958453,  5.369604
50000.000000,50000.000000,-43.966769, -0.000001,-942.922028,  5.481969
50000.000000,50000.000000,-36.392865, -0.000001,-942.886435,  5.594588
50000.000000,50000.000000,-28.816231, -0.000001,-942.851655,  5.707611
50000.000000,50000.000000,-21.260030, -0.000001,-942.817670,  5.821192
50000.000000,50000.000000,-13.747076, -0.000000,-942.784461,  5.935487
50000.000000,40152.882637, -6.299768, -0.000002,-942.752011,  6.050653
50000.000000,28381.102974,  1.059983, -0.000002,-942.720303,  6.166850
50000.000000,16581.522814,  8.310790, -0.000002,-942.689318,  6.284232
50000.000000,4800.205409, 15.431866, -0.000002,-942.659042,  6.402955
50000.000000,-6916.780348, 22.403069, -0.000001,-942.629457,  6.523170
50000.000000,-18523.941030, 29.204958, -0.000001,-942.600549,  6.645021
50000.000000,-29976.534780, 35.818833, -0.000001,-942.572301,  6.768648
50000.000000,-41230.741493, 42.226790, -0.000001,-942.544698,  6.894186
50000.000000,-50000.000000, 48.411764, -0.000003,-942.517726,  7.021759
50000.000000,-50000.000000, 54.357555, -0.000002,-942.491370,  7.151484
50000.000000,-50000.000000, 60.048882, -0.000002,-942.465616,  7.283469
50000.000000,-50000.000000, 65.471403, -0.000002,-942.440450,  7.417810
50000.000000,-50000.000000, 70.611756, -0.000001,-942.415860,  7.554594
50000.000000,-50000.000000, 75.457570, -0.000001,-942.391831,  7.693898
50000.000000,-50000.000000, 79.997505, -0.000001,-942.368352,  7.835786
50000.000000,-50000.000000, 84.221259, -0.000003,-942.345409,  7.980310
50000.000000,-50000.000000, 88.119595, -0.000002,-942.322990,  8.127511
50000.000000,-50000.000000, 91.684341, -0.000002,-942.301083,  8.277418
50000.000000,-50000.000000, 94.908415, -0.000002,-942.279676,  8.430049
50000.000000,-50000.000000, 97.785816, -0.000001,-942.258759,  8.585408
50000.000000,-50000.000000,100.311634, -0.000001,-942.238320,  8.743489
50000.000000,-50000.000000,102.482054, -0.000003,-942.218347,  8.904276
50000.000000,-50000.000000,104.294340, -0.000002,-942.198831,  9.067740
50000.000000,-50000.000000,105.746843, -0.000002,-942.179761,  9.233841
50000.000000,-50000.000000,106.838977, -0.000002,-942.161127,  9.402532
50000.000000,-50000.000000,107.571212, -0.000001,-942.142918,  9.573756
50000.000000,-50000.000000,107.945061, -0.000003,-942.125125,  9.747446
50000.000000,-50000.000000,107.963049, -0.000003,-942.107739,  9.923527
50000.000000,-50000.000000,107.628705, -0.000002,-942.090750, 10.101920
50000.000000,-50000.000000,106.946529, -0.000002,-942.074149, 10.282537
50000.000000,-50000.000000,105.921969, -0.000002,-942.057927, 10.465284
47441.160600,-50000.000000,104.561380, -0.000003,-942.042076, 10.650065
34169.110305,-50000.000000,102.872012, -0.000003,-942.026588, 10.836780
20902.670703,-50000.000000,100.861955, -0.000002,-942.011453, 11.025323
7704.431234,-50000.000000, 98.540113, -0.000002,-941.996663, 11.215591
-5359.728824,-50000.000000, 95.916167, -0.000004,-941.982212, 11.407476
-18225.423222,-50000.000000, 93.000525, -0.000003,-941.968091, 11.600872
-30830.099438,-50000.000000, 89.804292, -0.000003,-941.954292, 11.795673
-43113.331584,-50000.000000, 86.339218, -0.000002,-941.940809, 11.991774
-50000.000000,-50000.000000, 82.617653, -0.000004,-941.927634, 12.189075
-50000.000000,-50000.000000, 78.652507, -0.000004,-941.914760, 12.387476
-50000.000000,-50000.000000, 74.457197, -0.000003,-941.902180, 12.586882
-50000.000000,-50000.000000, 70.045601, -0.000002,-941.889887, 12.787203
-50000.000000,-50000.000000, 65.432008, -0.000004,-941.877875, 12.988355
-50000.000000,-50000.000000, 60.631071, -0.000004,-941.866138, 13.190257
-50000.000000,-50000.000000, 55.657752, -0.000003,-941.854669, 13.392836
-50000.000000,-50000.000000, 50.527279, -0.000002,-941.843462, 13.596027
-50000.000000,-50000.000000, 45.255088, -0.000004,-941.832511, 13.799768
-50000.000000,-50000.000000, 39.856780, -0.000003,-695.473872, 14.004010
-50000.000000,-50000.000000, 34.348064, -0.000003,-366.377567, 14.208706
-50000.000000,-50000.000000, 28.744707, -0.000004,-39.183411, 14.413821
-50000.000000,-50000.000000, 23.062494, -0.000004,283.606366, 14.619325
-50000.000000,-50000.000000, 17.317170, -0.000003,599.395319, 14.825197
-50000.000000,-50000.000000, 11.524391, -0.000005,905.680760, 15.031426
-50000.000000,-50000.000000,  5.699689, -0.000004,960.618109, 15.238005
-50000.000000,-50000.000000, -0.141591, -0.000003,960.185714, 15.444937
-50000.000000,-50000.000000, -5.984325, -0.000005,959.755786, 15.652233
-50000.000000,-50000.000000,-11.813655, -0.000004,959.335595, 15.859909
-50000.000000,-50000.000000,-17.615035, -0.000003,958.925003, 16.067991
-50000.000000,-50000.000000,-23.374267, -0.000005,958.523792, 16.276509
-50000.000000,-50000.000000,-29.077548, -0.000004,958.131747, 16.485499
-50000.000000,-50000.000000,-34.711496, -0.000003,957.748660, 16.695005
-50000.000000,-50000.000000,-40.263202, -0.000005,957.374324, 16.905075
-50000.000000,-50000.000000,-45.720244, -0.000004,957.008541, 17.115760
-50000.000000,-50000.000000,-51.070740, -0.000003,956.651115, 17.327118
-50000.000000,-50000.000000,-56.303360, -0.000005,956.301855, 17.539209
-50000.000000,-50000.000000,-61.407369, -0.000004,955.960575, 17.752097
-50000.000000,-50000.000000,-66.372638, -0.000005,955.627092, 17.965846
-50000.000000,-50000.000000,-71.189684, -0.000004,955.301228, 18.180525
-50000.000000,-50000.000000,-75.849675, -0.000003,954.982808, 18.396202
-50000.000000,-50000.000000,-80.344465, -0.000005,954.671664, 18.612946
-50000.000000,-50000.000000,-84.666597, -0.000004,954.367628, 18.830828
-50000.000000,-50000.000000,-88.809328, -0.000005,954.070539, 19.049914
-50000.000000,-50000.000000,-92.766634, -0.000004,953.780237, 19.270274
-50000.000000,-50000.000000,-96.533229, -0.000006,953.496568, 19.491973
-50000.000000,-50000.000000,-100.104561, -0.000005,953.219380, 19.715074
-50000.000000,-50000.000000,-103.476824, -0.000006,952.948524, 19.939640
-50000.000000,-50000.000000,-106.646967, -0.000005,952.683857, 20.165727
-50000.000000,-50000.000000,-109.612682, -0.000004,952.425237, 20.393391
-50000.000000,-50000.000000,-112.372412, -0.000005,952.172525, 20.622681
-50000.000000,-50000.000000,-114.924718, -0.000004,951.925587, 20.852943
-50000.000000,-50000.000000,-117.268859, -0.000005,951.684291, 21.083520
-50000.000000,-50000.000000,-119.404768, -0.000004,951.448507, 21.313755
-50000.000000,-50000.000000,-121.333054, -0.000005,951.218111, 21.542999
-50000.000000,-50000.000000,-123.054989, -0.000004,950.992978, 21.770611
-50000.000000,-50000.000000,-124.572492, -0.000005,950.772989, 21.995970
-50000.000000,-50000.000000,-125.888111, -0.000004,950.558026, 22.218474
-50000.000000,-50000.000000,-127.005016, -0.000005,950.347974, 22.437547
-50000.000000,-50000.000000,-127.926968, -0.000004,950.142721, 22.652641
-50000.000000,-50000.000000,-128.658312, -0.000005,949.942158, 22.863242
-50000.000000,-50000.000000,-129.203944, -0.000007,949.746177, 23.068873
-50000.000000,-50000.000000,-129.569298, -0.000005,949.554673, 23.269097
-50000.000000,-50000.000000,-129.760313, -0.000006,949.367545, 23.463516
-50000.000000,-50000.000000,-129.783414, -0.000005,949.184692, 23.651779
-50000.000000,-50000.000000,-129.645482, -0.000006,949.006017, 23.833583
-50000.000000,-50000.000000,-129.353831, -0.000005,948.831423, 24.008667
-50000.000000,-50000.000000,-128.916169, -0.000006,948.660819, 24.176825
-50000.000000,-50000.000000,-128.340583, -0.000005,948.494113, 24.337895
-50000.000000,-50000.000000,-127.635500, -0.000006,948.331215, 24.491767
-50000.000000,-50000.000000,-126.809656, -0.000007,948.172039, 24.638380
-50000.000000,-50000.000000,-125.872072, -0.000005,948.016499, 24.777722
-50000.000000,-50000.000000,-124.832012, -0.000006,947.864513, 24.909827
-50000.000000,-50000.000000,-123.698959, -0.000005,947.716000, 25.034776
-50000.000000,-50000.000000,-122.482582, -0.000006,947.570880, 25.152694
-50000.000000,-50000.000000,-121.192696, -0.000007,947.429075, 25.263749
-50000.000000,-44186.651081,-119.839246, -0.000005,947.290510, 25.368150
-50000.000000,-35956.306420,-118.432257, -0.000006,947.155111, 25.466141
-50000.000000,-27642.720393,-116.981807, -0.000007,947.022805, 25.558003
-50000.000000,-19278.571146,-115.498003, -0.000005,946.893522, 25.644048
-50000.000000,-10896.998182,-113.990943, -0.000006,946.767193, 25.724617
-50000.000000,-2530.977679,-112.470685, -0.000005,946.643750, 25.800073
-50000.000000,5786.807901,-110.947216, -0.000006,946.523127, 25.870805
-50000.000000,14024.095834,-109.430427, -0.000006,946.405260, 25.937216
-50000.000000,22149.166749,-107.930072, -0.000005,946.290086, 25.999727
-50000.000000,30130.965181,-106.455759, -0.000006,946.177543, 26.058765
-48863.650779,37939.216575,-105.016903, -0.000006,906.119148, 26.114767
-40879.985987,45544.540593,-103.622708, -0.000005,715.604666, 26.168173
-32789.996910,50000.000000,-102.282144, -0.000006,522.288843, 26.219421
-24633.148808,50000.000000,-101.003918, -0.000006,327.516324, 26.268946
-16451.527972,50000.000000,-99.796448, -0.000005,132.912599, 26.317175
-8286.825168,50000.000000,-98.667849, -0.000005,-59.919052, 26.364525
-180.108376,50000.000000,-97.625902, -0.000006,-249.413131, 26.411397
7828.377164,50000.000000,-96.678043, -0.000007,-434.054321, 26.458177
15699.401742,50000.000000,-95.831339, -0.000005,-612.389252, 26.505232
23394.936647,50000.000000,-95.092467, -0.000006,-783.037591, 26.552906
30878.330929,50000.000000,-94.467715, -0.000006,-944.702370, 26.601518
38114.479036,50000.000000,-93.962945, -0.000005,-956.346884, 26.651361
45069.978438,50000.000000,-93.583593, -0.000005,-956.006339, 26.702699
50000.000000,50000.000000,-93.334660, -0.000006,-955.671830, 26.755770
50000.000000,50000.000000,-93.220696, -0.000006,-955.344944, 26.810775
50000.000000,50000.000000,-93.245784, -0.000005,-955.025526, 26.867888
50000.000000,50000.000000,-93.413556, -0.000005,-954.713406, 26.927249
50000.000000,50000.000000,-93.727159, -0.000006,-954.408417, 26.988963
50000.000000,50000.000000,-94.189275, -0.000006,-954.110396, 27.053106
50000.000000,50000.000000,-94.802103, -0.000005,-953.819183, 27.119716
50000.000000,50000.000000,-95.567362, -0.000005,-953.534624, 27.188803
50000.000000,50000.000000,-96.486296, -0.000006,-953.256566, 27.260343
50000.000000,50000.000000,-97.559673, -0.000006,-952.984861, 27.334279
50000.000000,50000.000000,-98.787779, -0.000005,-952.719364, 27.410529
50000.000000,50000.000000,-100.170441, -0.000005,-952.459932, 27.488978
50000.000000,50000.000000,-101.707015, -0.000006,-952.206428, 27.569486
50000.000000,50000.000000,-103.396403, -0.000006,-951.958715, 27.651888
50000.000000,50000.000000,-105.237061, -0.000004,-951.716662, 27.735995
50000.000000,50000.000000,-107.227000, -0.000005,-951.480139, 27.821598
50000.000000,50000.000000,-109.363815, -0.000005,-951.249020, 27.908466
50000.000000,50000.000000,-111.644676, -0.000006,-951.023181, 27.996354
50000.000000,50000.000000,-114.066355, -0.000006,-950.802502, 28.085001
50000.000000,50000.000000,-116.625230, -0.000004,-950.586865, 28.174136
50000.000000,50000.000000,-119.317318, -0.000005,-950.376154, 28.263476
50000.000000,50000.000000,-122.138265, -0.000005,-950.170257, 28.352731
50000.000000,50000.000000,-125.083387, -0.000006,-949.969065, 28.441609
50000.000000,50000.000000,-128.147670, -0.000006,-949.772469, 28.529813
50000.000000,50000.000000,-131.325804, -0.000004,-949.580365, 28.617048
50000.000000,50000.000000,-134.612187, -0.000005,-949.392649, 28.703021
50000.000000,50000.000000,-138.000955, -0.000005,-949.209223, 28.787445
50000.000000,50000.000000,-141.485998, -0.000006,-949.029987, 28.870038
50000.000000,50000.000000,-145.060983, -0.000006,-948.854846, 28.950530
50000.000000,50000.000000,-148.719370, -0.000004,-948.683707, 29.028661
50000.000000,50000.000000,-152.454440, -0.000005,-948.516477, 29.104184
50000.000000,50000.000000,-156.259314, -0.000005,-948.353069, 29.176868
50000.000000,50000.000000,-160.126974, -0.000005,-907.751785, 29.246496
50000.000000,50000.000000,-164.050284, -0.000006,-782.667264, 29.312872
50000.000000,50000.000000,-168.022015, -0.000006,-653.008548, 29.375815
50000.000000,50000.000000,-172.034868, -0.000007,-519.752892, 29.435169
50000.000000,50000.000000,-176.081488, -0.000005,-384.048986, 29.490795
50000.000000,50000.000000,-180.154499, -0.000005,-247.050555, 29.542576
50000.000000,50000.000000,-184.246509, -0.000006,-109.905319, 29.590419
50000.000000,50000.000000,-188.350150, -0.000006, 26.254397, 29.634250
50000.000000,50000.000000,-192.458082, -0.000006,160.320781, 29.674021
50000.000000,50000.000000,-196.563026, -0.000007,291.219312, 29.709703
50000.000000,50000.000000,-200.657779, -0.000005,417.917141, 29.741292
50000.000000,50000.000000,-204.735230, -0.000005,539.431008, 29.768801
50000.000000,50000.000000,-208.788387, -0.000005,654.834631, 29.792270
50000.000000,50000.000000,-212.810391, -0.000006,763.265523, 29.811754
50000.000000,50000.000000,-216.794535, -0.000006,863.931175, 29.827330
47619.693322,50000.000000,-220.734280, -0.000006,954.437968, 29.839092
42368.304165,50000.000000,-224.623273, -0.000007,954.150974, 29.847151
36977.022312,50000.000000,-228.455363, -0.000007,953.858970, 29.851636
31473.773802,50000.000000,-232.224613, -0.000005,953.573503, 29.852687
25887.822943,50000.000000,-235.925320, -0.000005,953.294557, 29.850459
20248.483455,50000.000000,-239.552019, -0.000005,953.021984, 29.845118
14584.960871,50000.000000,-243.099505, -0.000006,952.755639, 29.836841
8926.206112,50000.000000,-246.562837, -0.000006,952.495378, 29.825811
3300.772351,50000.000000,-249.937355, -0.000006,952.241064, 29.812220
-2263.324235,50000.000000,-253.218684, -0.000007,951.992560, 29.796262
-7738.739318,47270.183171,-256.402741, -0.000007,951.749734, 29.778137
-13098.929994,41210.907073,-259.485751, -0.000007,951.512455, 29.758044
-18318.278697,35035.283348,-262.464247, -0.000005,951.280598, 29.736185
-23372.210885,28767.676451,-265.335071, -0.000005,951.054037, 29.712758
-28237.305832,22433.318332,-268.095394, -0.000005,950.832653, 29.687958
-32891.400220,16057.527540,-270.742699, -0.000006,950.616327, 29.661976
-37313.684055,9665.606339,-273.274802, -0.000006,950.404943, 29.634996
-41484.788382,3282.741551,-275.689843, -0.000006,950.198389, 29.607196
-45386.864767,-3066.093381,-277.986287, -0.000006,949.996554, 29.578744
-49003.655880,-9356.234852,-280.162922, -0.000007,949.799330, 29.549798
-50000.000000,-15563.423570,-282.218870, -0.000007,949.606612, 29.520506
-50000.000000,-21663.896862,-284.153566, -0.000007,940.924435, 29.491004
-50000.000000,-27634.478356,-285.966771, -0.000005,861.641770, 29.461414
-50000.000000,-33452.664727,-287.658552, -0.000005,776.646249, 29.431847
-50000.000000,-39096.709177,-289.229294, -0.000005,686.594687, 29.402398
-50000.000000,-44545.701388,-290.679679, -0.000005,592.302405, 29.373149
-50000.000000,-49779.643632,-292.010686, -0.000005,494.609081, 29.344167
-50000.000000,-50000.000000,-293.223586, -0.000006,394.370293, 29.315504
-50000.000000,-50000.000000,-294.319925, -0.000006,292.450220, 29.287197
-50000.000000,-50000.000000,-295.301526, -0.000006,189.714396, 29.259268
-50000.000000,-50000.000000,-296.170464, -0.000006, 87.022547, 29.231726
-50000.000000,-50000.000000,-296.929074, -0.000006,-14.778413, 29.204562
-50000.000000,-50000.000000,-297.579925, -0.000006,-114.861182, 29.177757
-50000.000000,-50000.000000,-298.125816, -0.000007,-212.424608, 29.151277
-50000.000000,-50000.000000,-298.569763, -0.000004,-306.699920, 29.125073
-50000.000000,-50000.000000,-298.914978, -0.000005,-396.956597, 29.099088
-50000.000000,-50000.000000,-299.164873, -0.000005,-482.507843, 29.073249
-50000.000000,-50000.000000,-299.323028, -0.000005,-562.715615, 29.047477
-50000.000000,-50000.000000,-299.393189, -0.000005,-636.995182, 29.021680
-50000.000000,-50000.000000,-299.379249, -0.000005,-704.819173, 28.995759
-50000.000000,-50000.000000,-299.285240, -0.000005,-765.721099, 28.969606
-50000.000000,-50000.000000,-299.115305, -0.000005,-819.298318, 28.943108
-50000.000000,-50000.000000,-298.873696, -0.000006,-865.214435, 28.916145
-50000.000000,-50000.000000,-298.564758, -0.000006,-903.201112, 28.888595
-49052.604474,-50000.000000,-298.192909, -0.000006,-933.059300, 28.860330
-45919.488470,-50000.000000,-297.762620, -0.000006,-952.521274, 28.831221
-42590.298674,-50000.000000,-297.278418, -0.000006,-952.268922, 28.801138
-39083.588790,-50000.000000,-296.744854, -0.000004,-952.019811, 28.769952
-35419.394157,-50000.000000,-296.166495, -0.000004,-951.776362, 28.737534
-31618.294924,-50000.000000,-295.547909, -0.000004,-951.538475, 28.703758
-27701.298522,-50000.000000,-294.893652, -0.000004,-940.091621, 28.668500
-23689.727839,-50000.000000,-294.208250, -0.000005,-913.772350, 28.631640
-19605.109353,-50000.000000,-293.496194, -0.000005,-880.178894, 28.593067
-15469.061579,-50000.000000,-292.761911, -0.000005,-839.678620, 28.552670
-11303.184586,-50000.000000,-292.009764, -0.000005,-792.704938, 28.510349
-7128.937057,-50000.000000,-291.245806, -0.000005,-739.738313, 28.466348
-2967.543285,-50000.000000,-290.476042, -0.000005,-681.301680, 28.420916
1160.111157,-50000.000000,-289.706398, -0.000005,-617.955521, 28.374310
5233.580686,-50000.000000,-288.942727, -0.000006,-550.292698, 28.326787
9232.957433,-50000.000000,-288.190773, -0.000006,-478.933096, 28.278608
13138.965011,-50000.000000,-287.456164, -0.000004,-404.518114, 28.230029
16933.047889,-50000.000000,-286.744395, -0.000004,-327.705072, 28.181306
20597.455892,-50000.000000,-286.060816, -0.000004,-249.161557, 28.132687
24115.323633,-50000.000000,-285.410609, -0.000004,-169.559763, 28.084414
27470.744423,-50000.000000,-284.798787, -0.000004,-89.570889, 28.036720
30648.838296,-50000.000000,-284.230172, -0.000005, -9.859613, 27.989828
33635.814091,-50000.000000,-283.709385, -0.000005, 68.921294, 27.943945
36419.025100,-50000.000000,-283.240838, -0.000005,146.136179, 27.899270
38987.018362,-50000.000000,-282.828719, -0.000005,221.171501, 27.855982
41329.577117,-50000.000000,-282.476989, -0.000005,293.440574, 27.814247
43437.756543,-50000.000000,-282.189362, -0.000005,362.388014, 27.774212
45303.912651,-50000.000000,-281.969309, -0.000006,427.493865, 27.736009
46921.724109,-50000.000000,-281.820045, -0.000006,488.277379, 27.699747
48286.207207,-50000.000000,-281.744523, -0.000004,544.300409, 27.665520
49393.723751,-49240.349739,-281.745424, -0.000004,595.170408, 27.633401
50000.000000,-44736.617860,-281.825166, -0.000004,640.543007, 27.603443
50000.000000,-40087.810438,-281.985885, -0.000004,680.124157, 27.575681
50000.000000,-35312.410303,-282.229445, -0.000005,713.671825, 27.550129
50000.000000,-30430.026212,-282.557422, -0.000005,740.997239, 27.526783
50000.000000,-25460.551540,-282.971118, -0.000005,761.965673, 27.505621
50000.000000,-20424.080807,-283.471554, -0.000005,776.496777, 27.486602
49991.395230,-15340.829497,-284.059465, -0.000005,784.564450, 27.469667
49095.312843,-10231.053907,-284.735310, -0.000006,786.196275, 27.454743
47967.562410,-5114.971397,-285.499272, -0.000006,781.472510, 27.441740
46616.560485,-12.681438,-286.351262, -0.000006,770.524667, 27.430554
45052.013156,5055.912374,-287.290920, -0.000004,753.533681, 27.421068
43284.583521,10071.179043,-288.317617, -0.000004,730.727710, 27.413152
41325.823315,15013.835169,-289.430468, -0.000004,702.379564, 27.406666
39188.102959,19865.018125,-290.628339, -0.000005,668.803810, 27.401463
36884.538495,24606.357087,-291.909842, -0.000005,630.353576, 27.397385
34428.915590,29220.041545,-293.273353, -0.000005,587.417076, 27.394268
31835.611203,33688.887247,-294.717013, -0.000005,540.413907, 27.391945
29119.513193,37996.399117,-296.238751, -0.000005,489.791130, 27.390243
26295.938513,42126.831115,-297.836271, -0.000006,436.019182, 27.388991
23380.550122,46065.242653,-299.507080, -0.000006,379.587668, 27.388011
20389.273338,49797.551555,-301.248487, -0.000006,321.001038, 27.387132
17338.211939,50000.000000,-303.057622, -0.000006,260.774214, 27.386183
14243.564334,50000.000000,-304.931443, -0.000004,199.428189, 27.384996
11121.540466,50000.000000,-306.866745, -0.000004,137.485651, 27.383407
7988.279694,50000.000000,-308.860178, -0.000005, 75.466637, 27.381261
4859.770019,50000.000000,-310.908255, -0.000005, 13.884290, 27.378407
1751.769202,50000.000000,-313.007358, -0.000005,-46.759275, 27.374705
-1320.271975,50000.000000,-315.153766, -0.000005,-105.976956, 27.370022
-4341.283890,50000.000000,-317.343657, -0.000005,-163.300459, 27.364236
-7296.649378,50000.000000,-319.573120, -0.000006,-218.283889, 27.357236
-10172.271860,50000.000000,-321.838169, -0.000006,-270.507105, 27.348921
-12954.639897,50000.000000,-324.134765, -0.000006,-319.578814, 27.339205
-15630.887973,50000.000000,-326.458816, -0.000006,-365.139372, 27.328010
-18188.853293,50000.000000,-328.806193, -0.000004,-406.863304, 27.315276
-20617.128174,50000.000000,-331.172753, -0.000004,-444.461484, 27.300951
-22905.108042,50000.000000,-333.554334, -0.000005,-477.682998, 27.284999
-25043.034671,50000.000000,-335.946788, -0.000005,-506.316661, 27.267397
-27022.034690,50000.000000,-338.345976, -0.000005,-530.192180, 27.248134
-28834.152985,50000.000000,-340.747791, -0.000005,-549.180970, 27.227213
-30472.381144,50000.000000,-343.148163, -0.000005,-563.196610, 27.204647
-31930.680644,50000.000000,-345.543077, -0.000006,-572.194945, 27.180464
-33204.000926,50000.000000,-347.928575, -0.000006,-576.173839, 27.154702
-34288.292191,50000.000000,-350.300783, -0.000006,-575.172584, 27.127410
-35180.512957,50000.000000,-352.655902, -0.000006,-569.270977, 27.098648
-35878.632437,50000.000000,-354.990237, -0.000004,-558.588075, 27.068486
-36381.627838,50000.000000,-357.300192, -0.000004,-543.280648, 27.037001
-36689.476421,50000.000000,-359.582288, -0.000004,-523.541333, 27.004281
-36803.142845,50000.000000,-361.833166, -0.000005,-499.596535, 26.970417
-36724.561439,50000.000000,-364.049602, -0.000005,-471.704068, 26.935510
-36456.614003,50000.000000,-366.228514, -0.000005,-440.150569, 26.899666
-36003.102947,50000.000000,-368.366958, -0.000005,-405.248726, 26.862993
-35368.720227,50000.000000,-370.462156, -0.000005,-367.334315, 26.825603
-34559.012138,50000.000000,-372.511478, -0.000006,-326.763099, 26.787613
-33580.340222,50000.000000,-374.512472, -0.000006,-283.907608, 26.749138
-32439.838588,50000.000000,-376.462846, -0.000004,-239.153818, 26.710296
-31145.367867,50000.000000,-378.360489, -0.000004,-192.897778, 26.671202
-29705.466105,47550.257740,-380.203472, -0.000004,-145.542195, 26.631971
-28129.296800,44118.388775,-381.990044, -0.000004,-97.493020, 26.592717
-26426.594508,40540.477512,-383.718643, -0.000005,-49.156049, 26.553547
-24607.608264,36831.413379,-385.387896, -0.000005, -0.933581, 26.514568
-22683.043067,33006.671517,-386.996617, -0.000005, 46.778850, 26.475879
-20663.999888,29082.072284,-388.543810, -0.000005, 93.595638, 26.437576
-18561.914414,25073.715951,-390.028672, -0.000005,139.144143, 26.399748
-16388.494873,20997.917651,-391.450593, -0.000006,183.067576, 26.362476
-14155.659317,16871.141812,-392.809151, -0.000004,225.027710, 26.325835
-11875.472609,12709.936581,-394.104111, -0.000004,264.707406, 26.289893
-9560.083549,8530.868338,-395.335429, -0.000004,301.812918, 26.254709
-7221.662320,4350.456632,-396.503244, -0.000004,336.075979, 26.220333
-4872.338677,185.109664,-397.607877, -0.000005,367.255646, 26.186808
-2524.141061,-3948.939191,-398.649826, -0.000005,395.139889, 26.154167
-188.937146,-8035.693873,-399.629768, -0.000005,419.546924, 26.122435
2121.624177,-12059.456633,-400.548543, -0.000005,440.326271, 26.091627
4396.168832,-16004.887514,-401.407166, -0.000005,457.359548, 26.061752
6623.651620,-19857.061986,-402.206803, -0.000006,470.560974, 26.032807
8793.407775,-23601.526507,-402.948780, -0.000004,479.877614, 26.004783
10895.202029,-27224.351918,-403.634571, -0.000004,485.289335, 25.977662
12919.274851,-30712.184303,-404.265788, -0.000004,486.808494, 25.951418
14856.385659,-34052.293388,-404.844186, -0.000004,484.479377, 25.926018
16697.852833,-37232.617943,-405.371638, -0.000005,478.377359, 25.901423
18435.590496,-40241.808463,-405.850146, -0.000005,468.607842, 25.877585
20062.141649,-43069.266593,-406.281823, -0.000005,455.304944, 25.854451
21570.707808,-45705.181395,-406.668886, -0.000005,438.629983, 25.831965
22955.174935,-48140.562271,-407.013650, -0.000006,418.769752, 25.810062
24210.135439,-50000.000000,-407.318520, -0.000004,395.934607, 25.788677
25330.906523,-50000.000000,-407.585981, -0.000004,370.356391, 25.767738
26313.544438,-50000.000000,-407.818587, -0.000004,342.286216, 25.747172
27154.854969,-50000.000000,-408.018961, -0.000004,311.992107, 25.726903
27852.399842,-50000.000000,-408.189775, -0.000005,279.756553, 25.706854
28404.499401,-50000.000000,-408.333753, -0.000005,245.873962, 25.686945
28810.231240,-50000.000000,-408.453650, -0.000005,210.648065, 25.667099
29069.425131,-50000.000000,-408.552253, -0.000006,174.389273, 25.647238
29182.654216,-50000.000000,-408.632367, -0.000006,137.412022, 25.627283
29151.222454,-50000.000000,-408.696809, -0.000004,100.032121, 25.607159
28977.148679,-50000.000000,-408.748397, -0.000004, 62.564130, 25.586792
28663.147093,-50000.000000,-408.789944, -0.000004, 25.318778, 25.566111
28212.604617,-50000.000000,-408.824243, -0.000005,-11.399537, 25.545050
27629.555101,-50000.000000,-408.854073, -0.000005,-47.295172, 25.523541
26918.650504,-50000.000000,-408.882176, -0.000005,-82.083549, 25.501528
26085.129462,-50000.000000,-408.911259, -0.000005,-115.493340, 25.478953
25134.783208,-50000.000000,-408.943976, -0.000006,-147.268518, 25.455767
24073.919148,-50000.000000,-408.982934, -0.000006,-177.170239, 25.431923
22909.322294,-50000.000000,-409.030675, -0.000004,-204.978572, 25.407381
21648.214796,-50000.000000,-409.089676, -0.000004,-230.494030, 25.382107
20298.213790,-50000.000000,-409.162340, -0.000004,-253.538931, 25.356073
18867.287741,-49485.424075,-409.250984, -0.000005,-273.958533, 25.329254
17363.711655,-47329.677122,-409.357846, -0.000005,-291.621993, 25.301635
15796.021227,-45001.010976,-409.485066, -0.000005,-306.423089, 25.273204
14172.966339,-42509.460529,-409.634690, -0.000006,-318.280747, 25.243955
12503.464033,-39865.938263,-409.808660, -0.000006,-327.139341, 25.213890
10796.551241,-37081.876987,-410.008816, -0.000006,-332.968786, 25.183013
9061.337542,-34169.179991,-410.236878, -0.000004,-335.764415, 25.151338
7306.958167,-31140.170983,-410.494460, -0.000004,-335.546653, 25.118881
5542.527419,-28007.542823,-410.783058, -0.000005,-332.360480, 25.085664
3777.092902,-24784.305163,-411.104039, -0.000005,-326.274708, 25.051712
2019.590577,-21483.731171,-411.458658, -0.000005,-317.381071, 25.017057
278.800994,-18119.303637,-411.848035, -0.000005,-305.793131, 24.981735
-1436.693038,-14704.660608,-412.273172, -0.000006,-291.645029, 24.945783
-3118.547427,-11253.540833,-412.734933, -0.000006,-275.090082, 24.909243
-4758.695806,-7779.729171,-413.234060, -0.000004,-256.299238, 24.872161
-6349.386840,-4297.002215,-413.771162, -0.000004,-235.459413, 24.834583
-7883.219305,-819.074300,-414.346720, -0.000004,-212.771718, 24.796558
-9353.175056,2640.455789,-414.961081, -0.000005,-188.449594, 24.758137
-10752.649536,6068.157345,-415.614470, -0.000005,-162.716876, 24.719371
-12075.479892,9450.819257,-416.306977, -0.000005,-135.805794, 24.680314
-13315.970429,12775.500192,-417.038573, -0.000005,-107.954936, 24.641017
-14468.915377,16029.577502,-417.809096, -0.000006,-79.407191, 24.601533
-15529.618920,19200.794451,-418.618268, -0.000004,-50.407681, 24.561914
-16493.912387,22277.305699,-419.465688, -0.000004,-21.201709, 24.522211
-17358.168508,25247.720807,-420.350837, -0.000004,  7.967268, 24.482472
-18119.312787,28101.145768,-421.273084, -0.000005, 36.859619, 24.442746
-18774.831924,30827.222177,-422.231685, -0.000005, 65.241463, 24.403076
-19322.779288,33416.164075,-423.225791, -0.000005, 92.886509, 24.363508
-19761.777481,35858.792267,-424.254450, -0.000005,119.577816, 24.324081
-20091.017901,38146.566079,-425.316609, -0.000003,145.109449, 24.284831
-20310.257557,40271.612297,-426.411119, -0.000004,169.288012, 24.245792
-20419.812992,42226.751378,-427.536750, -0.000004,191.934068, 24.206996
-20420.551440,44005.520672,-428.692174, -0.000004,212.883412, 24.168469
-20313.879342,45602.194696,-429.875995, -0.000004,231.988207, 24.130234
-20101.728306,47011.802427,-431.086737, -0.000005,249.117966, 24.092311
-19786.538550,48230.141443,-432.322855, -0.000005,264.160376, 24.054713
-19371.239982,49253.788984,-433.582742, -0.000005,277.021965, 24.017454
-18859.231090,50000.000000,-434.864730, -0.000003,287.628595, 23.980540
-18254.355701,50000.000000,-436.167106, -0.000004,295.925798, 23.943974
-17560.877792,50000.000000,-437.488104, -0.000004,301.878937, 23.907756
-16783.454510,50000.000000,-438.825919, -0.000004,305.473205, 23.871882
-15927.107538,50000.000000,-440.178714, -0.000005,306.713466, 23.836344
-14997.193018,50000.000000,-441.544623, -0.000005,305.623923, 23.801131
-13999.370124,50000.000000,-442.921753, -0.000005,302.247640, 23.766227
-12939.568515,50000.000000,-444.308202, -0.000003,296.645917, 23.731615
-11823.954920,49632.220565,-445.702054, -0.000004,288.897519, 23.697273
-10658.898814,48720.195038,-447.101389, -0.000004,279.097771, 23.663179
-9450.937629,47626.720576,-448.504283, -0.000004,267.357537, 23.629306
-8206.741526,46357.293847,-449.908829, -0.000005,253.802077, 23.595625
-6933.077921,44918.138795,-451.313124, -0.000005,238.569808, 23.562107
-5636.776016,43316.101352,-452.715288, -0.000005,221.810969, 23.528719
-4324.691481,41558.617823,-454.113463, -0.000003,203.686215, 23.495429
-3003.671397,39653.681571,-455.505818, -0.000004,184.365138, 23.462201
-1680.519762,37609.807778,-456.890559, -0.000004,164.024741, 23.429002
-361.963631,35435.996337,-458.265931, -0.000004,142.847870, 23.395796
945.379901,33141.693138,-459.630219, -0.000005,121.021622, 23.362546
2235.035814,30736.749921,-460.981760, -0.000005, 98.735738, 23.329219
3500.701991,28231.382718,-462.318940, -0.000005, 76.181005, 23.295778
4736.278915,25636.129281,-463.640204, -0.000004, 53.547663, 23.262188
5935.897915,22961.805470,-464.944062, -0.000004, 31.023846, 23.228418
7093.947830,20219.460839,-466.229077, -0.000004,  8.794061, 23.194434
8205.100107,17420.333732,-467.493889, -0.000005,-12.962285, 23.160206
9264.332104,14575.805832,-468.737206, -0.000005,-34.072283, 23.125704
10266.948505,11697.356511,-469.957811, -0.000005,-54.370863, 23.090902
11208.600904,8796.517181,-471.154562, -0.000003,-73.702033, 23.055773
12085.305288,5884.825652,-472.326393, -0.000004,-91.920042, 23.020296
12893.457501,2973.780853,-473.472329, -0.000004,-108.890429, 22.984448
13629.846574, 74.798057,-474.591466, -0.000005,-124.490970, 22.948212
14291.665895,-2800.835349,-475.682990, -0.000005,-138.612509, 22.911572
14876.522178,-5642.003176,-476.746175, -0.000005,-151.159669, 22.874514
15382.442271,-8437.802848,-477.780376, -0.000006,-162.051440, 22.837028
15807.877647,-11177.586618,-478.785045, -0.000004,-171.221635, 22.799106
16151.706857,-13851.001549,-479.759709, -0.000004,-178.619230, 22.760743
16413.235607,-16448.028020,-480.703996, -0.000004,-184.208555, 22.721935
16592.194813,-18959.016671,-481.617615, -0.000005,-187.969375, 22.682683
16688.736473,-21374.723613,-482.500363, -0.000005,-189.896826, 22.642989
16703.427424,-23686.343806,-483.352125, -0.000006,-190.001239, 22.602859
16637.241169,-25885.542557,-484.172878, -0.000004,-188.307831, 22.562299
16491.547725,-27964.484774,-484.962678, -0.000004,-184.856282, 22.521320
16268.101515,-29915.862280,-485.721667, -0.000004,-179.700201, 22.479932
15969.027589,-31732.918677,-486.450070, -0.000005,-172.906479, 22.438150
15596.806079,-33409.471940,-487.148191, -0.000005,-164.554547, 22.395988
15154.255081,-34939.934693,-487.816418, -0.000005,-154.735538, 22.353466
14644.512016,-36319.331814,-488.455210, -0.000004,-143.551370, 22.310600
14071.013700,-37543.315684,-489.065102, -0.000004,-131.113745, 22.267410
13437.475047,-38608.178821,-489.646700, -0.000004,-117.543086, 22.223920
12747.866697,-39510.863851,-490.200682, -0.000005,-102.967422, 22.180148
12006.391667,-40248.970958,-490.727788, -0.000005,-87.521218, 22.136120
11217.461076,-40820.762612,-491.228823, -0.000005,-71.344175, 22.091857
10385.669157,-41225.165748,-491.704650, -0.000004,-54.580000, 22.047383
9515.767640,-41461.771270,-492.156190, -0.000004,-37.375166, 22.002723
8612.639706,-41530.830941,-492.584415, -0.000004,-19.877662, 21.957899
7681.273589,-41433.251796,-492.990346, -0.000005, -2.235750, 21.912935
6726.735991,-41170.587899,-493.375048, -0.000005, 15.403259, 21.867853
5754.145459,-40745.029721,-493.739631, -0.000005, 32.894211, 21.822676
4768.645764,-40159.391060,-494.085242, -0.000004, 50.095269, 21.777425
3775.379655,-39417.093585,-494.413055, -0.000004, 66.869040, 21.732120
2779.462806,-38522.149131,-494.724283, -0.000004, 83.083638, 21.686781
1785.958260,-37479.139846,-495.020161, -0.000005, 98.613699, 21.641426
799.851589,-36293.196157,-495.301940, -0.000005,113.341315, 21.596072
-173.973410,-34969.972770,-495.570895, -0.000003,127.156900, 21.550734
-1130.758068,-33515.622864,-495.828316, -0.000004,139.959974, 21.505425
-2065.891284,-31936.770356,-496.075493, -0.000004,151.659862, 21.460158
-2974.930973,-30240.480699,-496.313730, -0.000004,162.176294, 21.414943
-3853.624324,-28434.229972,-496.544331, -0.000005,171.439922, 21.369788
-4697.926910,-26525.872733,-496.768592, -0.000005,179.392731, 21.324702
-5504.020417,-24523.608523,-496.987807, -0.000003,185.988355, 21.279688
-6268.329055,-22435.947264,-497.203259, -0.000004,191.192288, 21.234751
-6987.534526,-20271.673724,-497.416220, -0.000004,194.982003, 21.189891
-7658.589464,-18039.811120,-497.627936, -0.000005,197.346955, 21.145108
-8278.729389,-15749.584052,-497.839641, -0.000005,198.288506, 21.100401
-8845.482982,-13410.380908,-498.052537, -0.000003,197.819730, 21.055766
-9356.680899,-11031.715917,-498.267805, -0.000004,195.965145, 21.011198
-9810.462729,-8623.190885,-498.486587, -0.000004,192.760339, 20.966689
-10205.282515,-6194.457028,-498.710000, -0.000004,188.251521, 20.922233
-10539.912495,-3755.176677,-498.939115, -0.000005,182.494980, 20.877819
-10813.445157,-1314.985387,-499.174968, -0.000003,175.556483, 20.833437
-11025.293777,1116.545715,-499.418552, -0.000003,167.510588, 20.789075
-11175.191205,3529.946957,-499.670817, -0.000004,158.439907, 20.744720
-11263.187078,5915.886588,-499.932665, -0.000004,148.434306, 20.700359
-11289.643518,8265.206340,-500.204944, -0.000005,137.590056, 20.655976
-11255.229289,10568.956174,-500.488458, -0.000003,126.008955, 20.611557
-11160.912372,12818.427885,-500.783954, -0.000003,113.797398, 20.567087
-11007.951323,15005.187526,-501.092127, -0.000004,101.065440, 20.522549
-10797.885082,17121.106564,-501.413612, -0.000004, 87.925834, 20.477928
-10532.521591,19158.391582,-501.748997, -0.000005, 74.493060, 20.433206
-10213.925198,21109.612525,-502.098801, -0.000003, 60.882357, 20.388369
-9844.402870,22967.729175,-502.463489, -0.000003, 47.208764, 20.343400
-9426.489469,24726.116128,-502.843466, -0.000004, 33.586170, 20.298284
-8962.931906,26378.585751,-503.239080, -0.000004, 20.126394, 20.253004
-8456.672564,27919.409391,-503.650618, -0.000005,  6.938293, 20.207548
-7910.831893,29343.336603,-504.078302, -0.000003, -5.873096, 20.161900
-7328.690292,30645.612365,-504.522301, -0.000004,-18.207362, 20.116047
-6713.669534,31821.992222,-504.982720, -0.000004,-29.969485, 20.069976
-6069.313544,32868.755347,-505.459607, -0.000005,-41.070541, 20.023677
-5399.268951,33782.715395,-505.952949, -0.000005,-51.428346, 19.977139
-4707.265296,34561.229256,-506.462681, -0.000003,-60.968036, 19.930351
-3997.095144,35202.203591,-506.988674, -0.000004,-69.622580, 19.883306
-3272.594033,35704.099156,-507.530746, -0.000004,-77.333221, 19.835995
-2537.620554,36065.932902,-508.088664, -0.000005,-84.049835, 19.788414
-1796.036523,36287.277951,-508.662139, -0.000005,-89.731226, 19.740557
-1051.687402,36368.261325,-509.250830, -0.000003,-94.345332, 19.692419
-308.383102,36309.559491,-509.854350, -0.000004,-97.869358, 19.643999
430.120911,36112.391948,-510.472258, -0.000004,-100.289834, 19.595295
1160.141800,35778.512474,-511.104074, -0.000005,-101.602585, 19.546307
1878.087142,35310.198597,-511.749272, -0.000003,-101.812635, 19.497036
2580.471896,34710.238908,-512.407280, -0.000004,-100.934031, 19.447484
3263.934614,33981.918496,-513.077493, -0.000004,-98.989597, 19.397653
3925.252925,33129.002648,-513.759264, -0.000005,-96.010618, 19.347549
4561.357949,32155.718625,-514.451916, -0.000005,-92.036462, 19.297176
5169.347898,31066.735832,-515.154736, -0.000003,-87.114133, 19.246540
5746.500607,29867.144433,-515.866986, -0.000004,-81.297780, 19.195648
6290.284919,28562.432354,-516.587892, -0.000004,-74.648142, 19.144508
6798.371103,27158.461034,-517.316668, -0.000005,-67.231951, 19.093127
7268.639982,25661.439728,-518.052495, -0.000003,-59.121302, 19.041515
7699.190972,24077.898783,-518.794544, -0.000004,-50.392970, 18.989682
8088.348863,22414.661698,-519.541966, -0.000004,-41.127718, 18.937636
8434.669359,20678.816314,-520.293898, -0.000005,-31.409571, 18.885388
8736.943448,18877.685181,-521.049468, -0.000003,-21.325073, 18.832948
8994.200461,17018.795183,-521.807797, -0.000004,-10.962540, 18.780327
9205.709904,15109.846538,-522.567996, -0.000004, -0.411303, 18.727536
9370.982086,13158.681459,-523.329181, -0.000005, 10.239040, 18.674584
9489.767432,11173.252297,-524.090465, -0.000005, 20.899367, 18.621482
9562.054696,9161.589675,-524.850960, -0.000003, 31.481765, 18.568241
9588.067944,7131.770417,-525.609789, -0.000004, 41.900233, 18.514869
9568.262353,5091.885498,-526.366085, -0.000004, 52.071363, 18.461378
9503.318947,3050.008281,-527.118984, -0.000005, 61.914993, 18.407776
9394.138254,1014.162977,-527.867642, -0.000003, 71.354821, 18.354071
9241.832910,-1007.706500,-528.611225, -0.000004, 80.318976, 18.300272
9047.719258,-3007.767130,-529.348925, -0.000004, 88.740550, 18.246386
8813.308147,-4978.326658,-530.079942, -0.000005, 96.558074, 18.192420
8540.294686,-6911.862826,-530.803511, -0.000003,103.715950, 18.138381
8230.547366,-8801.051646,-531.518882, -0.000004,110.164823, 18.084272
7886.096339,-10638.794732,-532.225334, -0.000004,115.861896, 18.030100
7509.121085,-12418.245498,-532.922176, -0.000005,120.771192, 17.975867
7101.937444,-14132.834285,-533.608742, -0.000003,124.863748, 17.921578
6666.984137,-15776.292169,-534.284400, -0.000003,128.117754, 17.867234
6206.808867,-17342.673379,-534.948553, -0.000004,130.518630, 17.812837
5724.054043,-18826.376337,-535.600631, -0.000005,132.059042, 17.758387
5221.442154,-20222.163245,-536.240107, -0.000003,132.738854, 17.703884
4701.760971,-21525.178013,-536.866485, -0.000003,132.565030, 17.649327
4167.848633,-22730.962591,-537.479311, -0.000004,131.551471, 17.594715
3622.578642,-23835.471716,-538.078163, -0.000005,129.718799, 17.540045
3068.844824,-24835.085778,-538.662666, -0.000003,127.094093, 17.485315
2509.546491,-25726.622058,-539.232474, -0.000003,123.710569, 17.430519
1947.573671,-26507.344127,-539.787294, -0.000004,119.607218, 17.375655
1385.792619,-27174.969400,-540.326862, -0.000002,114.828403, 17.320717
827.031644,-27727.674901,-540.850960, -0.000003,109.423412, 17.265699
274.067239,-28164.101200,-541.359412, -0.000003,103.445985, 17.210596
-270.389242,-28483.354382,-541.852081, -0.000004, 96.953800, 17.155402
-803.704433,-28685.006381,-542.328869, -0.000002, 90.007945, 17.100110
-1323.335380,-28769.093283,-542.789721, -0.000003, 82.672364, 17.044713
-1826.841104,-28736.111964,-543.234620, -0.000004, 75.013288, 16.989203
-2311.893727,-28587.014843,-543.663591, -0.000004, 67.098656, 16.933574
-2776.288752,-28323.202998,-544.076697, -0.000003, 58.997526, 16.877819
-3217.954611,-27946.517438,-544.474036, -0.000003, 50.779498, 16.821930
-3634.961438,-27459.228810,-544.855747, -0.000004, 42.514124, 16.765899
-4025.529040,-26864.025486,-545.222007, -0.000002, 34.270338, 16.709719
-4388.033887,-26164.000026,-545.573025, -0.000003, 26.115899, 16.653384
-4721.015399,-25362.634243,-545.909046, -0.000003, 18.116843, 16.596885
-5023.181157,-24463.782763,-546.230346, -0.000004, 10.336970, 16.540217
-5293.411300,-23471.655320,-546.537234, -0.000003,  2.837345, 16.483373
-5530.761985,-22390.797722,-546.830050, -0.000003, -4.324160, 16.426346
-5734.467842,-21226.071644,-547.109167, -0.000004,-11.093307, 16.369131
-5903.943592,-19982.633342,-547.374978, -0.000002,-17.419874, 16.311723
-6038.784651,-18665.911384,-547.627907, -0.000003,-23.258023, 16.254116
-6138.766867,-17281.583404,-547.868400, -0.000004,-28.566606, 16.196306
-6203.845315,-15835.552091,-548.096928, -0.000004,-33.309440, 16.138290
-6234.152203,-14333.920446,-548.313983, -0.000003,-37.455535, 16.080063
-6229.993953,-12782.966482,-548.520072, -0.000003,-40.979272, 16.021623
-6191.847357,-11189.117299,-548.715726, -0.000004,-43.860537, 15.962967
-6120.355027,-9558.922907,-548.901486, -0.000003,-46.084807, 15.904094
-6016.319960,-7899.029605,-549.077910, -0.000003,-47.643189, 15.845003
-5880.699397,-6216.153296,-549.245566, -0.000004,-48.532416, 15.785691
-5714.598049,-4517.052595,-549.405034, -0.000005,-48.754782, 15.726160
-5519.260561,-2808.502112,-549.556900, -0.000003,-48.318056, 15.666409
-5296.063438,-1097.265689,-549.701759, -0.000004,-47.235328, 15.606440
-5046.506356,609.929989,-549.840210, -0.000004,-45.524830, 15.546253
-4772.203014,2306.421528,-549.972850, -0.000003,-43.209708, 15.485850
-4474.871474,3985.634527,-550.100282, -0.000004,-40.317762, 15.425233
-4156.324179,5641.108698,-550.223107, -0.000004,-36.881148, 15.364406
-3818.457481,7266.522413,-550.341920, -0.000003,-32.936053, 15.303370
-3463.241066,8855.716512,-550.457316, -0.000003,-28.522332, 15.242131
-3092.706980,10402.717305,-550.569880, -0.000004,-23.683133, 15.180689
-2708.938544,11901.758681,-550.680191, -0.000003,-18.464487, 15.119050
-2314.059209,13347.303265,-550.788816, -0.000003,-12.914895, 15.057219
-1910.221262,14734.062539,-550.896314, -0.000004, -7.084881, 14.995198
-1499.594538,16057.015768,-551.003227, -0.000002, -1.026559, 14.932993
-1084.355310,17311.427854,-551.110088, -0.000003,  5.206831, 14.870608
-666.675105,18492.865843,-551.217409, -0.000004, 11.561373, 14.808048
-248.709815,19597.214214,-551.325690, -0.000002, 17.982928, 14.745318
167.410988,20620.688771,-551.435407, -0.000003, 24.417589, 14.682421
579.594490,21559.849091,-551.547022, -0.000004, 30.812119, 14.619363
985.794753,22411.609694,-551.660974, -0.000002, 37.114376, 14.556148
1384.022485,23173.249518,-551.777679, -0.000003, 43.273738, 14.492781
1772.354320,23842.420125,-551.897532, -0.000004, 49.241487, 14.429265
2148.941714,24417.152186,-552.020906, -0.000002, 54.971193, 14.365605
2512.019359,24895.860625,-552.148146, -0.000003, 60.419056, 14.301805
2859.912994,25277.348024,-552.279576, -0.000004, 65.544232, 14.237868
3191.046733,25560.806658,-552.415488, -0.000002, 70.309131, 14.173797
3503.949744,25745.818879,-552.556156, -0.000003, 74.679673, 14.109597
3797.262357,25832.356029,-552.701820, -0.000004, 78.625523, 14.045268
4069.741471,25820.775746,-552.852700, -0.000002, 82.120286, 13.980813
4320.265386,25711.817899,-553.008982, -0.000003, 85.141666, 13.916236
4547.837864,25506.598984,-553.170827, -0.000004, 87.671594, 13.851536
4751.591572,25206.605060,-553.338370, -0.000003, 89.696312, 13.786716
4930.790830,24813.683306,-553.511716, -0.000003, 91.206426, 13.721777
5084.833564,24330.032274,-553.690941, -0.000004, 92.196920, 13.656718
5213.252724,23758.190754,-553.876099, -0.000003, 92.667135, 13.591541
5315.716818,23101.025433,-554.067210, -0.000003, 92.620709, 13.526245
5392.029891,22361.717333,-554.264273, -0.000004, 92.065489, 13.460830
5442.130744,21543.747125,-554.467255, -0.000003, 91.013400, 13.395294
5466.091528,20650.879366,-554.676100, -0.000003, 89.480291, 13.329637
5464.115624,19687.145706,-554.890725, -0.000004, 87.485747, 13.263858
5436.534970,18656.827257,-555.111020, -0.000003, 85.052876, 13.197954
5383.806690,17564.435961,-555.336859, -0.000004, 82.208058, 13.131923
5306.509150,16414.695364,-555.568078, -0.000002, 78.980694, 13.065764
5205.337547,15212.520515,-555.804504, -0.000003, 75.402909, 12.999473
5081.098775,13962.997381,-556.045933, -0.000004, 71.509251, 12.933049
4934.706010,12671.361717,-556.292144, -0.000002, 67.336373, 12.866487
4767.172642,11342.977422,-556.542891, -0.000003, 62.922697, 12.799785
4579.605898,9983.314659,-556.797916, -0.000004, 58.308073, 12.732941
4373.200025,8597.927608,-557.056937, -0.000003, 53.533430, 12.665950
4149.229099,7192.432139,-557.319656, -0.000003, 48.640425, 12.598808
3909.039615,5772.483311,-557.585760, -0.000002, 43.671082, 12.531514
3654.042681,4343.752943,-557.854919, -0.000003, 38.667449, 12.464063
3385.706072,2911.907276,-558.126793, -0.000004, 33.671242, 12.396453
3105.546062,1482.584737,-558.401025, -0.000002, 28.723514, 12.328678
2815.119156, 61.374072,-558.677252, -0.000003, 23.864321, 12.260737
2516.013672,-1346.207232,-558.955092, -0.000004, 19.132408, 12.192626
2209.841334,-2734.734079,-559.234168, -0.000002, 14.564905, 12.124342
1898.228759,-4098.894385,-559.514080, -0.000003, 10.197050, 12.055882
1582.809084,-5433.509135,-559.794435, -0.000002,  6.061921, 11.987243
1265.213613,-6733.551705,-560.074824, -0.000003,  2.190199, 11.918422
947.063587,-7994.166536,-560.354845, -0.000004, -1.390058, 11.849417
629.962100,-9210.686950,-560.634084, -0.000002, -4.653600, 11.780226
315.486255,-10378.652133,-560.912133, -0.000003, -7.578157, 11.710846
  5.179491,-11493.823149,-561.188579, -0.000002,-10.144579, 11.641276
-299.455772,-12552.198022,-561.463012, -0.000003,-12.336948, 11.571514
-596.965215,-13550.025730,-561.735027, -0.000003,-14.142664, 11.501558
-885.949313,-14483.819183,-562.004220, -0.000002,-15.552500, 11.431407
-1165.069796,-15350.366994,-562.270190, -0.000003,-16.560627, 11.361061
-1433.055513,-16146.744146,-562.532550, -0.000002,-17.164619, 11.290519
-1688.708112,-16870.321433,-562.790908, -0.000003,-17.365416, 11.219780
-1930.907056,-17518.773710,-563.044890, -0.000003,-17.167273, 11.148845
-2158.614384,-18090.086832,-563.294127, -0.000002,-16.577676, 11.077712
-2370.878798,-18582.563353,-563.538262, -0.000003,-15.607232, 11.006383
-2566.839453,-18994.826989,-563.776949, -0.000002,-14.269538, 10.934858
-2745.729074,-19325.825705,-564.009851, -0.000003,-12.581023, 10.863138
-2906.876653,-19574.833584,-564.236644, -0.000001,-10.560775, 10.791223
-3049.709611,-19741.451357,-564.457024, -0.000002, -8.230344, 10.719115
-3173.755420,-19825.605665,-564.670693, -0.000003, -5.613526, 10.646815
-3278.642705,-19827.547033,-564.877374, -0.000002, -2.736138, 10.574324
-3364.101788,-19747.846653,-565.076803, -0.000003,  0.374228, 10.501644
-3429.964789,-19587.391819,-565.268733, -0.000002,  3.688453, 10.428777
-3476.165122,-19347.380245,-565.452933, -0.000003,  7.176159, 10.355724
-3502.736552,-19029.313209,-565.629189, -0.000001, 10.805974, 10.282488
-3509.811718,-18634.987444,-565.797307, -0.000002, 14.545805, 10.209070
-3497.620174,-18166.486091,-565.957107, -0.000001, 18.363118, 10.135472
-3466.486017,-17626.168485,-566.108432, -0.000002, 22.225205, 10.061696
-3416.825000,-17016.658894,-566.251141, -0.000003, 26.099462,  9.987745
-3349.141214,-16340.834480,-566.385109, -0.000002, 29.953655,  9.913620
-3264.023495,-15601.812088,-566.510237, -0.000003, 33.756180,  9.839324
-3162.141244,-14802.934478,-566.626437, -0.000002, 37.476314,  9.764858
-3044.240075,-13947.755499,-566.733644, -0.000003, 41.084457,  9.690224
-2911.137037,-13040.024752,-566.831812, -0.000001, 44.552360,  9.615425
-2763.715569,-12083.671435,-566.920910, -0.000002, 47.853334,  9.540461
-2602.920146,-11082.787744,-567.000935, -0.000001, 50.962457,  9.465336
-2429.750758,-10041.611613,-567.071887, -0.000002, 53.856742,  9.390049
-2245.257112,-8964.509087,-567.133798, -0.000001, 56.515309,  9.314604
-2050.532660,-7855.956311,-567.186711, -0.000002, 58.919521,  9.239000
-1846.708563,-6720.521175,-567.230685, -0.000003, 61.053106,  9.163240
-1634.947425,-5562.844804,-567.265803, -0.000002, 62.902257,  9.087324
-1416.437053,-4387.622782,-567.292157, -0.000003, 64.455715,  9.011253
-1192.384076,-3199.586368,-567.309857, -0.000002, 65.704815,  8.935029
-964.007652,-2003.483747,-567.319031, -0.000003, 66.643529,  8.858650
-732.533096,-804.061203,-567.319819, -0.000002, 67.268475,  8.782119
-499.185636,393.955392,-567.312376, -0.000003, 67.578902,  8.705435
-265.184200,1585.879041,-567.296871, -0.000002, 67.576668,  8.628598
-31.735307,2767.079661,-567.273485, -0.000003, 67.266175,  8.551608
199.972810,3933.001906,-567.242411, -0.000002, 66.654305,  8.474466
428.776032,5079.182422,-567.203853, -0.000003, 65.750323,  8.397169
653.539914,6201.266767,-567.158029, -0.000002, 64.565768,  8.319720
873.165032,7295.025697,-567.105162, -0.000003, 63.114324,  8.242115
1086.592126,8356.370857,-567.045485, -0.000002, 61.411676,  8.164355
1292.806890,9381.369823,-566.979242, -0.000003, 59.475351,  8.086438
1490.844551,10366.260430,-566.906680, -0.000002, 57.324551,  8.008365
1679.794117,11307.464307,-566.828059, -0.000003, 54.979964,  7.930132
1858.802259,12201.599638,-566.743637, -0.000002, 52.463576,  7.851740
2027.076940,13045.493009,-566.653681, -0.000003, 49.798469,  7.773187
2183.890548,13836.190385,-566.558461, -0.000002, 47.008619,  7.694472
2328.582831,14570.967168,-566.458250, -0.000003, 44.118679,  7.615592
2460.563315,15247.337263,-566.353322, -0.000002, 41.153769,  7.536548
2579.313384,15863.061082,-566.243954, -0.000003, 38.139263,  7.457336
2684.388033,16416.152662,-566.130423, -0.000002, 35.100576,  7.377956
2775.417110,16904.885646,-566.013003, -0.000003, 32.062951,  7.298406
2852.106259,17327.798191,-565.891973, -0.000002, 29.051256,  7.218685
2914.237395,17683.696864,-565.767602, -0.000003, 26.089784,  7.138791
2961.668873,17971.659383,-565.640164, -0.000002, 23.202059,  7.058722
2994.335167,18191.036394,-565.509919, -0.000003, 20.410657,  6.978477
3012.246272,18341.452026,-565.377135, -0.000002, 17.737029,  6.898055
3015.486641,18422.803477,-565.242065, -0.000001, 15.201344,  6.817454
3004.213795,18435.259452,-565.104960, -0.000002, 12.822340,  6.736674
2978.656603,18379.257619,-564.966068, -0.000001, 10.617187,  6.655712
2939.113222,18255.500999,-564.825621, -0.000002,  8.601375,  6.574567
2885.948649,18064.953277,-564.683850, -0.000001,  6.788604,  6.493240
2819.592038,17808.833263,-564.540978, -0.000002,  5.190701,  6.411728
2740.533700,17488.608270,-564.397216, -0.000001,  3.817546,  6.330031
2649.321850,17105.986616,-564.252763, -0.000002,  2.677024,  6.248148
2546.559046,16662.909200,-564.107815, -0.000001,  1.774983,  6.166078
2432.898506,16161.540289,-563.962552, -0.000003,  1.115218,  6.083822
2309.040062,15604.257439,-563.817146, -0.000002,  0.699471,  6.001378
2175.726095,14993.640682,-563.671756, -0.000001,  0.527444,  5.918747
2033.737217,14332.460920,-563.526532, -0.000002,  0.596831,  5.835928
1883.887795,13623.667795,-563.381610, -0.000001,  0.903366,  5.752921
1727.021419,12870.376803,-563.237112, -0.000002,  1.440889,  5.669726
1564.006284,12075.855942,-563.093154, -0.000001,  2.201422,  5.586343
1395.730421,11243.511796,-562.949833, -0.000002,  3.175260,  5.502773
1223.097011,10376.875213,-562.807234, -0.000001,  4.351081,  5.419016
1047.019594,9479.586583,-562.665437, -0.000000,  5.716055,  5.335073
868.417294,8555.380775,-562.524496, -0.000002,  7.255980,  5.250943
688.210144,7608.071827,-562.384466, -0.000001,  8.955413,  5.166627
507.314387,6641.537466,-562.245377, -0.000002, 10.797816,  5.082128
326.637902,5659.703407,-562.107256, -0.000001, 12.765714,  4.997443
147.075718,4666.527653,-561.970112, -0.000000, 14.840843,  4.912576
-30.494344,3665.984728,-561.833945, -0.000001, 17.004320,  4.827526
-205.215892,2662.049956,-561.698734, -0.000000, 19.236807,  4.742295
-376.258017,1658.683933,-561.564460, -0.000002, 21.518669,  4.656883
-542.819176,659.817025,-561.431080, -0.000001, 23.830154,  4.571292
-704.130838,-330.665771,-561.298544,  0.000000, 26.151543,  4.485522
-859.460998,-1308.939788,-561.166792, -0.000001, 28.463322,  4.399574
-1008.117342,-2271.255236,-561.035750, -0.000000, 30.746339,  4.313450
-1149.450295,-3213.951368,-560.905334, -0.000002, 32.981952,  4.227149
-1282.855715,-4133.470256,-560.775452, -0.000001, 35.152178,  4.140675
-1407.777396,-5026.369939,-560.646002, -0.000000, 37.239832,  4.054027
-1523.709229,-5889.337182,-560.516868, -0.000001, 39.228659,  3.967205
-1630.197146,-6719.199493,-560.387928, -0.000001, 41.103452,  3.880212
-1726.840732,-7512.936633,-560.259055, -0.000002, 42.850159,  3.793048
-1813.294545,-8267.691328,-560.130109, -0.000001, 44.455992,  3.705713
-1889.269168,-8980.779354,-560.000944, -0.000000, 45.909504,  3.618209
-1954.531974,-9649.698845,-559.871408, -0.000002, 47.200671,  3.530536
-2008.907531,-10272.138792,-559.741341, -0.000001, 48.320948,  3.442695
-2052.277745,-10845.986783,-559.610579, -0.000000, 49.263325,  3.354686
-2084.581775,-11369.335872,-559.478953, -0.000002, 50.022357,  3.266510
-2105.815554,-11840.490632,-559.346285, -0.000001, 50.594188,  3.178168
-2116.031076,-12257.972252,-559.212400, -0.000000, 50.976562,  3.089658
-2115.335439,-12620.522888,-559.077112, -0.000001, 51.168815,  3.000983
-2103.889588,-12927.108968,-558.940239, -0.000001, 51.171857,  2.912142
-2081.906760,-13176.923685,-558.801588,  0.000000, 50.988148,  2.823135
-2049.650814,-13369.388582,-558.660975, -0.000001, 50.621648,  2.733963
-2007.434153,-13504.154180,-558.518208, -0.000001, 50.077766,  2.644625
-1955.615592,-13581.099750,-558.373094,  0.000000, 49.363295,  2.555121
-1894.597893,-13600.332162,-558.225444, -0.000001, 48.486335,  2.465451
-1824.825207,-13562.183876,-558.075064, -0.000001, 47.456205,  2.375615
-1746.780244,-13467.210029,-557.921769,  0.000000, 46.283353,  2.285614
-1660.981370,-13316.184666,-557.765369, -0.000001, 44.979251,  2.195445
-1567.979517,-13110.096246,-557.605676, -0.000001, 43.556285,  2.105110
-1468.354984,-12850.142139,-557.442511, -0.000000, 42.027642,  2.014607
-1362.714079,-12537.722536,-557.275693, -0.000002, 40.407185,  1.923937
-1251.685786,-12174.433521,-557.105045, -0.000001, 38.709335,  1.833098
-1135.918234,-11762.059376,-556.930397, -0.000000, 36.948941,  1.742091
-1016.075215,-11302.564322,-556.751578, -0.000002, 35.141150,  1.650915
-892.832585,-10798.083505,-556.568430, -0.000001, 33.301279,  1.559569
-766.874716,-10250.913439,-556.380795, -0.000000, 31.444686,  1.468053
-638.890922,-9663.501847,-556.188525, -0.000002, 29.586646,  1.376367
-509.571889,-9038.437002,-555.991470, -0.000001, 27.742220,  1.284508
-379.606195,-8378.436593,-555.789497, -0.000001, 25.926139,  1.192478
-249.676837,-7686.336157,-555.582475,  0.000000, 24.152685,  1.100276
-120.457850,-6965.077081,-555.370276, -0.000002, 22.435580,  1.007901
  7.389010,-6217.694427,-555.152790, -0.000001, 20.787880,  0.915352
133.217380,-5447.304240,-554.929903, -0.000000, 19.221883,  0.822629
256.399476,-4657.090839,-554.701519, -0.000002, 17.749027,  0.729732
376.328925,-3850.293864,-554.467542, -0.000001, 16.379820,  0.636661
492.423584,-3030.195096,-554.227892, -0.000001, 15.123758,  0.543414
604.128219,-2200.105385,-553.982490,  0.000000, 13.989267,  0.449991
710.916917,-1363.351395,-553.731272, -0.000002, 12.983648,  0.356393
812.295371,-523.262491,-553.474175, -0.000001, 12.113028,  0.262619
907.802994,316.842369,-553.211154, -0.000000, 11.382335,  0.168669
997.014789,1153.667553,-552.942165,  0.000000, 10.795266,  0.074542
1079.543090,1983.953512,-552.667179, -0.000001, 10.354282, -0.019761
1155.038966,2804.489331,-552.386169, -0.000001, 10.060601, -0.114241
1223.193528,3612.124953,-552.099120, -0.000000,  9.914206, -0.208897
1283.739005,4403.783104,-551.806030,  0.000000,  9.913865, -0.303730
1336.449499,5176.470867,-551.506894, -0.000001, 10.057158, -0.398739
1381.141646,5927.290789,-551.201730, -0.000001, 10.340512, -0.493924
1417.674961,6653.451606,-550.890551, -0.000000, 10.759253, -0.589285
1445.952018,7352.278410,-550.573386,  0.000001, 11.307653, -0.684821
1465.918364,8021.222324,-550.250268, -0.000001, 11.978997, -0.780533
1477.562251,8657.869641,-549.921240, -0.000001, 12.765653, -0.876420
1480.914184,9259.950260,-549.586353, -0.000000, 13.659146, -0.972482
1476.046133,9825.345673,-549.245661,  0.000000, 14.650241, -1.068717
1463.070723,10352.096086,-548.899228,  0.000001, 15.729030, -1.165126
1442.140088,10838.407121,-548.547124, -0.000001, 16.885025, -1.261708
1413.444594,11282.655547,-548.189426, -0.000000, 18.107251, -1.358463
1377.211433,11683.394541,-547.826214,  0.000000, 19.384342, -1.455390
1333.702923,12039.358085,-547.457577,  0.000001, 20.704647, -1.552487
1283.214802,12349.464605,-547.083610,  0.000001, 22.056322, -1.649756
1226.074243,12612.819980,-546.704406, -0.000000, 23.427434, -1.747194
1162.637815,12828.719717,-546.320072, -0.000000, 24.806066, -1.844802
1093.289325,12996.650338,-545.930714,  0.000000, 26.180403, -1.942578
1018.437492,13116.290046,-545.536440,  0.000001, 27.538841, -2.040522
938.513555,13187.508695,-545.137366,  0.000001, 28.870069, -2.138634
853.968852,13210.366874,-544.733606, -0.000000, 30.163167, -2.236911
765.272218,13185.114372,-544.325284, -0.000000, 31.407681, -2.335355
672.907408,13112.187830,-543.912517,  0.000000, 32.593713, -2.433964
577.370476,12992.207756,-543.495431,  0.000001, 33.711984, -2.532737
479.167104,12825.974747,-543.074152,  0.000001, 34.753912, -2.631674
378.809883,12614.465101,-542.648800,  0.000002, 35.711662, -2.730773
276.815672,12358.825731,-542.219510, -0.000000, 36.578210, -2.830036
173.702922,12060.368501,-541.786401,  0.000000, 37.347381, -2.929460
 69.989029,11720.563895,-541.349604,  0.000000, 38.013893, -3.029045
-33.812276,11341.034130,-540.909243,  0.000001, 38.573384, -3.128791
-137.193499,10923.545690,-540.465443,  0.000001, 39.022438, -3.228697
-239.655797,10470.001475,-540.018329,  0.000001, 39.358598, -3.328763
-340.711462,9982.432279,-539.568022,  0.000002, 39.580370, -3.428987
-439.886220,9462.987970,-539.114643, -0.000000, 39.687226, -3.529370
-536.721446,8913.928238,-538.658307,  0.000000, 39.679592, -3.629912
-630.776303,8337.612883,-538.199132,  0.000000, 39.558827, -3.730611
-721.629698,7736.491957,-537.737228,  0.000001, 39.327208, -3.831467
-808.882224,7113.095450,-537.272708,  0.000001, 38.987887, -3.932480
-892.157845,6470.022807,-536.805670,  0.000001, 38.544859, -4.033650
-971.105531,5809.932302,-536.336219,  0.000001, 38.002915, -4.134976
-1045.400686,5135.530101,-535.864454,  0.000002, 37.367593, -4.236459
-1114.746451,4449.559427,-535.390465, -0.000000, 36.645116, -4.338097
-1178.874868,3754.789462,-534.914340, -0.000000, 35.842336, -4.439890
-1237.547843,3054.004299,-534.436164,  0.000000, 34.966669, -4.541839
-1290.557996,2349.992000,-533.956015,  0.000000, 34.026020, -4.643943
-1337.729235,1645.533539,-533.473964,  0.000001, 33.028717, -4.746202
-1378.917361,943.392020,-532.990082,  0.000001, 31.983432, -4.848616
-1414.010287,246.301922,-532.504430,  0.000001, 30.899104, -4.951184
-1442.928231,-443.041414,-532.017066,  0.000001, 29.784868, -5.053908
-1465.623689,-1121.992040,-531.528039,  0.000001, 28.649969, -5.156785
-1482.081296,-1787.963475,-531.037397,  0.000002, 27.503687, -5.259816
-1492.317438,-2438.438430,-530.545177,  0.000002, 26.355261, -5.363002
-1496.379788,-3070.978117,-530.051413,  0.000002, 25.213815, -5.466341
-1494.346645,-3683.231379,-529.556136, -0.000000, 24.088279, -5.569834
-1486.326196,-4272.943174,-529.059364, -0.000000, 22.987322, -5.673481
-1472.455482,-4837.962807,-528.561117,  0.000000, 21.919284, -5.777282
-1452.899432,-5376.251629,-528.061399,  0.000000, 20.892112, -5.881236
-1427.849620,-5885.890184,-527.560220,  0.000000, 19.913299, -5.985342
-1397.522953,-6365.084984,-527.057577,  0.000000, 18.989830, -6.089602
-1362.160270,-6812.174553,-526.553462,  0.000001, 18.128130, -6.194015
-1322.024768,-7225.635100,-526.047859,  0.000001, 17.334022, -6.298580
-1277.400454,-7604.085454,-525.540756,  0.000001, 16.612686, -6.403297
-1228.590393,-7946.291511,-525.032127,  0.000001, 15.968625, -6.508167
-1175.914906,-8251.170031,-524.521941,  0.000001, 15.405638, -6.613188
-1119.709781,-8517.791826,-524.010165,  0.000001, 14.926800, -6.718360
-1060.324362,-8745.384304,-523.496760,  0.000001, 14.534444, -6.823684
-998.119585,-8933.333377,-522.981684,  0.000001, 14.230159, -6.929158
-933.466008,-9081.184807,-522.464886,  0.000001, 14.014781, -7.034782
-866.741836,-9188.644789,-521.946315,  0.000001, 13.888399, -7.140557
-798.330874,-9255.580042,-521.425912,  0.000001, 13.850366, -7.246480
-728.620558,-9282.017131,-520.903622,  0.000001, 13.899315, -7.352553
-657.999883,-9268.141287,-520.379374,  0.000001, 14.033180, -7.458774
-586.857502,-9214.294545,-519.853103,  0.000001, 14.249224, -7.565142
-515.579679,-9120.973268,-519.324740,  0.000001, 14.544069, -7.671658
-444.548430,-8988.825177,-518.794207,  0.000001, 14.913737, -7.778321
-374.139614,-8818.645659,-518.261430,  0.000001, 15.353689, -7.885129
-304.721097,-8611.373685,-517.726331,  0.000001, 15.858869, -7.992083
-236.651045,-8368.087058,-517.188824,  0.000001, 16.423757, -8.099181
-170.276197,-8089.997238,-516.648830,  0.000001, 17.042418, -8.206424
-105.930251,-7778.443646,-516.106260,  0.000001, 17.708560, -8.313810
-43.932391,-7434.887496,-515.561034,  0.000001, 18.415587, -8.421338
 15.414201,-7060.905206,-515.013058,  0.000001, 19.156662, -8.529008
 71.823612,-6658.181429,-514.462251,  0.000001, 19.924765, -8.636819
125.028458,-6228.501635,-513.908519,  0.000001, 20.712752, -8.744769
174.781008,-5773.744469,-513.351772,  0.000001, 21.513420, -8.852860
220.854148,-5295.873644,-512.791926,  0.000001, 22.319562, -8.961089
263.042289,-4796.929700,-512.228888,  0.000003, 23.124030, -9.069455
301.162104,-4279.021448,-511.662573,  0.000003, 23.919792, -9.177958
335.053217,-3744.317208,-511.092893,  0.000003, 24.699989, -9.286597
364.578659,-3195.035899,-510.519760,  0.000003, 25.457988, -9.395371
389.625305,-2633.437956,-509.943090,  0.000003, 26.187434, -9.504280
410.104115,-2061.816207,-509.362798,  0.000003, 26.882299, -9.613322
425.950289,-1482.486635,-508.778806,  0.000002, 27.536926, -9.722496
437.123242,-897.779140,-508.191030,  0.000002, 28.146070, -9.831801
443.606582,-310.028295,-507.599393,  0.000002, 28.704938, -9.941237
445.407777,278.435842,-507.003821,  0.000002, 29.209217,-10.050803
442.557876,865.296820,-506.404239,  0.000002, 29.655108,-10.160498
435.111063,1448.260785,-505.800578,  0.000004, 30.039346,-10.270321
423.144013,2025.065313,-505.192771,  0.000003, 30.359223,-10.380271
406.755270,2593.488095,-504.580754,  0.000003, 30.612597,-10.490347
386.064451,3151.355314,-503.964466,  0.000003, 30.797906,-10.600549
361.211373,3696.549866,-503.343847,  0.000003, 30.914170,-10.710875
332.355089,4227.019234,-502.718846,  0.000002, 30.960993,-10.821325
299.672824,4740.783111,-502.089412,  0.000002, 30.938556,-10.931898
263.358842,5235.940623,-501.455496,  0.000002, 30.847608,-11.042593
223.623260,5710.677246,-500.817055,  0.000004, 30.689450,-11.153409
180.690776,6163.271323,-500.174051,  0.000003, 30.465917,-11.264345
134.799336,6592.100122,-499.526448,  0.000003, 30.179357,-11.375401
 86.198771,6995.645519,-498.874215,  0.000003, 29.832605,-11.486576
 35.149354,7372.499218,-498.217325,  0.000002, 29.428945,-11.597869
-18.079599,7721.367505,-497.555752,  0.000002, 28.972087,-11.709279
-73.211259,8041.075505,-496.889480,  0.000001, 28.466122,-11.820805
-129.962756,8330.570922,-496.218494,  0.000003, 27.915487,-11.932447
-188.046686,8588.927355,-495.542778,  0.000003, 27.324923,-12.044205
-247.172649,8815.346997,-494.862330,  0.000003, 26.699429,-12.156076
-307.048707,9009.162891,-494.177144,  0.000002, 26.044220,-12.268060
-367.382919,9169.840574,-493.487220,  0.000002, 25.364678,-12.380157
-427.884837,9296.979299,-492.792564,  0.000004, 24.666312,-12.492365
-488.266887,9390.312603,-492.093186,  0.000003, 23.954698,-12.604685
-548.245845,9449.708472,-491.389093,  0.000003, 23.235446,-12.717115
-607.544190,9475.168833,-490.680305,  0.000002, 22.514145,-12.829655
-665.891445,9466.828643,-489.966841,  0.000002, 21.796317,-12.942303
-723.025433,9424.954449,-489.248722,  0.000003, 21.087377,-13.055058
-778.693525,9349.942352,-488.525975,  0.000003, 20.392587,-13.167921
-832.653768,9242.315579,-487.798629,  0.000002, 19.717015,-13.280891
-884.675988,9102.721517,-487.066716,  0.000002, 19.065497,-13.393965
-934.542790,8931.928326,-486.330271,  0.000004, 18.442599,-13.507145
-982.050499,8730.821037,-485.589332,  0.000003, 17.852584,-13.620428
-1027.010030,8500.397293,-484.843942,  0.000003, 17.299383,-13.733814
-1069.247610,8241.762598,-484.094141,  0.000002, 16.786563,-13.847302
-1108.605500,7956.125274,-483.339974,  0.000002, 16.317306,-13.960891
-1144.942603,7644.790952,-482.581491,  0.000003, 15.894391,-14.074581
-1178.134871,7309.156795,-481.818742,  0.000003, 15.520170,-14.188370
-1208.075830,6950.705352,-481.051776,  0.000002, 15.196561,-14.302257
-1234.676824,6570.998162,-480.280646,  0.000004, 14.925035,-14.416243
-1257.867216,6171.669055,-479.505406,  0.000003, 14.706612,-14.530324
-1277.594577,5754.417240,-478.726112,  0.000003, 14.541857,-14.644501
-1293.824665,5321.000214,-477.942823,  0.000002, 14.430886,-14.758773
-1306.541390,4873.226377,-477.155595,  0.000004, 14.373368,-14.873139
-1315.746636,4412.947697,-476.364482,  0.000003, 14.368533,-14.987597
-1321.460056,3942.052013,-475.569550,  0.000002, 14.415190,-15.102146
-1323.718695,3462.455475,-474.770853,  0.000004, 14.511740,-15.216786
-1322.576637,2976.094815,-473.968451,  0.000003, 14.656191,-15.331516
-1318.104441,2484.919560,-473.162402,  0.000003, 14.846188,-15.446333
-1310.388645,1990.884348,-472.352770,  0.000002, 15.079033,-15.561238
-1299.531057,1495.941177,-471.539607,  0.000004, 15.351711,-15.676229
-1285.648098,1002.031828,-470.722974,  0.000003, 15.660924,-15.791304
-1268.869982,511.080289,-469.902930,  0.000002, 16.003118,-15.906463
-1249.339894, 24.985335,-469.079527,  0.000004, 16.374519,-16.021705
-1227.213125,-454.386730,-468.252824,  0.000003, 16.771165,-16.137028
-1202.656088,-925.209181,-467.422874,  0.000002, 17.188943,-16.252430
-1175.845329,-1385.701725,-466.589727,  0.000004, 17.623625,-16.367912
-1146.966566,-1834.137189,-465.753439,  0.000003, 18.070903,-16.483471
-1116.213567,-2268.847869,-464.914055,  0.000005, 18.526427,-16.599106
-1083.787086,-2688.231710,-464.071626,  0.000004, 18.985843,-16.714816
-1049.893770,-3090.758090,-463.226195,  0.000003, 19.444826,-16.830600
-1014.745013,-3474.973333,-462.377811,  0.000005, 19.899116,-16.946456
-978.555852,-3839.505822,-461.526510,  0.000004, 20.344554,-17.062384
-941.543816,-4183.070879,-460.672335,  0.000003, 20.777111,-17.178380
-903.927799,-4504.475114,-459.815325,  0.000005, 21.192927,-17.294446
-865.926928,-4802.620508,-458.955511,  0.000004, 21.588331,-17.410578
-827.759460,-5076.508022,-458.092929,  0.000005, 21.959873,-17.526776
-789.641692,-5325.240829,-457.227609,  0.000004, 22.304352,-17.643038
-751.786865,-5548.027087,-456.359575,  0.000003, 22.618834,-17.759363
-714.404154,-5744.182335,-455.488856,  0.000005, 22.900673,-17.875750
-677.697676,-5913.131410,-454.615475,  0.000004, 23.147533,-17.992197
-641.865465,-6054.409910,-453.739449,  0.000005, 23.357399,-18.108702
-607.098618,-6167.665263,-452.860795,  0.000004, 23.528588,-18.225265
-573.580335,-6252.657292,-451.979529,  0.000003, 23.659761,-18.341884
-541.485191,-6309.258394,-451.095662,  0.000005, 23.749926,-18.458558
-510.978288,-6337.453235,-450.209206,  0.000004, 23.798448,-18.575285
-482.214582,-6337.337976,-449.320162,  0.000005, 23.805039,-18.692063
-455.338195,-6309.119195,-448.428536,  0.000004, 23.769762,-18.808892
-430.481879,-6253.112223,-447.534330,  0.000005, 23.693026,-18.925770
-407.766438,-6169.739160,-446.637542,  0.000004, 23.575572,-19.042696
-387.300281,-6059.526514,-445.738167,  0.000006, 23.418468,-19.159668
-369.179076,-5923.102317,-444.836200,  0.000005, 23.223093,-19.276684
-353.485369,-5761.192997,-443.931629,  0.000004, 22.991121,-19.393744
-340.288395,-5574.619840,-443.024446,  0.000005, 22.724501,-19.510846
-329.643826,-5364.295095,-442.114634,  0.000004, 22.425444,-19.627988
-321.593729,-5131.217703,-441.202180,  0.000005, 22.096390,-19.745169
-316.166533,-4876.468855,-440.287065,  0.000004, 21.739996,-19.862388
-313.376986,-4601.207122,-439.369266,  0.000005, 21.359103,-19.979643
-313.226341,-4306.663366,-438.448763,  0.000004, 20.956712,-20.096933
-315.702465,-3994.135393,-437.525530,  0.000005, 20.535959,-20.214256
-320.780097,-3664.982437,-436.599543,  0.000004, 20.100084,-20.331611
-328.421152,-3320.619365,-435.670775,  0.000005, 19.652407,-20.448997
-338.575076,-2962.510731,-434.739197,  0.000004, 19.196295,-20.566411
-351.179228,-2592.164676,-433.804774,  0.000005, 18.735135,-20.683853
-366.159408,-2211.126771,-432.867477,  0.000004, 18.272309,-20.801320
-383.430330,-1820.973582,-431.927275,  0.000005, 17.811160,-20.918813
-402.896220,-1423.306370,-430.984130,  0.000006, 17.354969,-21.036328
-424.451472,-1019.744604,-430.038008,  0.000005, 16.906933,-21.153865
-447.981202,-611.919435,-429.088871,  0.000006, 16.470128,-21.271421
-473.362091,-201.467310,-428.136686,  0.000005, 16.047498,-21.388996
-500.462996,209.976571,-427.181415,  0.000006, 15.641824,-21.506588
-529.145764,620.784608,-426.223015,  0.000004, 15.255709,-21.624196
-559.266035,1029.343146,-425.261454,  0.000005, 14.891555,-21.741817
-590.674033,1434.058684,-424.296690,  0.000004, 14.551549,-21.859451
-623.215365,1833.364027,-423.328686,  0.000005, 14.237646,-21.977095
-656.731941,2225.724200,-422.357401,  0.000006, 13.951557,-22.094749
-691.062737,2609.642250,-421.382799,  0.000005, 13.694740,-22.212410
-726.044684,2983.664861,-420.404840,  0.000006, 13.468389,-22.330077
-761.513520,3346.387745,-419.423489,  0.000004, 13.273429,-22.447748
-797.304621,3696.460788,-418.438708,  0.000005, 13.110515,-22.565422
-833.253876,4032.592977,-417.450458,  0.000006, 12.980024,-22.683096
-869.198463,4353.557033,-416.458702,  0.000005, 12.882063,-22.800770
-904.977665,4658.193771,-415.463409,  0.000006, 12.816468,-22.918442
-940.433683,4945.416194,-414.464543,  0.000004, 12.782810,-23.036110
-975.412369,5214.213205,-413.462073,  0.000005, 12.780403,-23.153772
-1009.763972,5463.653073,-412.455962,  0.000006, 12.808314,-23.271426
-1043.343837,5692.886484,-411.446183,  0.000005, 12.865370,-23.389071
-1076.013074,5901.149353,-410.432707,  0.000005, 12.950178,-23.506705
-1107.639145,6087.765143,-409.415503,  0.000006, 13.061135,-23.624327
-1138.096528,6252.146978,-408.394545,  0.000005, 13.196444,-23.741934
-1167.267201,6393.799233,-407.369810,  0.000006, 13.354136,-23.859524
-1195.041151,6512.318900,-406.341272,  0.000006, 13.532082,-23.977096
-1221.316854,6607.396472,-405.308911,  0.000005, 13.728019,-24.094649
-1246.001664,6678.816539,-404.272704,  0.000006, 13.939569,-24.212179
-1269.012133,6726.457915,-403.232636,  0.000006, 14.164257,-24.329686
-1290.274374,6750.293470,-402.188688,  0.000005, 14.399537,-24.447168
-1309.724275,6750.389617,-401.140847,  0.000006, 14.642813,-24.564622
-1327.307693,6726.905313,-400.089097,  0.000006, 14.891459,-24.682046
-1342.980620,6680.090840,-399.033428,  0.000005, 15.142844,-24.799440
-1356.709264,6610.286166,-397.973831,  0.000005, 15.394351,-24.916800
-1368.470084,6517.918970,-396.910299,  0.000006, 15.643401,-25.034126
-1378.249773,6403.502342,-395.842828,  0.000005, 15.887471,-25.151414
-1386.045204,6267.632198,-394.771411,  0.000005, 16.124118,-25.268664
-1391.863318,6110.984317,-393.696049,  0.000006, 16.350993,-25.385873
-1395.720955,5934.311166,-392.616740,  0.000007, 16.565864,-25.503039
-1397.644607,5738.438373,-391.533487,  0.000005, 16.766628,-25.620160
-1397.670230,5524.260996,-390.446298,  0.000006, 16.951330,-25.737234
-1395.842859,5292.739535,-389.355172,  0.000006, 17.118174,-25.854260
-1392.216328,5044.895682,-388.260121,  0.000007, 17.265542,-25.971235
-1386.852845,4781.807855,-387.161154,  0.000005, 17.391994,-26.088158
-1379.822596,4504.606644,-386.058279,  0.000006, 17.496287,-26.205025
-1371.203258,4214.469949,-384.951514,  0.000006, 17.577379,-26.321836
-1361.079529,3912.618050,-383.840869,  0.000007, 17.634431,-26.438588
-1349.542611,3600.308511,-382.726363,  0.000005, 17.666818,-26.555280
-1336.689626,3278.830999,-381.608013,  0.000006, 17.674128,-26.671908
-1322.623124,2949.502000,-380.485836,  0.000006, 17.656157,-26.788471
-1307.450418,2613.659452,-379.359854,  0.000007, 17.612919,-26.904968
-1291.283018,2272.657366,-378.230092,  0.000007, 17.544630,-27.021396
-1274.236011,1927.860383,-377.096566,  0.000005, 17.451714,-27.137752
-1256.427410,1580.638365,-375.959306,  0.000006, 17.334790,-27.254036
-1237.977554,1232.360975,-374.818336,  0.000006, 17.194666,-27.370244
-1219.008433,884.392339,-373.673680,  0.000007, 17.032333,-27.486375
-1199.643088,538.085667,-372.525369,  0.000007, 16.848945,-27.602427
-1180.004920,194.778097,-371.373428,  0.000006, 16.645819,-27.718397
-1160.217118,-144.214463,-370.217890,  0.000006, 16.424411,-27.834283
-1140.402008,-477.602379,-369.058781,  0.000006, 16.186311,-27.950084
-1120.680445,-804.127089,-367.896133,  0.000007, 15.933220,-28.065797
-1101.171236,-1122.565894,-366.729976,  0.000007, 15.666943,-28.181420
-1081.990565,-1431.736452,-365.560344,  0.000007, 15.389361,-28.296952
-1063.251386,-1730.501149,-364.387265,  0.000006, 15.102429,-28.412389
-1045.062994,-2017.771226,-363.210773,  0.000006, 14.808143,-28.527729
-1027.530398,-2292.510748,-362.030900,  0.000006, 14.508538,-28.642971
-1010.753975,-2553.740235,-360.847680,  0.000007, 14.205659,-28.758113
-994.828890,-2800.540139,-359.661145,  0.000007, 13.901550,-28.873152
-979.844794,-3032.054019,-358.471324,  0.000007, 13.598238,-28.988086
-965.885373,-3247.491471,-357.278252,  0.000008, 13.297709,-29.102913
-953.027998,-3446.130711,-356.081963,  0.000008, 13.001903,-29.217631
-941.343493,-3627.321007,-354.882485,  0.000006, 12.712690,-29.332237
-930.895767,-3790.484618,-353.679851,  0.000006, 12.431860,-29.446729
-921.741603,-3935.118658,-352.474091,  0.000006, 12.161108,-29.561106
-913.930524,-4060.796451,-351.265236,  0.000007, 11.902021,-29.675364
-907.504560,-4167.168728,-350.053318,  0.000007, 11.656069,-29.789503
-902.498149,-4253.964391,-348.838366,  0.000007, 11.424590,-29.903519
-898.938104,-4320.991086,-347.620404,  0.000007, 11.208785,-30.017410
-896.843516,-4368.135372,-346.399464,  0.000007, 11.009708,-30.131174
-896.225797,-4395.362592,-345.175574,  0.000008, 10.828262,-30.244809
-897.088713,-4402.716496,-343.948756,  0.000008, 10.665189,-30.358312
-899.428436,-4390.318448,-342.719038,  0.000008, 10.521071,-30.471681
-903.233714,-4358.366495,-341.486444,  0.000008, 10.396325,-30.584915
-908.485955,-4307.133981,-340.250998,  0.000008, 10.291201,-30.698010
-915.159474,-4236.967962,-339.012720,  0.000008, 10.205787,-30.810964
-923.221690,-4148.287311,-337.771633,  0.000008, 10.140006,-30.923775
-932.633394,-4041.580615,-336.527757,  0.000008, 10.093619,-31.036441
-943.348978,-3917.403699,-335.281111,  0.000009, 10.066233,-31.148959
-955.316841,-3776.377040,-334.031712,  0.000009, 10.057303,-31.261328
-968.479633,-3619.182833,-332.779578,  0.000009, 10.066141,-31.373543
-982.774687,-3446.561902,-331.524724,  0.000006, 10.091922,-31.485605
-998.134364,-3259.310347,-330.267163,  0.000006, 10.133695,-31.597509
-1014.486484,-3058.276093,-329.006911,  0.000006, 10.190388,-31.709254
-1031.754724,-2844.355136,-327.743978,  0.000008, 10.260826,-31.820837
-1049.859083,-2618.487740,-326.478375,  0.000008, 10.343735,-31.932255
-1068.716308,-2381.654405,-325.210109,  0.000008, 10.437758,-32.043507
-1088.240396,-2134.871745,-323.939195,  0.000008, 10.541467,-32.154590
-1108.342997,-1879.188261,-322.665634,  0.000008, 10.653374,-32.265502
-1128.933972,-1615.679994,-321.389434,  0.000008, 10.771946,-32.376239
-1149.921803,-1345.446109,-320.110601,  0.000008, 10.895618,-32.486801
-1171.214127,-1069.604409,-318.829138,  0.000008, 11.022805,-32.597183
-1192.718164,-789.286872,-317.545047,  0.000008, 11.151917,-32.707384
-1214.341215,-505.635038,-316.258331,  0.000008, 11.281372,-32.817402
-1235.991153,-219.795534,-314.968988,  0.000007, 11.409607,-32.927233
-1257.576844, 67.084523,-313.677024,  0.000007, 11.535095,-33.036876
-1279.008601,353.861974,-312.382430,  0.000007, 11.656349,-33.146328
-1300.198621,639.402082,-311.085209,  0.000007, 11.771946,-33.255586
-1321.061436,922.582959,-309.785355,  0.000007, 11.880524,-33.364648
-1341.514276,1202.299837,-308.482866,  0.000007, 11.980804,-33.473511
-1361.477441,1477.469282,-307.177736,  0.000006, 12.071592,-33.582174
-1380.874722,1747.033314,-305.869960,  0.000006, 12.151790,-33.690633
-1399.633672,2009.963376,-304.559533,  0.000008, 12.220404,-33.798885
-1417.685995,2265.264113,-303.246447,  0.000008, 12.276551,-33.906929
-1434.967774,2511.977099,-301.930696,  0.000008, 12.319464,-34.014762
-1451.419756,2749.184324,-300.612272,  0.000007, 12.348496,-34.122382
-1466.987631,2976.011450,-299.291164,  0.000007, 12.363125,-34.229785
-1481.622179,3191.631024,-297.967368,  0.000007, 12.362955,-34.336969
-1495.279506,3395.265321,-296.640872,  0.000007, 12.347721,-34.443932
-1507.921141,3586.189082,-295.311666,  0.000007, 12.317282,-34.550671
-1519.514229,3763.731958,-293.979743,  0.000008, 12.271629,-34.657184
-1530.031580,3927.280770,-292.645092,  0.000008, 12.210878,-34.763468
-1539.451743,4076.281503,-291.307705,  0.000008, 12.135267,-34.869521
-1547.759005,4210.241090,-289.967568,  0.000008, 12.045155,-34.975340
-1554.943488,4328.728854,-288.624674,  0.000007, 11.941016,-35.080922
-1561.001023,4431.377816,-287.279015,  0.000007, 11.823433,-35.186265
-1565.933138,4517.885651,-285.930579,  0.000007, 11.693091,-35.291366
-1569.747016,4588.015436,-284.579356,  0.000009, 11.550773,-35.396223
-1572.455299,4641.596111,-283.225337,  0.000008, 11.397350,-35.500833
-1574.076042,4678.522672,-281.868514,  0.000008, 11.233770,-35.605194
-1574.632461,4698.756136,-280.508880,  0.000008, 11.061053,-35.709303
-1574.152860,4702.323213,-279.146424,  0.000007, 10.880281,-35.813157
-1572.670303,4689.315751,-277.781139,  0.000009, 10.692586,-35.916755
-1570.222478,4659.889926,-276.413015,  0.000009, 10.499142,-36.020092
-1566.851388,4614.265133,-275.042052,  0.000008, 10.301155,-36.123168
-1562.603119,4552.722730,-273.668237,  0.000008, 10.099850,-36.225978
-1557.527529,4475.604463,-272.291568,  0.000008,  9.896463,-36.328521
-1551.677945,4383.310698,-270.912038,  0.000009,  9.692230,-36.430794
-1545.110900,4276.298496,-269.529644,  0.000009,  9.488376,-36.532795
-1537.885718,4155.079328,-268.144382,  0.000009,  9.286105,-36.634520
-1530.064264,4020.216757,-266.756251,  0.000008,  9.086596,-36.735968
-1521.710511,3872.323833,-265.365244,  0.000010,  8.890981,-36.837135
-1512.890287,3712.060343,-263.971366,  0.000009,  8.700352,-36.938019
-1503.670822,3540.129907,-262.574609,  0.000009,  8.515738,-37.038618
-1494.120471,3357.276894,-261.174982,  0.000008,  8.338110,-37.138928
-1484.308296,3164.283196,-259.772482,  0.000010,  8.168363,-37.238948
-1474.303731,2961.964952,-258.367108,  0.000010,  8.007317,-37.338675
-1464.176210,2751.169075,-256.958869,  0.000009,  7.855710,-37.438105
-1453.994855,2532.769674,-255.547767,  0.000008,  7.714190,-37.537237
-1443.828070,2307.664535,-254.133805,  0.000010,  7.583315,-37.636068
-1433.743263,2076.771319,-252.716991,  0.000010,  7.463547,-37.734595
-1423.806479,1841.023914,-251.297331,  0.000009,  7.355249,-37.832815
-1414.082075,1601.368618,-249.874833,  0.000011,  7.258687,-37.930727
-1404.632475,1358.760319,-248.449505,  0.000010,  7.174026,-38.028327
-1395.517804,1114.158749,-247.021357,  0.000009,  7.101332,-38.125613
-1386.795663,868.524639,-245.590399,  0.000011,  7.040571,-38.222582
-1378.520849,622.815967,-244.156645,  0.000010,  6.991611,-38.319231
-1370.745131,377.984200,-242.720103,  0.000009,  6.954227,-38.415559
-1363.517006,134.970643,-241.280789,  0.000011,  6.928103,-38.511561
-1356.881499,-105.297229,-239.838718,  0.000010,  6.912832,-38.607237
-1350.879998,-341.909236,-238.393903,  0.000009,  6.907928,-38.702582
-1345.550056,-573.976040,-236.946361,  0.000011,  6.912825,-38.797595
-1340.925301,-800.632395,-235.496106,  0.000010,  6.926885,-38.892273
-1337.035256,-1021.040402,-234.043158,  0.000009,  6.949406,-38.986613
-1333.905310,-1234.392617,-232.587534,  0.000011,  6.979626,-39.080613
-1331.556574,-1439.914998,-231.129253,  0.000010,  7.016731,-39.174269
-1330.005864,-1636.869686,-229.668335,  0.000009,  7.059862,-39.267580
-1329.265685,-1824.557660,-228.204801,  0.000010,  7.108126,-39.360543
-1329.344193,-2002.321166,-226.738669,  0.000010,  7.160599,-39.453155
-1330.245217,-2169.546089,-225.269961,  0.000009,  7.216336,-39.545413
-1331.968313,-2325.663957,-223.798703,  0.000010,  7.274382,-39.637315
-1334.508800,-2470.153920,-222.324912,  0.000009,  7.333776,-39.728859
-1337.857848,-2602.544386,-220.848615,  0.000011,  7.393560,-39.820041
-1342.002566,-2722.414616,-219.369833,  0.000010,  7.452788,-39.910859
-1346.926142,-2829.395933,-217.888592,  0.000009,  7.510534,-40.001311
-1352.607930,-2923.172823,-216.404915,  0.000010,  7.565896,-40.091393
-1359.023685,-3003.483834,-214.918824,  0.000009,  7.618006,-40.181104
-1366.145629,-3070.122149,-213.430350,  0.000010,  7.666039,-40.270441
-1373.942729,-3122.936078,-211.939513,  0.000009,  7.709213,-40.359400
-1382.380835,-3161.829235,-210.446340,  0.000008,  7.746799,-40.447980
-1391.422931,-3186.760534,-208.950857,  0.000010,  7.778125,-40.536178
-1401.029332,-3197.743933,-207.453090,  0.000009,  7.802583,-40.623991
-1411.157921,-3194.848023,-205.953063,  0.000010,  7.819629,-40.711417
-1421.764403,-3178.195352,-204.450804,  0.000009,  7.828790,-40.798453
-1432.802571,-3147.961593,-202.946336,  0.000010,  7.829665,-40.885097
-1444.224538,-3104.374458,-201.439687,  0.000009,  7.821927,-40.971346
-1455.980988,-3047.712409,-199.930883,  0.000010,  7.805328,-41.057197
-1468.021494,-2978.303270,-198.419949,  0.000009,  7.779695,-41.142647
-1480.294749,-2896.522556,-196.906912,  0.000008,  7.744935,-41.227696
-1492.748823,-2802.791669,-195.391794,  0.000009,  7.701029,-41.312338
-1505.331496,-2697.575891,-193.874624,  0.000008,  7.648038,-41.396574
-1517.990453,-2581.382347,-192.355425,  0.000009,  7.586096,-41.480399
-1530.673586,-2454.757583,-190.834221,  0.000008,  7.515409,-41.563811
-1543.329261,-2318.285257,-189.311038,  0.000010,  7.436254,-41.646807
-1555.906556,-2172.583557,-187.785902,  0.000008,  7.348974,-41.729386
-1568.355505,-2018.302484,-186.258832,  0.000010,  7.253977,-41.811544
-1580.627363,-1856.121137,-184.729855,  0.000009,  7.151725,-41.893280
-1592.674799,-1686.744847,-183.198995,  0.000010,  7.042737,-41.974590
-1604.452167,-1510.902165,-181.666271,  0.000009,  6.927581,-42.055472
-1615.915652,-1329.341915,-180.131708,  0.000010,  6.806867,-42.135924
-1627.023541,-1142.830061,-178.595328,  0.000009,  6.681243,-42.215943
-1637.736324,-952.146590,-177.057149,  0.000010,  6.551390,-42.295527
-1648.016934,-758.082384,-175.517198,  0.000009,  6.418013,-42.374672
-1657.830879,-561.436034,-173.975491,  0.000010,  6.281837,-42.453378
-1667.146374,-363.010615,-172.432046,  0.000009,  6.143602,-42.531641
-1675.934450,-163.610544,-170.886888,  0.000010,  6.004053,-42.609459
-1684.169140, 35.961599,-169.340032,  0.000011,  5.863938,-42.686829
-1691.827457,234.908191,-167.791499,  0.000010,  5.723995,-42.763750
-1698.889577,432.439672,-166.241304,  0.000011,  5.584956,-42.840218
-1705.338827,627.777606,-164.689468,  0.000010,  5.447533,-42.916231
-1711.161761,820.157588,-163.136004,  0.000011,  5.312416,-42.991787
-1716.348206,1008.832232,-161.580932,  0.000010,  5.180265,-43.066884
-1720.891186,1193.073906,-160.024264,  0.000011,  5.051708,-43.141518
-1724.787039,1372.177484,-158.466018,  0.000009,  4.927337,-43.215689
-1728.035293,1545.462949,-156.906207,  0.000010,  4.807696,-43.289393
-1730.638642,1712.277866,-155.344848,  0.000011,  4.693289,-43.362627
-1732.602957,1871.999771,-153.781953,  0.000010,  4.584565,-43.435391
-1733.937141,2024.038401,-152.217535,  0.000011,  4.481926,-43.507680
-1734.653082,2167.837731,-150.651607,  0.000010,  4.385714,-43.579494
-1734.765513,2302.877978,-149.084183,  0.000011,  4.296215,-43.650829
-1734.291992,2428.677341,-147.515274,  0.000010,  4.213657,-43.721684
-1733.252649,2544.793664,-145.944891,  0.000011,  4.138208,-43.792056
-1731.673284,2650.817031,-144.371061,  0.000011,  4.069857,-43.862018
-1729.581906,2746.380111,-142.791862,  0.000010,  4.008541,-43.931642
-1727.008500,2831.159310,-141.205429,  0.000011,  3.954136,-44.000992
-1723.984929,2904.875712,-139.609960,  0.000010,  3.906469,-44.070130
-1720.544701,2967.295867,-138.003720,  0.000011,  3.865313,-44.139109
-1716.722796,3018.232393,-136.385051,  0.000012,  3.830392,-44.207981
-1712.555457,3057.544406,-134.752372,  0.000010,  3.801388,-44.276788
-1708.079991,3085.137682,-133.104183,  0.000011,  3.777936,-44.345567
-1703.334590,3100.964798,-131.439077,  0.000012,  3.759635,-44.414349
-1698.358100,3105.024928,-129.755735,  0.000010,  3.746050,-44.483157
-1693.189827,3097.363511,-128.052930,  0.000011,  3.736712,-44.552009
-1687.869313,3078.071778,-126.329542,  0.000012,  3.731130,-44.620914
-1682.436173,3047.286106,-124.584544,  0.000011,  3.728789,-44.689874
-1676.929847,3005.187063,-122.817019,  0.000011,  3.729157,-44.758887
-1671.389447,2951.998516,-121.026153,  0.000010,  3.731690,-44.827941
-1665.853510,2887.986361,-119.211243,  0.000011,  3.735836,-44.897020
-1660.359873,2813.457228,-117.371691,  0.000012,  3.741041,-44.966099
-1654.945461,2728.756962,-115.507012,  0.000010,  3.746750,-45.035151
-1649.646087,2634.269038,-113.616839,  0.000011,  3.752418,-45.104139
-1644.496318,2530.412768,-111.700903,  0.000012,  3.757507,-45.173024
-1639.529326,2417.641387,-109.759059,  0.000010,  3.761498,-45.241759
-1634.776700,2296.440083,-107.791271,  0.000011,  3.763887,-45.310296
-1630.268343,2167.323824,-105.797609,  0.000011,  3.764195,-45.378581
-1626.032334,2030.835180,-103.778256,  0.000012,  3.761971,-45.446557
-1622.094768,1887.541954,-101.733508,  0.000011,  3.756791,-45.514164
-1618.479747,1738.034825,-99.663761,  0.000011,  3.748267,-45.581339
-1615.209169,1582.924830,-97.569519,  0.000012,  3.736046,-45.648018
-1612.302724,1422.840858,-95.451389,  0.000010,  3.719812,-45.714134
-1609.777831,1258.427039,-93.310078,  0.000011,  3.699291,-45.779622
-1607.649510,1090.340136,-91.146392,  0.000012,  3.674250,-45.844415
-1605.930394,919.246843,-88.961225,  0.000010,  3.644502,-45.908446
-1604.630678,745.821148,-86.755570,  0.000011,  3.609901,-45.971648
-1603.758139,570.741606,-84.530498,  0.000011,  3.570348,-46.033958
-1603.318037,394.688680,-82.287174,  0.000012,  3.525788,-46.095313
-1603.313232,218.342009,-80.026833,  0.000010,  3.476212,-46.155652
-1603.744136, 42.377815,-77.750788,  0.000011,  3.421655,-46.214917
-1604.608727,-132.533799,-75.460426,  0.000011,  3.362195,-46.273054
-1605.902668,-305.731343,-73.157190,  0.000010,  3.297955,-46.330011
-1607.619300,-476.564548,-70.842596,  0.000010,  3.229094,-46.385741
-1609.749702,-644.396805,-68.518204,  0.000011,  3.155814,-46.440200
-1612.282815,-808.607567,-66.185637,  0.000011,  3.078351,-46.493350
-1615.205496,-968.594651,-63.846551,  0.000010,  2.996976,-46.545155
-1618.502616,-1123.776509,-61.502656,  0.000010,  2.911993,-46.595587
-1622.157141,-1273.594344,-59.155684,  0.000011,  2.823731,-46.644621
-1626.150310,-1417.514092,-56.807403,  0.000011,  2.732547,-46.692238
-1630.461684,-1555.028437,-54.459606,  0.000010,  2.638818,-46.738422
-1635.069325,-1685.658535,-52.114101,  0.000010,  2.542943,-46.783165
-1639.949855,-1808.955728,-49.772716,  0.000011,  2.445333,-46.826462
-1645.078726,-1924.503049,-47.437278,  0.000011,  2.346411,-46.868316
-1650.430200,-2031.916682,-45.109622,  0.000009,  2.246607,-46.908731
-1655.977625,-2130.847241,-42.791577,  0.000010,  2.146359,-46.947719
-1661.693524,-2220.980813,-40.484970,  0.000011,  2.046100,-46.985294
-1667.549764,-2302.040033,-38.191604,  0.000011,  1.946264,-47.021478
-1673.517686,-2373.784884,-35.913271,  0.000012,  1.847277,-47.056295
-1679.568288,-2436.013342,-33.651735,  0.000010,  1.749555,-47.089773
-1685.672378,-2488.561942,-31.408735,  0.000010,  1.653501,-47.121945
-1691.800689,-2531.306137,-29.185975,  0.000011,  1.559499,-47.152845
-1697.924083,-2564.160494,-26.985116,  0.000011,  1.467917,-47.182513
-1704.013652,-2587.078788,-24.807782,  0.000012,  1.379100,-47.210991
-1710.040908,-2600.053873,-22.655547,  0.000010,  1.293367,-47.238323
-1715.977860,-2603.117451,-20.529935,  0.000010,  1.211011,-47.264554
-1721.797245,-2596.339686,-18.432410,  0.000011,  1.132296,-47.289733
-1727.472564,-2579.828657,-16.364385,  0.000011,  1.057455,-47.313908
-1732.978259,-2553.729615,-14.327202,  0.000012,  0.986687,-47.337131
-1738.289848,-2518.224247,-12.322141,  0.000010,  0.920161,-47.359451
-1743.383973,-2473.529645,-10.350408,  0.000011,  0.858007,-47.380921
-1748.238598,-2419.897188, -8.413142,  0.000011,  0.800326,-47.401590
-1752.832996,-2357.611389, -6.511405,  0.000011,  0.747179,-47.421509
-1757.147935,-2286.988496, -4.646178,  0.000012,  0.698591,-47.440729
-1761.165729,-2208.375033, -2.818367,  0.000010,  0.654555,-47.459297
-1764.870273,-2122.146233, -1.028789,  0.000010,  0.615030,-47.477261
-1768.247141,-2028.704395,  0.721816,  0.000011,  0.579937,-47.494666
-1771.283671,-1928.477064,  2.432795,  0.000011,  0.549168,-47.511555
-1773.968926,-1821.915230,  4.103585,  0.000012,  0.522581,-47.527969
-1776.293796,-1709.491374,  5.733708,  0.000010,  0.500009,-47.543948
-1778.251009,-1591.697474,  7.322773,  0.000010,  0.481250,-47.559527
-1779.835136,-1469.042910,  8.870482,  0.000011,  0.466082,-47.574741
-1781.042589,-1342.052414, 10.376624,  0.000011,  0.454257,-47.589617
-1781.871646,-1211.263817, 11.841078,  0.000011,  0.445506,-47.604186
-1782.322420,-1077.225962, 13.263810,  0.000012,  0.439540,-47.618469
-1782.396848,-940.496352, 14.644878,  0.000010,  0.436055,-47.632489
-1782.098623,-801.639013, 15.984426,  0.000010,  0.434734,-47.646263
-1781.433212,-661.222186, 17.282688,  0.000011,  0.435248,-47.659805
-1780.407770,-519.816066, 18.539978,  0.000011,  0.437259,-47.673128
-1779.031098,-377.990614, 19.756702,  0.000011,  0.440426,-47.686238
-1777.313559,-236.313237, 20.933344,  0.000012,  0.444404,-47.699141
-1775.267061,-95.346691, 22.070470,  0.000012,  0.448851,-47.711840
-1772.904901, 44.353193, 23.168732,  0.000010,  0.453425,-47.724332
-1770.241742,182.239554, 24.228849,  0.000011,  0.457792,-47.736616
-1767.293511,317.776623, 25.251626,  0.000011,  0.461626,-47.748684
-1764.077288,450.441726, 26.237929,  0.000011,  0.464614,-47.760528
-1760.611220,579.727216, 27.188708,  0.000012,  0.466452,-47.772137
-1756.914404,705.142421, 28.104970,  0.000012,  0.466857,-47.783499
-1753.006813,826.215360, 28.987788,  0.000012,  0.465560,-47.794598
-1748.909151,942.494492, 29.838302,  0.000010,  0.462314,-47.805419
-1744.642748,1053.550360, 30.657705,  0.000011,  0.456892,-47.815945
-1740.229437,1158.977082, 31.447245,  0.000011,  0.449090,-47.826156
-1735.691497,1258.393786, 32.208230,  0.000011,  0.438728,-47.836034
-1731.051449,1351.445895, 32.942006,  0.000011,  0.425651,-47.845557
-1726.332002,1437.806389, 33.649971,  0.000012,  0.409733,-47.854705
-1721.555900,1517.176811, 34.333562,  0.000012,  0.390870,-47.863458
-1716.745866,1589.288259, 34.994255,  0.000010,  0.368988,-47.871795
-1711.924408,1653.902281, 35.633562,  0.000010,  0.344039,-47.879695
-1707.113765,1710.811484, 36.253024,  0.000011,  0.316003,-47.887139
-1702.335788,1759.840218, 36.854205,  0.000011,  0.284886,-47.894106
-1697.611824,1800.844960, 37.438704,  0.000011,  0.250720,-47.900579
-1692.962652,1833.714707, 38.008128,  0.000011,  0.213563,-47.906540
-1688.408313,1858.371128, 38.564111,  0.000012,  0.173498,-47.911973
-1683.968092,1874.768652, 39.108290,  0.000012,  0.130630,-47.916864
-1679.660415,1882.894406, 39.642318,  0.000010,  0.085089,-47.921198
-1675.502717,1882.768058, 40.167853,  0.000010,  0.037021,-47.924964
-1671.511453,1874.441435, 40.686554,  0.000010, -0.013404,-47.928151
-1667.701940,1857.998143, 41.200079,  0.000011, -0.066002,-47.930752
-1664.088375,1833.552990, 41.710085,  0.000011, -0.120572,-47.932761
-1660.683698,1801.251312, 42.218218,  0.000011, -0.176902,-47.934171
-1657.499610,1761.268168, 42.726117,  0.000011, -0.234764,-47.934982
-1654.546513,1713.807451, 43.235407,  0.000012, -0.293926,-47.935191
-1651.833435,1659.100872, 43.747692,  0.000010, -0.354145,-47.934800
-1649.368053,1597.406821, 44.264568,  0.000010, -0.415176,-47.933811
-1647.156659,1529.009224, 44.787600,  0.000010, -0.476769,-47.932230
-1645.204125,1454.216172, 45.318333,  0.000010, -0.538675,-47.930063
-1643.513892,1373.358547, 45.858286,  0.000011, -0.600647,-47.927318
-1642.088029,1286.788609, 46.408947,  0.000011, -0.662442,-47.924004
-1640.927172,1194.878398, 46.971779,  0.000011, -0.723821,-47.920132
-1640.030559,1098.018117, 47.548210,  0.000011, -0.784555,-47.915716
-1639.396082,996.614539, 48.139631,  0.000012, -0.844425,-47.910768
-1639.020261,891.089201, 48.747405,  0.000010, -0.903223,-47.905303
-1638.898328,781.876704, 49.372851,  0.000010, -0.960753,-47.899336
-1639.024227,669.422877, 50.017253,  0.000010, -1.016837,-47.892885
-1639.390704,554.182904, 50.681855,  0.000010, -1.071312,-47.885964
-1639.989309,436.619562, 51.367865,  0.000010, -1.124031,-47.878593
-1640.810465,317.201237, 52.076444,  0.000011, -1.174868,-47.870788
-1641.843584,196.400125, 52.808716,  0.000011, -1.223715,-47.862566
-1643.077046, 74.690258, 53.565760,  0.000011, -1.270486,-47.853945
-1644.498322,-47.454299, 54.348619,  0.000011, -1.315115,-47.844942
