SHIH-XIAN-YANG/Robotic-vitual-system/data/Path/sinusoidal_ref.csv
time,J1,J2,J3,J4,J5,J6
0.000000, 1.000000, 1.000000, 0.000000, 1.000000, -1.000000, 0.000000
0.000500, 1.003616, 1.004520, -0.003616, 0.996339, -1.003616, -0.002260
0.001000, 1.028927, 1.036159, -0.028927, 0.970711, -1.028927, -0.018079
0.001500, 1.097622, 1.122027, -0.097622, 0.901158, -1.097622, -0.061014
0.002000, 1.231376, 1.289220, -0.231376, 0.765732, -1.231376, -0.144610
0.002500, 1.451846, 1.564808, -0.451846, 0.542506, -1.451846, -0.282404
0.003000, 1.780663, 1.975829, -0.780663, 0.209579, -1.780663, -0.487914
0.003500, 2.239425, 2.549281, -1.239425, -0.254918, -2.239425, -0.774641
0.004000, 2.849692, 3.312115, -1.849692, -0.872814, -2.849692, -1.156058
0.004500, 3.632981, 4.291226, -2.632981, -1.665893, -3.632981, -1.645613
0.005000, 4.610753, 5.513442, -3.610753, -2.655888, -4.610753, -2.256721
0.005500, 5.804417, 7.005521, -4.804417, -3.864472, -5.804417, -3.002761
0.006000, 7.235314, 8.794143, -6.235314, -5.313256, -7.235314, -3.897071
0.006500, 8.924716, 10.905895, -7.924716, -7.023775, -8.924716, -4.952948
0.007000, 10.893818, 13.367273, -9.893818, -9.017491, -10.893818, -6.183637
0.007500, 13.163733, 16.204667, -12.163733, -11.315780, -13.163733, -7.602333
0.008000, 15.755484, 19.444355, -14.755484, -13.939927, -15.755484, -9.222177
0.008500, 18.689997, 23.112497, -17.689997, -16.911122, -18.689997, -11.056248
0.009000, 21.988100, 27.235125, -20.988100, -20.250451, -21.988100, -13.117562
0.009500, 25.670509, 31.838136, -24.670509, -23.978890, -25.670509, -15.419068
0.010000, 29.757829, 36.947286, -28.757829, -28.117301, -29.757829, -17.973643
0.010500, 34.270542, 42.588178, -33.270542, -32.686424, -34.270542, -20.794089
0.011000, 39.229007, 48.786258, -38.229007, -37.706869, -39.229007, -23.893129
0.011500, 44.653447, 55.566808, -43.653447, -43.199115, -44.653447, -27.283404
0.012000, 50.563949, 62.954936, -49.563949, -49.183498, -50.563949, -30.977468
0.012500, 56.980454, 70.975567, -55.980454, -55.680210, -56.980454, -34.987784
0.013000, 63.922754, 79.653442, -62.922754, -62.709288, -63.922754, -39.326721
0.013500, 71.410483, 89.013104, -70.410483, -70.290614, -71.410483, -44.006552
0.014000, 79.463115, 99.078893, -78.463115, -78.443904, -79.463115, -49.039447
0.014500, 88.099952, 109.874940, -87.099952, -87.188701, -88.099952, -54.437470
0.015000, 97.340126, 121.425157, -96.340126, -96.544377, -97.340126, -60.212579
0.015500, 107.202587, 133.753233, -106.202587, -106.530119, -107.202587, -66.376617
0.016000, 117.706100, 146.882625, -116.706100, -117.164926, -117.706100, -72.941312
0.016500, 128.869239, 160.836549, -127.869239, -128.467605, -128.869239, -79.918274
0.017000, 140.710382, 175.637978, -139.710382, -140.456762, -140.710382, -87.318989
0.017500, 153.247704, 191.309630, -152.247704, -153.150800, -153.247704, -95.154815
0.018000, 166.499172, 207.873965, -165.499172, -166.567912, -166.499172, -103.436983
0.018500, 180.482540, 225.353175, -179.482540, -180.726072, -180.482540, -112.176588
0.019000, 195.215344, 243.769180, -194.215344, -195.643035, -195.215344, -121.384590
0.019500, 210.714894, 263.143617, -209.714894, -211.336330, -210.714894, -131.071809
0.020000, 226.998273, 283.497842, -225.998273, -227.823252, -226.998273, -141.248921
0.020500, 244.082329, 304.852911, -243.082329, -245.120858, -244.082329, -151.926456
0.021000, 261.983669, 327.229587, -260.983669, -263.245965, -261.983669, -163.114793
0.021500, 280.718657, 350.648321, -279.718657, -282.215140, -280.718657, -174.824161
0.022000, 300.303406, 375.129257, -299.303406, -302.044698, -300.303406, -187.064629
0.022500, 320.753774, 400.692218, -319.753774, -322.750696, -320.753774, -199.846109
0.023000, 342.085360, 427.356701, -341.085360, -344.348927, -342.085360, -213.178350
0.023500, 364.313499, 455.141874, -363.313499, -366.854918, -364.313499, -227.070937
0.024000, 387.453256, 484.066570, -386.453256, -390.283922, -387.453256, -241.533285
0.024500, 411.519421, 514.149276, -410.519421, -414.650914, -411.519421, -256.574638
0.025000, 436.526507, 545.408133, -435.526507, -439.970588, -436.526507, -272.204067
0.025500, 462.488742, 577.860928, -461.488742, -466.257352, -462.488742, -288.430464
0.026000, 489.420069, 611.525087, -488.420069, -493.525320, -489.420069, -305.262543
0.026500, 517.334138, 646.417672, -516.334138, -521.788314, -517.334138, -322.708836
0.027000, 546.244299, 682.555374, -545.244299, -551.059853, -546.244299, -340.777687
0.027500, 576.163608, 719.954510, -575.163608, -581.353153, -576.163608, -359.477255
0.028000, 607.104809, 758.631012, -606.104809, -612.681120, -607.104809, -378.815506
0.028500, 639.080344, 798.600429, -638.080344, -645.056348, -639.080344, -398.800215
0.029000, 672.102336, 839.877920, -671.102336, -678.491115, -672.102336, -419.438960
0.029500, 706.182594, 882.478243, -705.182594, -712.997377, -706.182594, -440.739121
0.030000, 741.332608, 926.415760, -740.332608, -748.586765, -741.332608, -462.707880
0.030500, 777.563540, 971.704425, -776.563540, -785.270584, -777.563540, -485.352212
0.031000, 814.886225, 1018.357782, -813.886225, -823.059803, -814.886225, -508.678891
0.031500, 853.311168, 1066.388960, -852.311168, -861.965058, -853.311168, -532.694480
0.032000, 892.848537, 1115.810671, -891.848537, -901.996644, -892.848537, -557.405336
0.032500, 933.508161, 1166.635202, -932.508161, -943.164513, -933.508161, -582.817601
0.033000, 975.299529, 1218.874411, -974.299529, -985.478273, -975.299529, -608.937206
0.033500, 1018.231782, 1272.539728, -1017.231782, -1028.947179, -1018.231782, -635.769864
0.034000, 1062.313715, 1327.642144, -1061.313715, -1073.580137, -1062.313715, -663.321072
0.034500, 1107.553771, 1384.192214, -1106.553771, -1119.385693, -1107.553771, -691.596107
0.035000, 1153.960037, 1442.200046, -1152.960037, -1166.372037, -1153.960037, -720.600023
0.035500, 1201.540245, 1501.675306, -1200.540245, -1214.546998, -1201.540245, -750.337653
0.036000, 1250.301765, 1562.627206, -1249.301765, -1263.918037, -1250.301765, -780.813603
0.036500, 1300.251606, 1625.064507, -1299.251606, -1314.492251, -1300.251606, -812.032253
0.037000, 1351.396410, 1688.995512, -1350.396410, -1366.276365, -1351.396410, -843.997756
0.037500, 1403.742452, 1754.428065, -1402.742452, -1419.276732, -1403.742452, -876.714032
0.038000, 1457.295637, 1821.369546, -1456.295637, -1473.499332, -1457.295637, -910.184773
0.038500, 1512.061497, 1889.826871, -1511.061497, -1528.949766, -1512.061497, -944.413436
0.039000, 1568.045190, 1959.806487, -1567.045190, -1585.633254, -1568.045190, -979.403243
0.039500, 1625.251495, 2031.314369, -1624.251495, -1643.554639, -1625.251495, -1015.157185
0.040000, 1683.684816, 2104.356020, -1682.684816, -1702.718376, -1683.684816, -1051.678010
0.040500, 1743.349172, 2178.936465, -1742.349172, -1763.128537, -1743.349172, -1088.968233
0.041000, 1804.248203, 2255.060254, -1803.248203, -1824.788806, -1804.248203, -1127.030127
0.041500, 1866.385163, 2332.731453, -1865.385163, -1887.702477, -1866.385163, -1165.865727
0.042000, 1929.762919, 2411.953649, -1928.762919, -1951.872456, -1929.762919, -1205.476825
0.042500, 1994.383954, 2492.729942, -1993.383954, -2017.301253, -1994.383954, -1245.864971
0.043000, 2060.250359, 2575.062949, -2059.250359, -2083.990989, -2060.250359, -1287.031474
0.043500, 2127.363837, 2658.954796, -2126.363837, -2151.943385, -2127.363837, -1328.977398
0.044000, 2195.725699, 2744.407123, -2194.725699, -2221.159770, -2195.725699, -1371.703562
0.044500, 2265.336863, 2831.421078, -2264.336863, -2291.641074, -2265.336863, -1415.210539
0.045000, 2336.197855, 2919.997319, -2335.197855, -2363.387828, -2336.197855, -1459.498659
0.045500, 2408.308806, 3010.136008, -2407.308806, -2436.400166, -2408.308806, -1504.568004
0.046000, 2481.669453, 3101.836817, -2480.669453, -2510.677822, -2481.669453, -1550.418408
0.046500, 2556.279137, 3195.098921, -2555.279137, -2586.220126, -2556.279137, -1597.049460
0.047000, 2632.136801, 3289.921001, -2631.136801, -2663.026011, -2632.136801, -1644.460501
0.047500, 2709.240994, 3386.301242, -2708.240994, -2741.094006, -2709.240994, -1692.650621
0.048000, 2787.589866, 3484.237332, -2786.589866, -2820.422239, -2787.589866, -1741.618666
0.048500, 2867.181171, 3583.726464, -2866.181171, -2901.008435, -2867.181171, -1791.363232
0.049000, 2948.012265, 3684.765331, -2947.012265, -2982.849918, -2948.012265, -1841.882666
0.049500, 3030.080107, 3787.350134, -3029.080107, -3065.943609, -3030.080107, -1893.175067
0.050000, 3113.381259, 3891.476573, -3112.381259, -3150.286024, -3113.381259, -1945.238287
0.050500, 3197.911883, 3997.139854, -3196.911883, -3235.873282, -3197.911883, -1998.069927
0.051000, 3283.667748, 4104.334685, -3282.667748, -3322.701095, -3283.667748, -2051.667342
0.051500, 3370.644224, 4213.055279, -3369.644224, -3410.764776, -3370.644224, -2106.027640
0.052000, 3458.836285, 4323.295356, -3457.836285, -3500.059238, -3458.836285, -2161.147678
0.052500, 3548.238510, 4435.048138, -3547.238510, -3590.578992, -3548.238510, -2217.024069
0.053000, 3638.845084, 4548.306355, -3637.845084, -3682.318148, -3638.845084, -2273.653178
0.053500, 3730.649797, 4663.062246, -3729.649797, -3775.270420, -3730.649797, -2331.031123
0.054000, 3823.646046, 4779.307557, -3822.646046, -3869.429121, -3823.646046, -2389.153779
0.054500, 3917.826836, 4897.033545, -3916.826836, -3964.787171, -3917.826836, -2448.016772
0.055000, 4013.184781, 5016.230976, -4012.184781, -4061.337090, -4013.184781, -2507.615488
0.055500, 4109.712105, 5136.890131, -4108.712105, -4159.071006, -4109.712105, -2567.945065
0.056000, 4207.400644, 5259.000806, -4206.400644, -4257.980653, -4207.400644, -2629.000403
0.056500, 4306.241848, 5382.552311, -4305.241848, -4358.057372, -4306.241848, -2690.776155
0.057000, 4406.226780, 5507.533475, -4405.226780, -4459.292115, -4406.226780, -2753.266738
0.057500, 4507.346120, 5633.932650, -4506.346120, -4561.675446, -4507.346120, -2816.466325
0.058000, 4609.590164, 5761.737705, -4608.590164, -4665.197541, -4609.590164, -2880.368853
0.058500, 4712.948832, 5890.936039, -4711.948832, -4769.848192, -4712.948832, -2944.968020
0.059000, 4817.411660, 6021.514576, -4816.411660, -4875.616806, -4817.411660, -3010.257288
0.059500, 4922.967814, 6153.459767, -4921.967814, -4982.492411, -4922.967814, -3076.229884
0.060000, 5029.606080, 6286.757601, -5028.606080, -5090.463656, -5029.606080, -3142.878800
0.060500, 5137.314877, 6421.393597, -5136.314877, -5199.518813, -5137.314877, -3210.196798
0.061000, 5246.082251, 6557.352814, -5245.082251, -5309.645780, -5246.082251, -3278.176407
0.061500, 5355.895884, 6694.619854, -5354.895884, -5420.832082, -5355.895884, -3346.809927
0.062000, 5466.743089, 6833.178862, -5465.743089, -5533.064878, -5466.743089, -3416.089431
0.062500, 5578.610822, 6973.013528, -5577.610822, -5646.330958, -5578.610822, -3486.006764
0.063000, 5691.485678, 7114.107097, -5690.485678, -5760.616749, -5691.485678, -3556.553549
0.063500, 5805.353894, 7256.442368, -5804.353894, -5875.908318, -5805.353894, -3627.721184
0.064000, 5920.201356, 7400.001695, -5919.201356, -5992.191373, -5920.201356, -3699.500848
0.064500, 6036.013599, 7544.766999, -6035.013599, -6109.451269, -6036.013599, -3771.883499
0.065000, 6152.775810, 7690.719762, -6151.775810, -6227.673007, -6152.775810, -3844.859881
0.065500, 6270.472832, 7837.841041, -6269.472832, -6346.841243, -6270.472832, -3918.420520
0.066000, 6389.089170, 7986.111462, -6388.089170, -6466.940285, -6389.089170, -3992.555731
0.066500, 6508.608988, 8135.511235, -6507.608988, -6587.954100, -6508.608988, -4067.255617
0.067000, 6629.016118, 8286.020147, -6628.016118, -6709.866319, -6629.016118, -4142.510074
0.067500, 6750.294062, 8437.617577, -6749.294062, -6832.660238, -6750.294062, -4218.308789
0.068000, 6872.425995, 8590.282494, -6871.425995, -6956.318820, -6872.425995, -4294.641247
0.068500, 6995.394770, 8743.993463, -6994.394770, -7080.824705, -6995.394770, -4371.496731
0.069000, 7119.182920, 8898.728650, -7118.182920, -7206.160207, -7119.182920, -4448.864325
0.069500, 7243.772664, 9054.465830, -7242.772664, -7332.307323, -7243.772664, -4526.732915
0.070000, 7369.145910, 9211.182388, -7368.145910, -7459.247734, -7369.145910, -4605.091194
0.070500, 7495.284259, 9368.855324, -7494.284259, -7586.962812, -7495.284259, -4683.927662
0.071000, 7622.169009, 9527.461261, -7621.169009, -7715.433622, -7622.169009, -4763.230631
0.071500, 7749.781161, 9686.976451, -7748.781161, -7844.640925, -7749.781161, -4842.988225
0.072000, 7878.101420, 9847.376775, -7877.101420, -7974.565188, -7878.101420, -4923.188387
0.072500, 8007.110204, 10008.637754, -8006.110204, -8105.186581, -8007.110204, -5003.818877
0.073000, 8136.787644, 10170.734555, -8135.787644, -8236.484989, -8136.787644, -5084.867277
0.073500, 8267.113592, 10333.641990, -8266.113592, -8368.440012, -8267.113592, -5166.320995
0.074000, 8398.067624, 10497.334530, -8397.067624, -8501.030969, -8398.067624, -5248.167265
0.074500, 8529.629045, 10661.786306, -8528.629045, -8634.236908, -8529.629045, -5330.393153
0.075000, 8661.776893, 10826.971117, -8660.776893, -8768.036605, -8661.776893, -5412.985558
0.075500, 8794.489948, 10992.862435, -8793.489948, -8902.408573, -8794.489948, -5495.931218
0.076000, 8927.746731, 11159.433413, -8926.746731, -9037.331065, -8927.746731, -5579.216707
0.076500, 9061.525511, 11326.656889, -9060.525511, -9172.782080, -9061.525511, -5662.828445
0.077000, 9195.804315, 11494.505394, -9194.804315, -9308.739369, -9195.804315, -5746.752697
0.077500, 9330.560927, 11662.951158, -9329.560927, -9445.180438, -9330.560927, -5830.975579
0.078000, 9465.772894, 11831.966118, -9464.772894, -9582.082555, -9465.772894, -5915.483059
0.078500, 9601.417536, 12001.521920, -9600.417536, -9719.422755, -9601.417536, -6000.260960
0.079000, 9737.471947, 12171.589933, -9736.471947, -9857.177846, -9737.471947, -6085.294967
0.079500, 9873.913000, 12342.141250, -9872.913000, -9995.324413, -9873.913000, -6170.570625
0.080000, 10010.717358, 12513.146697, -10009.717358, -10133.838825, -10010.717358, -6256.073349
0.080500, 10147.861472, 12684.576840, -10146.861472, -10272.697240, -10147.861472, -6341.788420
0.081000, 10285.321594, 12856.401992, -10284.321594, -10411.875614, -10285.321594, -6427.700996
0.081500, 10423.073776, 13028.592220, -10422.073776, -10551.349699, -10423.073776, -6513.796110
0.082000, 10561.093883, 13201.117353, -10560.093883, -10691.095056, -10561.093883, -6600.058677
0.082500, 10699.357590, 13373.946988, -10698.357590, -10831.087060, -10699.357590, -6686.473494
0.083000, 10837.840397, 13547.050497, -10836.840397, -10971.300902, -10837.840397, -6773.025248
0.083500, 10976.517629, 13720.397037, -10975.517629, -11111.711600, -10976.517629, -6859.698518
0.084000, 11115.364444, 13893.955554, -11114.364444, -11252.293999, -11115.364444, -6946.477777
0.084500, 11254.355837, 14067.694796, -11253.355837, -11393.022785, -11254.355837, -7033.347398
0.085000, 11393.466650, 14241.583313, -11392.466650, -11533.872483, -11393.466650, -7120.291656
0.085500, 11532.671576, 14415.589470, -11531.671576, -11674.817471, -11532.671576, -7207.294735
0.086000, 11671.945164, 14589.681455, -11670.945164, -11815.831979, -11671.945164, -7294.340728
0.086500, 11811.261827, 14763.827284, -11810.261827, -11956.890100, -11811.261827, -7381.413642
0.087000, 11950.595847, 14937.994809, -11949.595847, -12097.965795, -11950.595847, -7468.497404
0.087500, 12089.921382, 15112.151728, -12088.921382, -12239.032899, -12089.921382, -7555.575864
0.088000, 12229.212474, 15286.265592, -12228.212474, -12380.065130, -12229.212474, -7642.632796
0.088500, 12368.443051, 15460.303814, -12367.443051, -12521.036089, -12368.443051, -7729.651907
0.089000, 12507.586939, 15634.233673, -12506.586939, -12661.919275, -12507.586939, -7816.616837
0.089500, 12646.617862, 15808.022328, -12645.617862, -12802.688086, -12646.617862, -7903.511164
0.090000, 12785.509457, 15981.636821, -12784.509457, -12943.315825, -12785.509457, -7990.318410
0.090500, 12924.235270, 16155.044088, -12923.235270, -13083.775711, -12924.235270, -8077.022044
0.091000, 13062.768773, 16328.210966, -13061.768773, -13224.040883, -13062.768773, -8163.605483
0.091500, 13201.083363, 16501.104204, -13200.083363, -13364.084405, -13201.083363, -8250.052102
0.092000, 13339.152372, 16673.690466, -13338.152372, -13503.879277, -13339.152372, -8336.345233
0.092500, 13476.949074, 16845.936343, -13475.949074, -13643.398438, -13476.949074, -8422.468171
0.093000, 13614.446689, 17017.808361, -13613.446689, -13782.614773, -13614.446689, -8508.404181
0.093500, 13751.618392, 17189.272990, -13750.618392, -13921.501122, -13751.618392, -8594.136495
0.094000, 13888.437320, 17360.296651, -13887.437320, -14060.030287, -13888.437320, -8679.648325
0.094500, 14024.876577, 17530.845722, -14023.876577, -14198.175035, -14024.876577, -8764.922861
0.095000, 14160.909242, 17700.886552, -14159.909242, -14335.908107, -14160.909242, -8849.943276
0.095500, 14296.508373, 17870.385467, -14295.508373, -14473.202228, -14296.508373, -8934.692733
0.096000, 14431.647020, 18039.308775, -14430.647020, -14610.030108, -14431.647020, -9019.154388
0.096500, 14566.298225, 18207.622782, -14565.298225, -14746.364453, -14566.298225, -9103.311391
0.097000, 14700.435033, 18375.293791, -14699.435033, -14882.177971, -14700.435033, -9187.146896
0.097500, 14834.030496, 18542.288120, -14833.030496, -15017.443377, -14834.030496, -9270.644060
0.098000, 14967.057683, 18708.572104, -14966.057683, -15152.133404, -14967.057683, -9353.786052
0.098500, 15099.489684, 18874.112105, -15098.489684, -15286.220805, -15099.489684, -9436.556052
0.099000, 15231.299617, 19038.874522, -15230.299617, -15419.678363, -15231.299617, -9518.937261
0.099500, 15362.460639, 19202.825799, -15361.460639, -15552.478897, -15362.460639, -9600.912899
0.100000, 15492.945946, 19365.932432, -15491.945946, -15684.595270, -15492.945946, -9682.466216
0.100500, 15622.728785, 19528.160981, -15621.728785, -15816.000394, -15622.728785, -9763.580490
0.101000, 15751.782458, 19689.478073, -15750.782458, -15946.667239, -15751.782458, -9844.239036
0.101500, 15880.080332, 19849.850415, -15879.080332, -16076.568836, -15880.080332, -9924.425208
0.102000, 16007.595842, 20009.244803, -16006.595842, -16205.678290, -16007.595842, -10004.122401
0.102500, 16134.302501, 20167.628126, -16133.302501, -16333.968782, -16134.302501, -10083.314063
0.103000, 16260.173903, 20324.967379, -16259.173903, -16461.413577, -16260.173903, -10161.983690
0.103500, 16385.183735, 20481.229669, -16384.183735, -16587.986032, -16385.183735, -10240.114834
0.104000, 16509.305779, 20636.382223, -16508.305779, -16713.659601, -16509.305779, -10317.691112
0.104500, 16632.513920, 20790.392401, -16631.513920, -16838.407844, -16632.513920, -10394.696200
0.105000, 16754.782157, 20943.227696, -16753.782157, -16962.204434, -16754.782157, -10471.113848
0.105500, 16876.084601, 21094.855751, -16875.084601, -17085.023158, -16876.084601, -10546.927876
0.106000, 16996.395491, 21245.244363, -16995.395491, -17206.837934, -16996.395491, -10622.122182
0.106500, 17115.689193, 21394.361491, -17114.689193, -17327.622808, -17115.689193, -10696.680746
0.107000, 17233.940214, 21542.175267, -17232.940214, -17447.351966, -17233.940214, -10770.587633
0.107500, 17351.123200, 21688.654000, -17350.123200, -17565.999740, -17351.123200, -10843.827000
0.108000, 17467.212951, 21833.766189, -17466.212951, -17683.540613, -17467.212951, -10916.383095
0.108500, 17582.184423, 21977.480529, -17581.184423, -17799.949228, -17582.184423, -10988.240264
0.109000, 17696.012734, 22119.765917, -17695.012734, -17915.200393, -17696.012734, -11059.382959
0.109500, 17808.673173, 22260.591466, -17807.673173, -18029.269087, -17808.673173, -11129.795733
0.110000, 17920.141204, 22399.926505, -17919.141204, -18142.130469, -17920.141204, -11199.463253
0.110500, 18030.392476, 22537.740595, -18029.392476, -18253.759882, -18030.392476, -11268.370298
0.111000, 18139.402826, 22674.003533, -18138.402826, -18364.132861, -18139.402826, -11336.501766
0.111500, 18247.148286, 22808.685357, -18246.148286, -18473.225139, -18247.148286, -11403.842679
0.112000, 18353.605089, 22941.756362, -18352.605089, -18581.012653, -18353.605089, -11470.378181
0.112500, 18458.749679, 23073.187099, -18457.749679, -18687.471550, -18458.749679, -11536.093550
0.113000, 18562.558712, 23202.948390, -18561.558712, -18792.578196, -18562.558712, -11600.974195
0.113500, 18665.009065, 23331.011332, -18664.009065, -18896.309179, -18665.009065, -11665.005666
0.114000, 18766.077842, 23457.347303, -18765.077842, -18998.641315, -18766.077842, -11728.173651
0.114500, 18865.742379, 23581.927974, -18864.742379, -19099.551659, -18865.742379, -11790.463987
0.115000, 18963.980251, 23704.725314, -18962.980251, -19199.017504, -18963.980251, -11851.862657
0.115500, 19060.769278, 23825.711598, -19059.769278, -19297.016394, -19060.769278, -11912.355799
0.116000, 19156.087532, 23944.859414, -19155.087532, -19393.526126, -19156.087532, -11971.929707
0.116500, 19249.913338, 24062.141672, -19248.913338, -19488.524755, -19249.913338, -12030.570836
0.117000, 19342.225287, 24177.531608, -19341.225287, -19581.990603, -19342.225287, -12088.265804
0.117500, 19433.002236, 24291.002795, -19432.002236, -19673.902264, -19433.002236, -12145.001397
0.118000, 19522.223317, 24402.529146, -19521.223317, -19764.238609, -19522.223317, -12200.764573
0.118500, 19609.867941, 24512.084927, -19608.867941, -19852.978791, -19609.867941, -12255.542463
0.119000, 19695.915805, 24619.644756, -19694.915805, -19940.102253, -19695.915805, -12309.322378
0.119500, 19780.346895, 24725.183619, -19779.346895, -20025.588731, -19780.346895, -12362.091809
0.120000, 19863.141494, 24828.676868, -19862.141494, -20109.418263, -19863.141494, -12413.838434
0.120500, 19944.280187, 24930.100234, -19943.280187, -20191.571190, -19944.280187, -12464.550117
0.121000, 20023.743865, 25029.429832, -20022.743865, -20272.028164, -20023.743865, -12514.214916
0.121500, 20101.513732, 25126.642165, -20100.513732, -20350.770154, -20101.513732, -12562.821082
0.122000, 20177.571308, 25221.714135, -20176.571308, -20427.778449, -20177.571308, -12610.357067
0.122500, 20251.898436, 25314.623045, -20250.898436, -20503.034666, -20251.898436, -12656.811522
0.123000, 20324.477287, 25405.346608, -20323.477287, -20576.520753, -20324.477287, -12702.173304
0.123500, 20395.290363, 25493.862954, -20394.290363, -20648.218993, -20395.290363, -12746.431477
0.124000, 20464.320506, 25580.150632, -20463.320506, -20718.112012, -20464.320506, -12789.575316
0.124500, 20532.172080, 25664.965100, -20531.172080, -20786.811731, -20532.172080, -12831.982550
0.125000, 20596.977783, 25745.972229, -20595.977783, -20852.427505, -20596.977783, -12872.486114
0.125500, 20661.580212, 25826.725265, -20660.580212, -20917.837465, -20661.580212, -12912.862633
0.126000, 20725.978730, 25907.223412, -20724.978730, -20983.040964, -20725.978730, -12953.111706
0.126500, 20790.172700, 25987.465875, -20789.172700, -21048.037359, -20790.172700, -12993.232937
0.127000, 20854.161489, 26067.451862, -20853.161489, -21112.826008, -20854.161489, -13033.225931
0.127500, 20917.944467, 26147.180583, -20916.944467, -21177.406273, -20917.944467, -13073.090292
0.128000, 20981.521002, 26226.651253, -20980.521002, -21241.777515, -20981.521002, -13112.825626
0.128500, 21044.890468, 26305.863086, -21043.890468, -21305.939099, -21044.890468, -13152.431543
0.129000, 21108.052240, 26384.815300, -21107.052240, -21369.890393, -21108.052240, -13191.907650
0.129500, 21171.005693, 26463.507117, -21170.005693, -21433.630765, -21171.005693, -13231.253558
0.130000, 21233.750207, 26541.937759, -21232.750207, -21497.159585, -21233.750207, -13270.468880
0.130500, 21296.285163, 26620.106453, -21295.285163, -21560.476227, -21296.285163, -13309.553227
0.131000, 21358.609942, 26698.012428, -21357.609942, -21623.580067, -21358.609942, -13348.506214
0.131500, 21420.723931, 26775.654913, -21419.723931, -21686.470480, -21420.723931, -13387.327457
0.132000, 21482.626515, 26853.033144, -21481.626515, -21749.146847, -21482.626515, -13426.016572
0.132500, 21544.317085, 26930.146356, -21543.317085, -21811.608548, -21544.317085, -13464.573178
0.133000, 21605.795030, 27006.993788, -21604.795030, -21873.854968, -21605.795030, -13502.996894
0.133500, 21667.059745, 27083.574682, -21666.059745, -21935.885492, -21667.059745, -13541.287341
0.134000, 21728.110625, 27159.888281, -21727.110625, -21997.699508, -21728.110625, -13579.444141
0.134500, 21788.947067, 27235.933834, -21787.947067, -22059.296405, -21788.947067, -13617.466917
0.135000, 21849.568471, 27311.710589, -21848.568471, -22120.675577, -21849.568471, -13655.355294
0.135500, 21909.974238, 27387.217797, -21908.974238, -22181.836416, -21909.974238, -13693.108899
0.136000, 21970.163772, 27462.454716, -21969.163772, -22242.778320, -21970.163772, -13730.727358
0.136500, 22030.136480, 27537.420600, -22029.136480, -22303.500686, -22030.136480, -13768.210300
0.137000, 22089.891769, 27612.114711, -22088.891769, -22364.002916, -22089.891769, -13805.557356
0.137500, 22149.429050, 27686.536312, -22148.429050, -22424.284413, -22149.429050, -13842.768156
0.138000, 22208.747734, 27760.684668, -22207.747734, -22484.344581, -22208.747734, -13879.842334
0.138500, 22267.847237, 27834.559046, -22266.847237, -22544.182828, -22267.847237, -13916.779523
0.139000, 22326.726975, 27908.158719, -22325.726975, -22603.798562, -22326.726975, -13953.579360
0.139500, 22385.386367, 27981.482959, -22384.386367, -22663.191197, -22385.386367, -13990.241480
0.140000, 22443.824835, 28054.531044, -22442.824835, -22722.360145, -22443.824835, -14026.765522
0.140500, 22502.041801, 28127.302251, -22501.041801, -22781.304823, -22502.041801, -14063.151125
0.141000, 22560.036690, 28199.795863, -22559.036690, -22840.024649, -22560.036690, -14099.397931
0.141500, 22617.808931, 28272.011164, -22616.808931, -22898.519043, -22617.808931, -14135.505582
0.142000, 22675.357954, 28343.947442, -22674.357954, -22956.787428, -22675.357954, -14171.473721
0.142500, 22732.683189, 28415.603986, -22731.683189, -23014.829229, -22732.683189, -14207.301993
0.143000, 22789.784072, 28486.980090, -22788.784072, -23072.643873, -22789.784072, -14242.990045
0.143500, 22846.660039, 28558.075049, -22845.660039, -23130.230789, -22846.660039, -14278.537524
0.144000, 22903.310528, 28628.888160, -22902.310528, -23187.589410, -22903.310528, -14313.944080
0.144500, 22959.734981, 28699.418726, -22958.734981, -23244.719168, -22959.734981, -14349.209363
0.145000, 23015.932840, 28769.666051, -23014.932840, -23301.619501, -23015.932840, -14384.333025
0.145500, 23071.903552, 28839.629440, -23070.903552, -23358.289846, -23071.903552, -14419.314720
0.146000, 23127.646563, 28909.308203, -23126.646563, -23414.729645, -23127.646563, -14454.154102
0.146500, 23183.161323, 28978.701653, -23182.161323, -23470.938339, -23183.161323, -14488.850827
0.147000, 23238.447284, 29047.809105, -23237.447284, -23526.915375, -23238.447284, -14523.404553
0.147500, 23293.503902, 29116.629877, -23292.503902, -23582.660200, -23293.503902, -14557.814939
0.148000, 23348.330631, 29185.163289, -23347.330631, -23638.172264, -23348.330631, -14592.081645
0.148500, 23402.926932, 29253.408665, -23401.926932, -23693.451019, -23402.926932, -14626.204333
0.149000, 23457.292266, 29321.365332, -23456.292266, -23748.495919, -23457.292266, -14660.182666
0.149500, 23511.426095, 29389.032619, -23510.426095, -23803.306421, -23511.426095, -14694.016309
0.150000, 23565.327886, 29456.409857, -23564.327886, -23857.881985, -23565.327886, -14727.704929
0.150500, 23618.997106, 29523.496383, -23617.997106, -23912.222070, -23618.997106, -14761.248192
0.151000, 23672.433227, 29590.291533, -23671.433227, -23966.326142, -23672.433227, -14794.645767
0.151500, 23725.635720, 29656.794650, -23724.635720, -24020.193666, -23725.635720, -14827.897325
0.152000, 23778.604060, 29723.005075, -23777.604060, -24073.824111, -23778.604060, -14861.002538
0.152500, 23831.337725, 29788.922156, -23830.337725, -24127.216947, -23831.337725, -14893.961078
0.153000, 23883.836194, 29854.545243, -23882.836194, -24180.371647, -23883.836194, -14926.772621
0.153500, 23936.098949, 29919.873687, -23935.098949, -24233.287686, -23936.098949, -14959.436843
0.154000, 23988.125475, 29984.906843, -23987.125475, -24285.964543, -23988.125475, -14991.953422
0.154500, 24039.915257, 30049.644071, -24038.915257, -24338.401698, -24039.915257, -15024.322036
0.155000, 24091.467785, 30114.084731, -24090.467785, -24390.598632, -24091.467785, -15056.542365
0.155500, 24142.782549, 30178.228187, -24141.782549, -24442.554831, -24142.782549, -15088.614093
0.156000, 24193.859044, 30242.073805, -24192.859044, -24494.269782, -24193.859044, -15120.536903
0.156500, 24244.696766, 30305.620957, -24243.696766, -24545.742975, -24244.696766, -15152.310478
0.157000, 24295.295211, 30368.869014, -24294.295211, -24596.973901, -24295.295211, -15183.934507
0.157500, 24345.653882, 30431.817353, -24344.653882, -24647.962056, -24345.653882, -15215.408676
0.158000, 24395.772281, 30494.465351, -24394.772281, -24698.706934, -24395.772281, -15246.732676
0.158500, 24445.649913, 30556.812392, -24444.649913, -24749.208037, -24445.649913, -15277.906196
0.159000, 24495.286287, 30618.857859, -24494.286287, -24799.464865, -24495.286287, -15308.928929
0.159500, 24544.680912, 30680.601140, -24543.680912, -24849.476923, -24544.680912, -15339.800570
0.160000, 24593.833300, 30742.041625, -24592.833300, -24899.243717, -24593.833300, -15370.520813
0.160500, 24642.742968, 30803.178709, -24641.742968, -24948.764755, -24642.742968, -15401.089355
0.161000, 24691.409431, 30864.011788, -24690.409431, -24998.039549, -24691.409431, -15431.505894
0.161500, 24739.832210, 30924.540262, -24738.832210, -25047.067612, -24739.832210, -15461.770131
0.162000, 24788.010826, 30984.763533, -24787.010826, -25095.848462, -24788.010826, -15491.881766
0.162500, 24835.944805, 31044.681006, -24834.944805, -25144.381615, -24835.944805, -15521.840503
0.163000, 24883.633673, 31104.292091, -24882.633673, -25192.666594, -24883.633673, -15551.646046
0.163500, 24931.076959, 31163.596199, -24930.076959, -25240.702921, -24931.076959, -15581.298099
0.164000, 24978.274196, 31222.592745, -24977.274196, -25288.490123, -24978.274196, -15610.796372
0.164500, 25025.224917, 31281.281146, -25024.224917, -25336.027728, -25025.224917, -15640.140573
0.165000, 25071.928659, 31339.660823, -25070.928659, -25383.315267, -25071.928659, -15669.330412
0.165500, 25118.384961, 31397.731201, -25117.384961, -25430.352273, -25118.384961, -15698.365600
0.166000, 25164.593364, 31455.491705, -25163.593364, -25477.138281, -25164.593364, -15727.245853
0.166500, 25210.553413, 31512.941766, -25209.553413, -25523.672831, -25210.553413, -15755.970883
0.167000, 25256.264654, 31570.080818, -25255.264654, -25569.955462, -25256.264654, -15784.540409
0.167500, 25301.726636, 31626.908295, -25300.726636, -25615.985719, -25301.726636, -15812.954147
0.168000, 25346.938909, 31683.423637, -25345.938909, -25661.763146, -25346.938909, -15841.211818
0.168500, 25391.901029, 31739.626286, -25390.901029, -25707.287292, -25391.901029, -15869.313143
0.169000, 25436.612550, 31795.515688, -25435.612550, -25752.557707, -25436.612550, -15897.257844
0.169500, 25481.073033, 31851.091291, -25480.073033, -25797.573946, -25481.073033, -15925.045645
0.170000, 25525.282037, 31906.352546, -25524.282037, -25842.335563, -25525.282037, -15952.676273
0.170500, 25569.239127, 31961.298909, -25568.239127, -25886.842116, -25569.239127, -15980.149454
0.171000, 25612.943869, 32015.929836, -25611.943869, -25931.093167, -25612.943869, -16007.464918
0.171500, 25656.395831, 32070.244789, -25655.395831, -25975.088279, -25656.395831, -16034.622394
0.172000, 25699.594585, 32124.243231, -25698.594585, -26018.827017, -25699.594585, -16061.621615
0.172500, 25742.539704, 32177.924630, -25741.539704, -26062.308950, -25742.539704, -16088.462315
0.173000, 25785.230764, 32231.288455, -25784.230764, -26105.533649, -25785.230764, -16115.144228
0.173500, 25827.667345, 32284.334181, -25826.667345, -26148.500687, -25827.667345, -16141.667090
0.174000, 25869.849026, 32337.061283, -25868.849026, -26191.209639, -25869.849026, -16168.030642
0.174500, 25911.775393, 32389.469241, -25910.775393, -26233.660085, -25911.775393, -16194.234621
0.175000, 25953.446031, 32441.557538, -25952.446031, -26275.851606, -25953.446031, -16220.278769
0.175500, 25994.860528, 32493.325660, -25993.860528, -26317.783785, -25994.860528, -16246.162830
0.176000, 26036.018477, 32544.773096, -26035.018477, -26359.456208, -26036.018477, -16271.886548
0.176500, 26076.919470, 32595.899338, -26075.919470, -26400.868464, -26076.919470, -16297.449669
0.177000, 26117.563105, 32646.703882, -26116.563105, -26442.020144, -26117.563105, -16322.851941
0.177500, 26157.948980, 32697.186225, -26156.948980, -26482.910842, -26157.948980, -16348.093113
0.178000, 26198.076696, 32747.345870, -26197.076696, -26523.540155, -26198.076696, -16373.172935
0.178500, 26237.945858, 32797.182322, -26236.945858, -26563.907681, -26237.945858, -16398.091161
0.179000, 26277.556072, 32846.695090, -26276.556072, -26604.013023, -26277.556072, -16422.847545
0.179500, 26316.906946, 32895.883683, -26315.906946, -26643.855783, -26316.906946, -16447.441841
0.180000, 26355.998094, 32944.747617, -26354.998094, -26683.435570, -26355.998094, -16471.873808
0.180500, 26394.829128, 32993.286409, -26393.829128, -26722.751992, -26394.829128, -16496.143205
0.181000, 26433.399665, 33041.499582, -26432.399665, -26761.804661, -26433.399665, -16520.249791
0.181500, 26471.709326, 33089.386657, -26470.709326, -26800.593192, -26471.709326, -16544.193329
0.182000, 26509.757731, 33136.947164, -26508.757731, -26839.117203, -26509.757731, -16567.973582
0.182500, 26547.544506, 33184.180632, -26546.544506, -26877.376312, -26547.544506, -16591.590316
0.183000, 26585.069276, 33231.086596, -26584.069276, -26915.370142, -26585.069276, -16615.043298
0.183500, 26622.331673, 33277.664592, -26621.331673, -26953.098319, -26622.331673, -16638.332296
0.184000, 26659.331328, 33323.914160, -26658.331328, -26990.560470, -26659.331328, -16661.457080
0.184500, 26696.067876, 33369.834846, -26695.067876, -27027.756225, -26696.067876, -16684.417423
0.185000, 26732.540955, 33415.426194, -26731.540955, -27064.685217, -26732.540955, -16707.213097
0.185500, 26768.750204, 33460.687755, -26767.750204, -27101.347082, -26768.750204, -16729.843878
0.186000, 26804.695266, 33505.619083, -26803.695266, -27137.741457, -26804.695266, -16752.309541
0.186500, 26840.375787, 33550.219733, -26839.375787, -27173.867984, -26840.375787, -16774.609867
0.187000, 26875.791413, 33594.489267, -26874.791413, -27209.726306, -26875.791413, -16796.744633
0.187500, 26910.941797, 33638.427246, -26909.941797, -27245.316069, -26910.941797, -16818.713623
0.188000, 26945.826590, 33682.033237, -26944.826590, -27280.636922, -26945.826590, -16840.516619
0.188500, 26980.445448, 33725.306810, -26979.445448, -27315.688516, -26980.445448, -16862.153405
0.189000, 27014.798031, 33768.247538, -27013.798031, -27350.470506, -27014.798031, -16883.623769
0.189500, 27048.883998, 33810.854997, -27047.883998, -27384.982548, -27048.883998, -16904.927499
0.190000, 27082.703013, 33853.128766, -27081.703013, -27419.224301, -27082.703013, -16926.064383
0.190500, 27116.254743, 33895.068429, -27115.254743, -27453.195427, -27116.254743, -16947.034214
0.191000, 27149.538856, 33936.673570, -27148.538856, -27486.895592, -27149.538856, -16967.836785
0.191500, 27182.555024, 33977.943780, -27181.555024, -27520.324462, -27182.555024, -16988.471890
0.192000, 27215.302921, 34018.878652, -27214.302921, -27553.481708, -27215.302921, -17008.939326
0.192500, 27247.782224, 34059.477780, -27246.782224, -27586.367002, -27247.782224, -17029.238890
0.193000, 27279.992612, 34099.740766, -27278.992612, -27618.980020, -27279.992612, -17049.370383
0.193500, 27311.933768, 34139.667210, -27310.933768, -27651.320440, -27311.933768, -17069.333605
0.194000, 27343.605376, 34179.256720, -27342.605376, -27683.387943, -27343.605376, -17089.128360
0.194500, 27375.007123, 34218.508904, -27374.007123, -27715.182212, -27375.007123, -17108.754452
0.195000, 27406.138700, 34257.423375, -27405.138700, -27746.702933, -27406.138700, -17128.211687
0.195500, 27436.999799, 34295.999748, -27435.999799, -27777.949796, -27436.999799, -17147.499874
0.196000, 27467.590116, 34334.237645, -27466.590116, -27808.922492, -27467.590116, -17166.618822
0.196500, 27497.909348, 34372.136686, -27496.909348, -27839.620715, -27497.909348, -17185.568343
0.197000, 27527.957198, 34409.696497, -27526.957198, -27870.044163, -27527.957198, -17204.348249
0.197500, 27557.733367, 34446.916709, -27556.733367, -27900.192534, -27557.733367, -17222.958354
0.198000, 27587.237563, 34483.796953, -27586.237563, -27930.065532, -27587.237563, -17241.398477
0.198500, 27616.469493, 34520.336867, -27615.469493, -27959.662862, -27616.469493, -17259.668433
0.199000, 27645.428870, 34556.536088, -27644.428870, -27988.984231, -27645.428870, -17277.768044
0.199500, 27674.115408, 34592.394260, -27673.115408, -28018.029351, -27674.115408, -17295.697130
0.200000, 27702.528823, 34627.911029, -27701.528823, -28046.797933, -27702.528823, -17313.455514
0.200500, 27730.668835, 34663.086044, -27729.668835, -28075.289696, -27730.668835, -17331.043022
0.201000, 27758.535167, 34697.918959, -27757.535167, -28103.504357, -27758.535167, -17348.459479
0.201500, 27786.127543, 34732.409429, -27785.127543, -28131.441637, -27786.127543, -17365.704714
0.202000, 27813.445691, 34766.557114, -27812.445691, -28159.101262, -27813.445691, -17382.778557
0.202500, 27840.489341, 34800.361677, -27839.489341, -28186.482958, -27840.489341, -17399.680838
0.203000, 27867.258227, 34833.822784, -27866.258227, -28213.586455, -27867.258227, -17416.411392
0.203500, 27893.752084, 34866.940105, -27892.752084, -28240.411485, -27893.752084, -17432.970053
0.204000, 27919.970651, 34899.713314, -27918.970651, -28266.957784, -27919.970651, -17449.356657
0.204500, 27945.913669, 34932.142086, -27944.913669, -28293.225090, -27945.913669, -17465.571043
0.205000, 27971.580882, 34964.226103, -27970.580882, -28319.213143, -27971.580882, -17481.613051
0.205500, 27996.972037, 34995.965046, -27995.972037, -28344.921687, -27996.972037, -17497.482523
0.206000, 28022.086882, 35027.358603, -28021.086882, -28370.350468, -28022.086882, -17513.179301
0.206500, 28046.925171, 35058.406464, -28045.925171, -28395.499236, -28046.925171, -17528.703232
0.207000, 28071.486658, 35089.108322, -28070.486658, -28420.367741, -28071.486658, -17544.054161
0.207500, 28095.771100, 35119.463876, -28094.771100, -28444.955739, -28095.771100, -17559.231938
0.208000, 28119.778259, 35149.472824, -28118.778259, -28469.262987, -28119.778259, -17574.236412
0.208500, 28143.507896, 35179.134870, -28142.507896, -28493.289245, -28143.507896, -17589.067435
0.209000, 28166.959779, 35208.449723, -28165.959779, -28517.034276, -28166.959779, -17603.724862
0.209500, 28190.133674, 35237.417093, -28189.133674, -28540.497845, -28190.133674, -17618.208546
0.210000, 28213.029355, 35266.036693, -28212.029355, -28563.679721, -28213.029355, -17632.518347
0.210500, 28235.646593, 35294.308242, -28234.646593, -28586.579676, -28235.646593, -17646.654121
0.211000, 28257.985168, 35322.231460, -28256.985168, -28609.197482, -28257.985168, -17660.615730
0.211500, 28280.044857, 35349.806071, -28279.044857, -28631.532918, -28280.044857, -17674.403036
0.212000, 28301.825444, 35377.031805, -28300.825444, -28653.585762, -28301.825444, -17688.015902
0.212500, 28323.326713, 35403.908391, -28322.326713, -28675.355796, -28323.326713, -17701.454195
0.213000, 28344.548451, 35430.435564, -28343.548451, -28696.842807, -28344.548451, -17714.717782
0.213500, 28365.490451, 35456.613064, -28364.490451, -28718.046582, -28365.490451, -17727.806532
0.214000, 28386.152504, 35482.440631, -28385.152504, -28738.966911, -28386.152504, -17740.720315
0.214500, 28406.534408, 35507.918010, -28405.534408, -28759.603588, -28406.534408, -17753.459005
0.215000, 28426.635960, 35533.044950, -28425.635960, -28779.956410, -28426.635960, -17766.022475
0.215500, 28446.456963, 35557.821204, -28445.456963, -28800.025175, -28446.456963, -17778.410602
0.216000, 28465.997221, 35582.246526, -28464.997221, -28819.809686, -28465.997221, -17790.623263
0.216500, 28485.256540, 35606.320675, -28484.256540, -28839.309747, -28485.256540, -17802.660338
0.217000, 28504.234732, 35630.043414, -28503.234732, -28858.525166, -28504.234732, -17814.521707
0.217500, 28522.931608, 35653.414509, -28521.931608, -28877.455753, -28522.931608, -17826.207255
0.218000, 28541.346984, 35676.433729, -28540.346984, -28896.101321, -28541.346984, -17837.716865
0.218500, 28559.480678, 35699.100847, -28558.480678, -28914.461686, -28559.480678, -17849.050424
0.219000, 28577.332512, 35721.415640, -28576.332512, -28932.536668, -28577.332512, -17860.207820
0.219500, 28594.902308, 35743.377886, -28593.902308, -28950.326087, -28594.902308, -17871.188943
0.220000, 28612.189895, 35764.987369, -28611.189895, -28967.829769, -28612.189895, -17881.993684
0.220500, 28629.195101, 35786.243876, -28628.195101, -28985.047539, -28629.195101, -17892.621938
0.221000, 28645.917758, 35807.147197, -28644.917758, -29001.979230, -28645.917758, -17903.073598
0.221500, 28662.357701, 35827.697126, -28661.357701, -29018.624672, -28662.357701, -17913.348563
0.222000, 28678.514768, 35847.893460, -28677.514768, -29034.983702, -28678.514768, -17923.446730
0.222500, 28694.388800, 35867.735999, -28693.388800, -29051.056159, -28694.388800, -17933.368000
0.223000, 28709.979639, 35887.224549, -28708.979639, -29066.841884, -28709.979639, -17943.112274
0.223500, 28725.287132, 35906.358916, -28724.287132, -29082.340722, -28725.287132, -17952.679458
0.224000, 28740.311129, 35925.138911, -28739.311129, -29097.552518, -28740.311129, -17962.069455
0.224500, 28755.051480, 35943.564350, -28754.051480, -29112.477123, -28755.051480, -17971.282175
0.225000, 28769.508040, 35961.635050, -28768.508040, -29127.114390, -28769.508040, -17980.317525
0.225500, 28783.680666, 35979.350833, -28782.680666, -29141.464174, -28783.680666, -17989.175416
0.226000, 28797.569219, 35996.711524, -28796.569219, -29155.526334, -28797.569219, -17997.855762
0.226500, 28811.173562, 36013.716952, -28810.173562, -29169.300731, -28811.173562, -18006.358476
0.227000, 28824.493559, 36030.366949, -28823.493559, -29182.787229, -28824.493559, -18014.683475
0.227500, 28837.529081, 36046.661351, -28836.529081, -29195.985694, -28837.529081, -18022.830676
0.228000, 28850.279998, 36062.599997, -28849.279998, -29208.895998, -28850.279998, -18030.799998
0.228500, 28862.746183, 36078.182729, -28861.746183, -29221.518011, -28862.746183, -18038.591365
0.229000, 28874.927515, 36093.409394, -28873.927515, -29233.851609, -28874.927515, -18046.204697
0.229500, 28886.823874, 36108.279842, -28885.823874, -29245.896672, -28886.823874, -18053.639921
0.230000, 28898.435140, 36122.793925, -28897.435140, -29257.653079, -28898.435140, -18060.896963
0.230500, 28909.761201, 36136.951501, -28908.761201, -29269.120716, -28909.761201, -18067.975750
0.231000, 28920.801944, 36150.752429, -28919.801944, -29280.299468, -28920.801944, -18074.876215
0.231500, 28931.557260, 36164.196575, -28930.557260, -29291.189225, -28931.557260, -18081.598287
0.232000, 28942.027043, 36177.283803, -28941.027043, -29301.789881, -28942.027043, -18088.141902
0.232500, 28952.211190, 36190.013987, -28951.211190, -29312.101330, -28952.211190, -18094.506994
0.233000, 28962.109600, 36202.387000, -28961.109600, -29322.123470, -28962.109600, -18100.693500
0.233500, 28971.722175, 36214.402719, -28970.722175, -29331.856203, -28971.722175, -18106.701360
0.234000, 28981.048822, 36226.061027, -28980.048822, -29341.299432, -28981.048822, -18112.530514
0.234500, 28990.089447, 36237.361808, -28989.089447, -29350.453065, -28990.089447, -18118.180904
0.235000, 28998.843961, 36248.304951, -28997.843961, -29359.317011, -28998.843961, -18123.652476
0.235500, 29007.312278, 36258.890348, -29006.312278, -29367.891182, -29007.312278, -18128.945174
0.236000, 29015.494315, 36269.117894, -29014.494315, -29376.175494, -29015.494315, -18134.058947
0.236500, 29023.389990, 36278.987488, -29022.389990, -29384.169865, -29023.389990, -18138.993744
0.237000, 29030.999227, 36288.499033, -29029.999227, -29391.874217, -29030.999227, -18143.749517
0.237500, 29038.321948, 36297.652435, -29037.321948, -29399.288473, -29038.321948, -18148.326218
0.238000, 29045.358083, 36306.447604, -29044.358083, -29406.412559, -29045.358083, -18152.723802
0.238500, 29052.107562, 36314.884453, -29051.107562, -29413.246407, -29052.107562, -18156.942226
0.239000, 29058.570319, 36322.962898, -29057.570319, -29419.789948, -29058.570319, -18160.981449
0.239500, 29064.746288, 36330.682861, -29063.746288, -29426.043117, -29064.746288, -18164.841430
0.240000, 29070.635411, 36338.044263, -29069.635411, -29432.005853, -29070.635411, -18168.522132
0.240500, 29076.237628, 36345.047034, -29075.237628, -29437.678098, -29076.237628, -18172.023517
0.241000, 29081.552884, 36351.691104, -29080.552884, -29443.059795, -29081.552884, -18175.345552
0.241500, 29086.581126, 36357.976408, -29085.581126, -29448.150890, -29086.581126, -18178.488204
0.242000, 29091.322306, 36363.902882, -29090.322306, -29452.951335, -29091.322306, -18181.451441
0.242500, 29095.776376, 36369.470470, -29094.776376, -29457.461080, -29095.776376, -18184.235235
0.243000, 29099.943292, 36374.679115, -29098.943292, -29461.680083, -29099.943292, -18186.839558
0.243500, 29103.823013, 36379.528767, -29102.823013, -29465.608301, -29103.823013, -18189.264383
0.244000, 29107.415502, 36384.019377, -29106.415502, -29469.245696, -29107.415502, -18191.509689
0.244500, 29110.720722, 36388.150902, -29109.720722, -29472.592231, -29110.720722, -18193.575451
0.245000, 29113.738640, 36391.923300, -29112.738640, -29475.647873, -29113.738640, -18195.461650
0.245500, 29116.469228, 36395.336535, -29115.469228, -29478.412593, -29116.469228, -18197.168267
0.246000, 29118.912457, 36398.390572, -29117.912457, -29480.886363, -29118.912457, -18198.695286
0.246500, 29121.068305, 36401.085381, -29120.068305, -29483.069159, -29121.068305, -18200.042691
0.247000, 29122.936749, 36403.420936, -29121.936749, -29484.960959, -29122.936749, -18201.210468
0.247500, 29124.517772, 36405.397215, -29123.517772, -29486.561744, -29124.517772, -18202.198607
0.248000, 29125.811357, 36407.014196, -29124.811357, -29487.871499, -29125.811357, -18203.007098
0.248500, 29126.817492, 36408.271865, -29125.817492, -29488.890211, -29126.817492, -18203.635932
0.249000, 29127.536167, 36409.170209, -29126.536167, -29489.617869, -29127.536167, -18204.085104
0.249500, 29127.967375, 36409.709218, -29126.967375, -29490.054467, -29127.967375, -18204.354609
0.250000, 29128.111111, 36409.888889, -29127.111111, -29490.200000, -29128.111111, -18204.444444
0.250500, 29127.967375, 36409.709218, -29126.967375, -29490.054467, -29127.967375, -18204.354609
0.251000, 29127.536167, 36409.170209, -29126.536167, -29489.617869, -29127.536167, -18204.085104
0.251500, 29126.817492, 36408.271865, -29125.817492, -29488.890211, -29126.817492, -18203.635932
0.252000, 29125.811357, 36407.014196, -29124.811357, -29487.871499, -29125.811357, -18203.007098
0.252500, 29124.517772, 36405.397215, -29123.517772, -29486.561744, -29124.517772, -18202.198607
0.253000, 29122.936749, 36403.420936, -29121.936749, -29484.960959, -29122.936749, -18201.210468
0.253500, 29121.068305, 36401.085381, -29120.068305, -29483.069159, -29121.068305, -18200.042691
0.254000, 29118.912457, 36398.390572, -29117.912457, -29480.886363, -29118.912457, -18198.695286
0.254500, 29116.469228, 36395.336535, -29115.469228, -29478.412593, -29116.469228, -18197.168267
0.255000, 29113.738640, 36391.923300, -29112.738640, -29475.647873, -29113.738640, -18195.461650
0.255500, 29110.720722, 36388.150902, -29109.720722, -29472.592231, -29110.720722, -18193.575451
0.256000, 29107.415502, 36384.019377, -29106.415502, -29469.245696, -29107.415502, -18191.509689
0.256500, 29103.823013, 36379.528767, -29102.823013, -29465.608301, -29103.823013, -18189.264383
0.257000, 29099.943292, 36374.679115, -29098.943292, -29461.680083, -29099.943292, -18186.839558
0.257500, 29095.776376, 36369.470470, -29094.776376, -29457.461080, -29095.776376, -18184.235235
0.258000, 29091.322306, 36363.902882, -29090.322306, -29452.951335, -29091.322306, -18181.451441
0.258500, 29086.581126, 36357.976408, -29085.581126, -29448.150890, -29086.581126, -18178.488204
0.259000, 29081.552884, 36351.691104, -29080.552884, -29443.059795, -29081.552884, -18175.345552
0.259500, 29076.237628, 36345.047034, -29075.237628, -29437.678098, -29076.237628, -18172.023517
0.260000, 29070.635411, 36338.044263, -29069.635411, -29432.005853, -29070.635411, -18168.522132
0.260500, 29064.746288, 36330.682861, -29063.746288, -29426.043117, -29064.746288, -18164.841430
0.261000, 29058.570319, 36322.962898, -29057.570319, -29419.789948, -29058.570319, -18160.981449
0.261500, 29052.107562, 36314.884453, -29051.107562, -29413.246407, -29052.107562, -18156.942226
0.262000, 29045.358083, 36306.447604, -29044.358083, -29406.412559, -29045.358083, -18152.723802
0.262500, 29038.321948, 36297.652435, -29037.321948, -29399.288473, -29038.321948, -18148.326218
0.263000, 29030.999227, 36288.499033, -29029.999227, -29391.874217, -29030.999227, -18143.749517
0.263500, 29023.389990, 36278.987488, -29022.389990, -29384.169865, -29023.389990, -18138.993744
0.264000, 29015.494315, 36269.117894, -29014.494315, -29376.175494, -29015.494315, -18134.058947
0.264500, 29007.312278, 36258.890348, -29006.312278, -29367.891182, -29007.312278, -18128.945174
0.265000, 28998.843961, 36248.304951, -28997.843961, -29359.317011, -28998.843961, -18123.652476
0.265500, 28990.089447, 36237.361808, -28989.089447, -29350.453065, -28990.089447, -18118.180904
0.266000, 28981.048822, 36226.061027, -28980.048822, -29341.299432, -28981.048822, -18112.530514
0.266500, 28971.722175, 36214.402719, -28970.722175, -29331.856203, -28971.722175, -18106.701360
0.267000, 28962.109600, 36202.387000, -28961.109600, -29322.123470, -28962.109600, -18100.693500
0.267500, 28952.211190, 36190.013987, -28951.211190, -29312.101330, -28952.211190, -18094.506994
0.268000, 28942.027043, 36177.283803, -28941.027043, -29301.789881, -28942.027043, -18088.141902
0.268500, 28931.557260, 36164.196575, -28930.557260, -29291.189225, -28931.557260, -18081.598287
0.269000, 28920.801944, 36150.752429, -28919.801944, -29280.299468, -28920.801944, -18074.876215
0.269500, 28909.761201, 36136.951501, -28908.761201, -29269.120716, -28909.761201, -18067.975750
0.270000, 28898.435140, 36122.793925, -28897.435140, -29257.653079, -28898.435140, -18060.896963
0.270500, 28886.823874, 36108.279842, -28885.823874, -29245.896672, -28886.823874, -18053.639921
0.271000, 28874.927515, 36093.409394, -28873.927515, -29233.851609, -28874.927515, -18046.204697
0.271500, 28862.746183, 36078.182729, -28861.746183, -29221.518011, -28862.746183, -18038.591365
0.272000, 28850.279998, 36062.599997, -28849.279998, -29208.895998, -28850.279998, -18030.799998
0.272500, 28837.529081, 36046.661351, -28836.529081, -29195.985694, -28837.529081, -18022.830676
0.273000, 28824.493559, 36030.366949, -28823.493559, -29182.787229, -28824.493559, -18014.683475
0.273500, 28811.173562, 36013.716952, -28810.173562, -29169.300731, -28811.173562, -18006.358476
0.274000, 28797.569219, 35996.711524, -28796.569219, -29155.526334, -28797.569219, -17997.855762
0.274500, 28783.680666, 35979.350833, -28782.680666, -29141.464174, -28783.680666, -17989.175416
0.275000, 28769.508040, 35961.635050, -28768.508040, -29127.114390, -28769.508040, -17980.317525
0.275500, 28755.051480, 35943.564350, -28754.051480, -29112.477123, -28755.051480, -17971.282175
0.276000, 28740.311129, 35925.138911, -28739.311129, -29097.552518, -28740.311129, -17962.069455
0.276500, 28725.287132, 35906.358916, -28724.287132, -29082.340722, -28725.287132, -17952.679458
0.277000, 28709.979639, 35887.224549, -28708.979639, -29066.841884, -28709.979639, -17943.112274
0.277500, 28694.388800, 35867.735999, -28693.388800, -29051.056159, -28694.388800, -17933.368000
0.278000, 28678.514768, 35847.893460, -28677.514768, -29034.983702, -28678.514768, -17923.446730
0.278500, 28662.357701, 35827.697126, -28661.357701, -29018.624672, -28662.357701, -17913.348563
0.279000, 28645.917758, 35807.147197, -28644.917758, -29001.979230, -28645.917758, -17903.073598
0.279500, 28629.195101, 35786.243876, -28628.195101, -28985.047539, -28629.195101, -17892.621938
0.280000, 28612.189895, 35764.987369, -28611.189895, -28967.829769, -28612.189895, -17881.993684
0.280500, 28594.902308, 35743.377886, -28593.902308, -28950.326087, -28594.902308, -17871.188943
0.281000, 28577.332512, 35721.415640, -28576.332512, -28932.536668, -28577.332512, -17860.207820
0.281500, 28559.480678, 35699.100847, -28558.480678, -28914.461686, -28559.480678, -17849.050424
0.282000, 28541.346984, 35676.433729, -28540.346984, -28896.101321, -28541.346984, -17837.716865
0.282500, 28522.931608, 35653.414509, -28521.931608, -28877.455753, -28522.931608, -17826.207255
0.283000, 28504.234732, 35630.043414, -28503.234732, -28858.525166, -28504.234732, -17814.521707
0.283500, 28485.256540, 35606.320675, -28484.256540, -28839.309747, -28485.256540, -17802.660338
0.284000, 28465.997221, 35582.246526, -28464.997221, -28819.809686, -28465.997221, -17790.623263
0.284500, 28446.456963, 35557.821204, -28445.456963, -28800.025175, -28446.456963, -17778.410602
0.285000, 28426.635960, 35533.044950, -28425.635960, -28779.956410, -28426.635960, -17766.022475
0.285500, 28406.534408, 35507.918010, -28405.534408, -28759.603588, -28406.534408, -17753.459005
0.286000, 28386.152504, 35482.440631, -28385.152504, -28738.966911, -28386.152504, -17740.720315
0.286500, 28365.490451, 35456.613064, -28364.490451, -28718.046582, -28365.490451, -17727.806532
0.287000, 28344.548451, 35430.435564, -28343.548451, -28696.842807, -28344.548451, -17714.717782
0.287500, 28323.326713, 35403.908391, -28322.326713, -28675.355796, -28323.326713, -17701.454195
0.288000, 28301.825444, 35377.031805, -28300.825444, -28653.585762, -28301.825444, -17688.015902
0.288500, 28280.044857, 35349.806071, -28279.044857, -28631.532918, -28280.044857, -17674.403036
0.289000, 28257.985168, 35322.231460, -28256.985168, -28609.197482, -28257.985168, -17660.615730
0.289500, 28235.646593, 35294.308242, -28234.646593, -28586.579676, -28235.646593, -17646.654121
0.290000, 28213.029355, 35266.036693, -28212.029355, -28563.679721, -28213.029355, -17632.518347
0.290500, 28190.133674, 35237.417093, -28189.133674, -28540.497845, -28190.133674, -17618.208546
0.291000, 28166.959779, 35208.449723, -28165.959779, -28517.034276, -28166.959779, -17603.724862
0.291500, 28143.507896, 35179.134870, -28142.507896, -28493.289245, -28143.507896, -17589.067435
0.292000, 28119.778259, 35149.472824, -28118.778259, -28469.262987, -28119.778259, -17574.236412
0.292500, 28095.771100, 35119.463876, -28094.771100, -28444.955739, -28095.771100, -17559.231938
0.293000, 28071.486658, 35089.108322, -28070.486658, -28420.367741, -28071.486658, -17544.054161
0.293500, 28046.925171, 35058.406464, -28045.925171, -28395.499236, -28046.925171, -17528.703232
0.294000, 28022.086882, 35027.358603, -28021.086882, -28370.350468, -28022.086882, -17513.179301
0.294500, 27996.972037, 34995.965046, -27995.972037, -28344.921687, -27996.972037, -17497.482523
0.295000, 27971.580882, 34964.226103, -27970.580882, -28319.213143, -27971.580882, -17481.613051
0.295500, 27945.913669, 34932.142086, -27944.913669, -28293.225090, -27945.913669, -17465.571043
0.296000, 27919.970651, 34899.713314, -27918.970651, -28266.957784, -27919.970651, -17449.356657
0.296500, 27893.752084, 34866.940105, -27892.752084, -28240.411485, -27893.752084, -17432.970053
0.297000, 27867.258227, 34833.822784, -27866.258227, -28213.586455, -27867.258227, -17416.411392
0.297500, 27840.489341, 34800.361677, -27839.489341, -28186.482958, -27840.489341, -17399.680838
0.298000, 27813.445691, 34766.557114, -27812.445691, -28159.101262, -27813.445691, -17382.778557
0.298500, 27786.127543, 34732.409429, -27785.127543, -28131.441637, -27786.127543, -17365.704714
0.299000, 27758.535167, 34697.918959, -27757.535167, -28103.504357, -27758.535167, -17348.459479
0.299500, 27730.668835, 34663.086044, -27729.668835, -28075.289696, -27730.668835, -17331.043022
0.300000, 27702.528823, 34627.911029, -27701.528823, -28046.797933, -27702.528823, -17313.455514
0.300500, 27674.115408, 34592.394260, -27673.115408, -28018.029351, -27674.115408, -17295.697130
0.301000, 27645.428870, 34556.536088, -27644.428870, -27988.984231, -27645.428870, -17277.768044
0.301500, 27616.469493, 34520.336867, -27615.469493, -27959.662862, -27616.469493, -17259.668433
0.302000, 27587.237563, 34483.796953, -27586.237563, -27930.065532, -27587.237563, -17241.398477
0.302500, 27557.733367, 34446.916709, -27556.733367, -27900.192534, -27557.733367, -17222.958354
0.303000, 27527.957198, 34409.696497, -27526.957198, -27870.044163, -27527.957198, -17204.348249
0.303500, 27497.909348, 34372.136686, -27496.909348, -27839.620715, -27497.909348, -17185.568343
0.304000, 27467.590116, 34334.237645, -27466.590116, -27808.922492, -27467.590116, -17166.618822
0.304500, 27436.999799, 34295.999748, -27435.999799, -27777.949796, -27436.999799, -17147.499874
0.305000, 27406.138700, 34257.423375, -27405.138700, -27746.702933, -27406.138700, -17128.211687
0.305500, 27375.007123, 34218.508904, -27374.007123, -27715.182212, -27375.007123, -17108.754452
0.306000, 27343.605376, 34179.256720, -27342.605376, -27683.387943, -27343.605376, -17089.128360
0.306500, 27311.933768, 34139.667210, -27310.933768, -27651.320440, -27311.933768, -17069.333605
0.307000, 27279.992612, 34099.740766, -27278.992612, -27618.980020, -27279.992612, -17049.370383
0.307500, 27247.782224, 34059.477780, -27246.782224, -27586.367002, -27247.782224, -17029.238890
0.308000, 27215.302921, 34018.878652, -27214.302921, -27553.481708, -27215.302921, -17008.939326
0.308500, 27182.555024, 33977.943780, -27181.555024, -27520.324462, -27182.555024, -16988.471890
0.309000, 27149.538856, 33936.673570, -27148.538856, -27486.895592, -27149.538856, -16967.836785
0.309500, 27116.254743, 33895.068429, -27115.254743, -27453.195427, -27116.254743, -16947.034214
0.310000, 27082.703013, 33853.128766, -27081.703013, -27419.224301, -27082.703013, -16926.064383
0.310500, 27048.883998, 33810.854997, -27047.883998, -27384.982548, -27048.883998, -16904.927499
0.311000, 27014.798031, 33768.247538, -27013.798031, -27350.470506, -27014.798031, -16883.623769
0.311500, 26980.445448, 33725.306810, -26979.445448, -27315.688516, -26980.445448, -16862.153405
0.312000, 26945.826590, 33682.033237, -26944.826590, -27280.636922, -26945.826590, -16840.516619
0.312500, 26910.941797, 33638.427246, -26909.941797, -27245.316069, -26910.941797, -16818.713623
0.313000, 26875.791413, 33594.489267, -26874.791413, -27209.726306, -26875.791413, -16796.744633
0.313500, 26840.375787, 33550.219733, -26839.375787, -27173.867984, -26840.375787, -16774.609867
0.314000, 26804.695266, 33505.619083, -26803.695266, -27137.741457, -26804.695266, -16752.309541
0.314500, 26768.750204, 33460.687755, -26767.750204, -27101.347082, -26768.750204, -16729.843878
0.315000, 26732.540955, 33415.426194, -26731.540955, -27064.685217, -26732.540955, -16707.213097
0.315500, 26696.067876, 33369.834846, -26695.067876, -27027.756225, -26696.067876, -16684.417423
0.316000, 26659.331328, 33323.914160, -26658.331328, -26990.560470, -26659.331328, -16661.457080
0.316500, 26622.331673, 33277.664592, -26621.331673, -26953.098319, -26622.331673, -16638.332296
0.317000, 26585.069276, 33231.086596, -26584.069276, -26915.370142, -26585.069276, -16615.043298
0.317500, 26547.544506, 33184.180632, -26546.544506, -26877.376312, -26547.544506, -16591.590316
0.318000, 26509.757731, 33136.947164, -26508.757731, -26839.117203, -26509.757731, -16567.973582
0.318500, 26471.709326, 33089.386657, -26470.709326, -26800.593192, -26471.709326, -16544.193329
0.319000, 26433.399665, 33041.499582, -26432.399665, -26761.804661, -26433.399665, -16520.249791
0.319500, 26394.829128, 32993.286409, -26393.829128, -26722.751992, -26394.829128, -16496.143205
0.320000, 26355.998094, 32944.747617, -26354.998094, -26683.435570, -26355.998094, -16471.873808
0.320500, 26316.906946, 32895.883683, -26315.906946, -26643.855783, -26316.906946, -16447.441841
0.321000, 26277.556072, 32846.695090, -26276.556072, -26604.013023, -26277.556072, -16422.847545
0.321500, 26237.945858, 32797.182322, -26236.945858, -26563.907681, -26237.945858, -16398.091161
0.322000, 26198.076696, 32747.345870, -26197.076696, -26523.540155, -26198.076696, -16373.172935
0.322500, 26157.948980, 32697.186225, -26156.948980, -26482.910842, -26157.948980, -16348.093113
0.323000, 26117.563105, 32646.703882, -26116.563105, -26442.020144, -26117.563105, -16322.851941
0.323500, 26076.919470, 32595.899338, -26075.919470, -26400.868464, -26076.919470, -16297.449669
0.324000, 26036.018477, 32544.773096, -26035.018477, -26359.456208, -26036.018477, -16271.886548
0.324500, 25994.860528, 32493.325660, -25993.860528, -26317.783785, -25994.860528, -16246.162830
0.325000, 25953.446031, 32441.557538, -25952.446031, -26275.851606, -25953.446031, -16220.278769
0.325500, 25911.775393, 32389.469241, -25910.775393, -26233.660085, -25911.775393, -16194.234621
0.326000, 25869.849026, 32337.061283, -25868.849026, -26191.209639, -25869.849026, -16168.030642
0.326500, 25827.667345, 32284.334181, -25826.667345, -26148.500687, -25827.667345, -16141.667090
0.327000, 25785.230764, 32231.288455, -25784.230764, -26105.533649, -25785.230764, -16115.144228
0.327500, 25742.539704, 32177.924630, -25741.539704, -26062.308950, -25742.539704, -16088.462315
0.328000, 25699.594585, 32124.243231, -25698.594585, -26018.827017, -25699.594585, -16061.621615
0.328500, 25656.395831, 32070.244789, -25655.395831, -25975.088279, -25656.395831, -16034.622394
0.329000, 25612.943869, 32015.929836, -25611.943869, -25931.093167, -25612.943869, -16007.464918
0.329500, 25569.239127, 31961.298909, -25568.239127, -25886.842116, -25569.239127, -15980.149454
0.330000, 25525.282037, 31906.352546, -25524.282037, -25842.335563, -25525.282037, -15952.676273
0.330500, 25481.073033, 31851.091291, -25480.073033, -25797.573946, -25481.073033, -15925.045645
0.331000, 25436.612550, 31795.515688, -25435.612550, -25752.557707, -25436.612550, -15897.257844
0.331500, 25391.901029, 31739.626286, -25390.901029, -25707.287292, -25391.901029, -15869.313143
0.332000, 25346.938909, 31683.423637, -25345.938909, -25661.763146, -25346.938909, -15841.211818
0.332500, 25301.726636, 31626.908295, -25300.726636, -25615.985719, -25301.726636, -15812.954147
0.333000, 25256.264654, 31570.080818, -25255.264654, -25569.955462, -25256.264654, -15784.540409
0.333500, 25210.553413, 31512.941766, -25209.553413, -25523.672831, -25210.553413, -15755.970883
0.334000, 25164.593364, 31455.491705, -25163.593364, -25477.138281, -25164.593364, -15727.245853
0.334500, 25118.384961, 31397.731201, -25117.384961, -25430.352273, -25118.384961, -15698.365600
0.335000, 25071.928659, 31339.660823, -25070.928659, -25383.315267, -25071.928659, -15669.330412
0.335500, 25025.224917, 31281.281146, -25024.224917, -25336.027728, -25025.224917, -15640.140573
0.336000, 24978.274196, 31222.592745, -24977.274196, -25288.490123, -24978.274196, -15610.796372
0.336500, 24931.076959, 31163.596199, -24930.076959, -25240.702921, -24931.076959, -15581.298099
0.337000, 24883.633673, 31104.292091, -24882.633673, -25192.666594, -24883.633673, -15551.646046
0.337500, 24835.944805, 31044.681006, -24834.944805, -25144.381615, -24835.944805, -15521.840503
0.338000, 24788.010826, 30984.763533, -24787.010826, -25095.848462, -24788.010826, -15491.881766
0.338500, 24739.832210, 30924.540262, -24738.832210, -25047.067612, -24739.832210, -15461.770131
0.339000, 24691.409431, 30864.011788, -24690.409431, -24998.039549, -24691.409431, -15431.505894
0.339500, 24642.742968, 30803.178709, -24641.742968, -24948.764755, -24642.742968, -15401.089355
0.340000, 24593.833300, 30742.041625, -24592.833300, -24899.243717, -24593.833300, -15370.520813
0.340500, 24544.680912, 30680.601140, -24543.680912, -24849.476923, -24544.680912, -15339.800570
0.341000, 24495.286287, 30618.857859, -24494.286287, -24799.464865, -24495.286287, -15308.928929
0.341500, 24445.649913, 30556.812392, -24444.649913, -24749.208037, -24445.649913, -15277.906196
0.342000, 24395.772281, 30494.465351, -24394.772281, -24698.706934, -24395.772281, -15246.732676
0.342500, 24345.653882, 30431.817353, -24344.653882, -24647.962056, -24345.653882, -15215.408676
0.343000, 24295.295211, 30368.869014, -24294.295211, -24596.973901, -24295.295211, -15183.934507
0.343500, 24244.696766, 30305.620957, -24243.696766, -24545.742975, -24244.696766, -15152.310478
0.344000, 24193.859044, 30242.073805, -24192.859044, -24494.269782, -24193.859044, -15120.536903
0.344500, 24142.782549, 30178.228187, -24141.782549, -24442.554831, -24142.782549, -15088.614093
0.345000, 24091.467785, 30114.084731, -24090.467785, -24390.598632, -24091.467785, -15056.542365
0.345500, 24039.915257, 30049.644071, -24038.915257, -24338.401698, -24039.915257, -15024.322036
0.346000, 23988.125475, 29984.906843, -23987.125475, -24285.964543, -23988.125475, -14991.953422
0.346500, 23936.098949, 29919.873687, -23935.098949, -24233.287686, -23936.098949, -14959.436843
0.347000, 23883.836194, 29854.545243, -23882.836194, -24180.371647, -23883.836194, -14926.772621
0.347500, 23831.337725, 29788.922156, -23830.337725, -24127.216947, -23831.337725, -14893.961078
0.348000, 23778.604060, 29723.005075, -23777.604060, -24073.824111, -23778.604060, -14861.002538
0.348500, 23725.635720, 29656.794650, -23724.635720, -24020.193666, -23725.635720, -14827.897325
0.349000, 23672.433227, 29590.291533, -23671.433227, -23966.326142, -23672.433227, -14794.645767
0.349500, 23618.997106, 29523.496383, -23617.997106, -23912.222070, -23618.997106, -14761.248192
0.350000, 23565.327886, 29456.409857, -23564.327886, -23857.881985, -23565.327886, -14727.704929
0.350500, 23511.426095, 29389.032619, -23510.426095, -23803.306421, -23511.426095, -14694.016309
0.351000, 23457.292266, 29321.365332, -23456.292266, -23748.495919, -23457.292266, -14660.182666
0.351500, 23402.926932, 29253.408665, -23401.926932, -23693.451019, -23402.926932, -14626.204333
0.352000, 23348.330631, 29185.163289, -23347.330631, -23638.172264, -23348.330631, -14592.081645
0.352500, 23293.503902, 29116.629877, -23292.503902, -23582.660200, -23293.503902, -14557.814939
0.353000, 23238.447284, 29047.809105, -23237.447284, -23526.915375, -23238.447284, -14523.404553
0.353500, 23183.161323, 28978.701653, -23182.161323, -23470.938339, -23183.161323, -14488.850827
0.354000, 23127.646563, 28909.308203, -23126.646563, -23414.729645, -23127.646563, -14454.154102
0.354500, 23071.903552, 28839.629440, -23070.903552, -23358.289846, -23071.903552, -14419.314720
0.355000, 23015.932840, 28769.666051, -23014.932840, -23301.619501, -23015.932840, -14384.333025
0.355500, 22959.734981, 28699.418726, -22958.734981, -23244.719168, -22959.734981, -14349.209363
0.356000, 22903.310528, 28628.888160, -22902.310528, -23187.589410, -22903.310528, -14313.944080
0.356500, 22846.660039, 28558.075049, -22845.660039, -23130.230789, -22846.660039, -14278.537524
0.357000, 22789.784072, 28486.980090, -22788.784072, -23072.643873, -22789.784072, -14242.990045
0.357500, 22732.683189, 28415.603986, -22731.683189, -23014.829229, -22732.683189, -14207.301993
0.358000, 22675.357954, 28343.947442, -22674.357954, -22956.787428, -22675.357954, -14171.473721
0.358500, 22617.808931, 28272.011164, -22616.808931, -22898.519043, -22617.808931, -14135.505582
0.359000, 22560.036690, 28199.795863, -22559.036690, -22840.024649, -22560.036690, -14099.397931
0.359500, 22502.041801, 28127.302251, -22501.041801, -22781.304823, -22502.041801, -14063.151125
0.360000, 22443.824835, 28054.531044, -22442.824835, -22722.360145, -22443.824835, -14026.765522
0.360500, 22385.386367, 27981.482959, -22384.386367, -22663.191197, -22385.386367, -13990.241480
0.361000, 22326.726975, 27908.158719, -22325.726975, -22603.798562, -22326.726975, -13953.579360
0.361500, 22267.847237, 27834.559046, -22266.847237, -22544.182828, -22267.847237, -13916.779523
0.362000, 22208.747734, 27760.684668, -22207.747734, -22484.344581, -22208.747734, -13879.842334
0.362500, 22149.429050, 27686.536312, -22148.429050, -22424.284413, -22149.429050, -13842.768156
0.363000, 22089.891769, 27612.114711, -22088.891769, -22364.002916, -22089.891769, -13805.557356
0.363500, 22030.136480, 27537.420600, -22029.136480, -22303.500686, -22030.136480, -13768.210300
0.364000, 21970.163772, 27462.454716, -21969.163772, -22242.778320, -21970.163772, -13730.727358
0.364500, 21909.974238, 27387.217797, -21908.974238, -22181.836416, -21909.974238, -13693.108899
0.365000, 21849.568471, 27311.710589, -21848.568471, -22120.675577, -21849.568471, -13655.355294
0.365500, 21788.947067, 27235.933834, -21787.947067, -22059.296405, -21788.947067, -13617.466917
0.366000, 21728.110625, 27159.888281, -21727.110625, -21997.699508, -21728.110625, -13579.444141
0.366500, 21667.059745, 27083.574682, -21666.059745, -21935.885492, -21667.059745, -13541.287341
0.367000, 21605.795030, 27006.993788, -21604.795030, -21873.854968, -21605.795030, -13502.996894
0.367500, 21544.317085, 26930.146356, -21543.317085, -21811.608548, -21544.317085, -13464.573178
0.368000, 21482.626515, 26853.033144, -21481.626515, -21749.146847, -21482.626515, -13426.016572
0.368500, 21420.723931, 26775.654913, -21419.723931, -21686.470480, -21420.723931, -13387.327457
0.369000, 21358.609942, 26698.012428, -21357.609942, -21623.580067, -21358.609942, -13348.506214
0.369500, 21296.285163, 26620.106453, -21295.285163, -21560.476227, -21296.285163, -13309.553227
0.370000, 21233.750207, 26541.937759, -21232.750207, -21497.159585, -21233.750207, -13270.468880
0.370500, 21171.005693, 26463.507117, -21170.005693, -21433.630765, -21171.005693, -13231.253558
0.371000, 21108.052240, 26384.815300, -21107.052240, -21369.890393, -21108.052240, -13191.907650
0.371500, 21044.890468, 26305.863086, -21043.890468, -21305.939099, -21044.890468, -13152.431543
0.372000, 20981.521002, 26226.651253, -20980.521002, -21241.777515, -20981.521002, -13112.825626
0.372500, 20917.944467, 26147.180583, -20916.944467, -21177.406273, -20917.944467, -13073.090292
0.373000, 20854.161489, 26067.451862, -20853.161489, -21112.826008, -20854.161489, -13033.225931
0.373500, 20790.172700, 25987.465875, -20789.172700, -21048.037359, -20790.172700, -12993.232937
0.374000, 20725.978730, 25907.223412, -20724.978730, -20983.040964, -20725.978730, -12953.111706
0.374500, 20661.580212, 25826.725265, -20660.580212, -20917.837465, -20661.580212, -12912.862633
0.375000, 20596.977783, 25745.972229, -20595.977783, -20852.427505, -20596.977783, -12872.486114
0.375500, 20532.172080, 25664.965100, -20531.172080, -20786.811731, -20532.172080, -12831.982550
0.376000, 20467.163743, 25583.704678, -20466.163743, -20720.990789, -20467.163743, -12791.352339
0.376500, 20401.953412, 25502.191765, -20400.953412, -20654.965330, -20401.953412, -12750.595883
0.377000, 20336.541733, 25420.427166, -20335.541733, -20588.736005, -20336.541733, -12709.713583
0.377500, 20270.929350, 25338.411687, -20269.929350, -20522.303467, -20270.929350, -12668.705844
0.378000, 20205.116911, 25256.146139, -20204.116911, -20455.668372, -20205.116911, -12627.573069
0.378500, 20139.105066, 25173.631332, -20138.105066, -20388.831379, -20139.105066, -12586.315666
0.379000, 20072.894465, 25090.868081, -20071.894465, -20321.793146, -20072.894465, -12544.934041
0.379500, 20006.485763, 25007.857204, -20005.485763, -20254.554335, -20006.485763, -12503.428602
0.380000, 19939.879615, 24924.599519, -19938.879615, -20187.115610, -19939.879615, -12461.799759
0.380500, 19873.076678, 24841.095848, -19872.076678, -20119.477637, -19873.076678, -12420.047924
0.381000, 19806.077612, 24757.347016, -19805.077612, -20051.641083, -19806.077612, -12378.173508
0.381500, 19738.883078, 24673.353848, -19737.883078, -19983.606617, -19738.883078, -12336.176924
0.382000, 19671.493739, 24589.117174, -19670.493739, -19915.374911, -19671.493739, -12294.058587
0.382500, 19603.910260, 24504.637825, -19602.910260, -19846.946638, -19603.910260, -12251.818913
0.383000, 19536.133308, 24419.916636, -19535.133308, -19778.322475, -19536.133308, -12209.458318
0.383500, 19468.163553, 24334.954441, -19467.163553, -19709.503097, -19468.163553, -12166.977220
0.384000, 19400.001664, 24249.752080, -19399.001664, -19640.489185, -19400.001664, -12124.376040
0.384500, 19331.648315, 24164.310394, -19330.648315, -19571.281419, -19331.648315, -12081.655197
0.385000, 19263.104180, 24078.630225, -19262.104180, -19501.880483, -19263.104180, -12038.815113
0.385500, 19194.369936, 23992.712421, -19193.369936, -19432.287061, -19194.369936, -11995.856210
0.386000, 19125.446262, 23906.557827, -19124.446262, -19362.501840, -19125.446262, -11952.778914
0.386500, 19056.333837, 23820.167296, -19055.333837, -19292.525509, -19056.333837, -11909.583648
0.387000, 18987.033343, 23733.541679, -18986.033343, -19222.358760, -18987.033343, -11866.270839
0.387500, 18917.545465, 23646.681831, -18916.545465, -19152.002283, -18917.545465, -11822.840915
0.388000, 18847.870888, 23559.588610, -18846.870888, -19081.456774, -18847.870888, -11779.294305
0.388500, 18778.010300, 23472.262875, -18777.010300, -19010.722929, -18778.010300, -11735.631437
0.389000, 18707.964390, 23384.705488, -18706.964390, -18939.801445, -18707.964390, -11691.852744
0.389500, 18637.733851, 23296.917314, -18636.733851, -18868.693024, -18637.733851, -11647.958657
0.390000, 18567.319374, 23208.899218, -18566.319374, -18797.398366, -18567.319374, -11603.949609
0.390500, 18496.721656, 23120.652070, -18495.721656, -18725.918176, -18496.721656, -11559.826035
0.391000, 18425.941392, 23032.176740, -18424.941392, -18654.253159, -18425.941392, -11515.588370
0.391500, 18354.979281, 22943.474101, -18353.979281, -18582.404022, -18354.979281, -11471.237051
0.392000, 18283.836024, 22854.545030, -18282.836024, -18510.371474, -18283.836024, -11426.772515
0.392500, 18212.512322, 22765.390403, -18211.512322, -18438.156227, -18212.512322, -11382.195202
0.393000, 18141.008881, 22676.011101, -18140.008881, -18365.758992, -18141.008881, -11337.505551
0.393500, 18069.326405, 22586.408006, -18068.326405, -18293.180485, -18069.326405, -11292.704003
0.394000, 17997.465602, 22496.582002, -17996.465602, -18220.421422, -17997.465602, -11247.791001
0.394500, 17925.427180, 22406.533976, -17924.427180, -18147.482520, -17925.427180, -11202.766988
0.395000, 17853.211853, 22316.264816, -17852.211853, -18074.364501, -17853.211853, -11157.632408
0.395500, 17780.820330, 22225.775413, -17779.820330, -18001.068085, -17780.820330, -11112.387707
0.396000, 17708.253329, 22135.066661, -17707.253329, -17927.593995, -17708.253329, -11067.033330
0.396500, 17635.511564, 22044.139455, -17634.511564, -17853.942958, -17635.511564, -11021.569727
0.397000, 17562.595753, 21952.994691, -17561.595753, -17780.115700, -17562.595753, -10975.997346
0.397500, 17489.506616, 21861.633271, -17488.506616, -17706.112949, -17489.506616, -10930.316635
0.398000, 17416.244875, 21770.056094, -17415.244875, -17631.935436, -17416.244875, -10884.528047
0.398500, 17342.811253, 21678.264066, -17341.811253, -17557.583894, -17342.811253, -10838.632033
0.399000, 17269.206474, 21586.258092, -17268.206474, -17483.059055, -17269.206474, -10792.629046
0.399500, 17195.431264, 21494.039081, -17194.431264, -17408.361655, -17195.431264, -10746.519540
0.400000, 17121.486353, 21401.607941, -17120.486353, -17333.492432, -17121.486353, -10700.303971
0.400500, 17047.372469, 21308.965587, -17046.372469, -17258.452125, -17047.372469, -10653.982793
0.401000, 16973.090345, 21216.112931, -16972.090345, -17183.241474, -16973.090345, -10607.556465
0.401500, 16898.640712, 21123.050891, -16897.640712, -17107.861221, -16898.640712, -10561.025445
0.402000, 16824.024307, 21029.780384, -16823.024307, -17032.312111, -16824.024307, -10514.390192
0.402500, 16749.241866, 20936.302332, -16748.241866, -16956.594889, -16749.241866, -10467.651166
0.403000, 16674.294126, 20842.617657, -16673.294126, -16880.710302, -16674.294126, -10420.808829
0.403500, 16599.181827, 20748.727284, -16598.181827, -16804.659100, -16599.181827, -10373.863642
0.404000, 16523.905711, 20654.632139, -16522.905711, -16728.442032, -16523.905711, -10326.816069
0.404500, 16448.466521, 20560.333151, -16447.466521, -16652.059852, -16448.466521, -10279.666575
0.405000, 16372.865000, 20465.831251, -16371.865000, -16575.513313, -16372.865000, -10232.415625
0.405500, 16297.101896, 20371.127371, -16296.101896, -16498.803170, -16297.101896, -10185.063685
0.406000, 16221.177957, 20276.222446, -16220.177957, -16421.930181, -16221.177957, -10137.611223
0.406500, 16145.093930, 20181.117412, -16144.093930, -16344.895104, -16145.093930, -10090.058706
0.407000, 16068.850568, 20085.813210, -16067.850568, -16267.698700, -16068.850568, -10042.406605
0.407500, 15992.448622, 19990.310778, -15991.448622, -16190.341730, -15992.448622, -9994.655389
0.408000, 15915.888848, 19894.611060, -15914.888848, -16112.824958, -15915.888848, -9946.805530
0.408500, 15839.172000, 19798.715000, -15838.172000, -16035.149150, -15839.172000, -9898.857500
0.409000, 15762.298835, 19702.623544, -15761.298835, -15957.315071, -15762.298835, -9850.811772
0.409500, 15685.270113, 19606.337641, -15684.270113, -15879.323490, -15685.270113, -9802.668821
0.410000, 15608.086594, 19509.858242, -15607.086594, -15801.175176, -15608.086594, -9754.429121
0.410500, 15530.749039, 19413.186298, -15529.749039, -15722.870901, -15530.749039, -9706.093149
0.411000, 15453.258211, 19316.322764, -15452.258211, -15644.411439, -15453.258211, -9657.661382
0.411500, 15375.614876, 19219.268595, -15374.614876, -15565.797562, -15375.614876, -9609.134297
0.412000, 15297.819800, 19122.024750, -15296.819800, -15487.030047, -15297.819800, -9560.512375
0.412500, 15219.873750, 19024.592187, -15218.873750, -15408.109672, -15219.873750, -9511.796094
0.413000, 15141.777496, 18926.971870, -15140.777496, -15329.037215, -15141.777496, -9462.985935
0.413500, 15063.531809, 18829.164761, -15062.531809, -15249.813456, -15063.531809, -9414.082380
0.414000, 14985.137460, 18731.171826, -14984.137460, -15170.439179, -14985.137460, -9365.085913
0.414500, 14906.595225, 18632.994031, -14905.595225, -15090.915165, -14906.595225, -9315.997015
0.415000, 14827.905877, 18534.632346, -14826.905877, -15011.242200, -14827.905877, -9266.816173
0.415500, 14749.070193, 18436.087741, -14748.070193, -14931.421071, -14749.070193, -9217.543871
0.416000, 14670.088952, 18337.361190, -14669.088952, -14851.452564, -14670.088952, -9168.180595
0.416500, 14590.962933, 18238.453666, -14589.962933, -14771.337470, -14590.962933, -9118.726833
0.417000, 14511.692917, 18139.366146, -14510.692917, -14691.076579, -14511.692917, -9069.183073
0.417500, 14432.279686, 18040.099608, -14431.279686, -14610.670682, -14432.279686, -9019.549804
0.418000, 14352.724025, 17940.655031, -14351.724025, -14530.120575, -14352.724025, -8969.827515
0.418500, 14273.026717, 17841.033397, -14272.026717, -14449.427051, -14273.026717, -8920.016698
0.419000, 14193.188551, 17741.235689, -14192.188551, -14368.590908, -14193.188551, -8870.117844
0.419500, 14113.210313, 17641.262892, -14112.210313, -14287.612942, -14113.210313, -8820.131446
0.420000, 14033.092794, 17541.115992, -14032.092794, -14206.493954, -14033.092794, -8770.057996
0.420500, 13952.836783, 17440.795979, -13951.836783, -14125.234743, -13952.836783, -8719.897989
0.421000, 13872.443074, 17340.303842, -13871.443074, -14043.836112, -13872.443074, -8669.651921
0.421500, 13791.912458, 17239.640573, -13790.912458, -13962.298864, -13791.912458, -8619.320287
0.422000, 13711.245733, 17138.807166, -13710.245733, -13880.623804, -13711.245733, -8568.903583
0.422500, 13630.443692, 17037.804615, -13629.443692, -13798.811738, -13630.443692, -8518.402308
0.423000, 13549.507135, 16936.633918, -13548.507135, -13716.863474, -13549.507135, -8467.816959
0.423500, 13468.436859, 16835.296073, -13467.436859, -13634.779820, -13468.436859, -8417.148037
0.424000, 13387.233665, 16733.792081, -13386.233665, -13552.561586, -13387.233665, -8366.396040
0.424500, 13305.898354, 16632.122943, -13304.898354, -13470.209583, -13305.898354, -8315.561471
0.425000, 13224.431729, 16530.289662, -13223.431729, -13387.724626, -13224.431729, -8264.644831
0.425500, 13142.834595, 16428.293243, -13141.834595, -13305.107527, -13142.834595, -8213.646622
0.426000, 13061.107755, 16326.134694, -13060.107755, -13222.359102, -13061.107755, -8162.567347
0.426500, 12979.252018, 16223.815023, -12978.252018, -13139.480168, -12979.252018, -8111.407511
0.427000, 12897.268191, 16121.335239, -12896.268191, -13056.471543, -12897.268191, -8060.167619
0.427500, 12815.157083, 16018.696353, -12814.157083, -12973.334046, -12815.157083, -8008.848177
0.428000, 12732.919504, 15915.899380, -12731.919504, -12890.068497, -12732.919504, -7957.449690
0.428500, 12650.556266, 15812.945332, -12649.556266, -12806.675719, -12650.556266, -7905.972666
0.429000, 12568.068182, 15709.835228, -12567.068182, -12723.156534, -12568.068182, -7854.417614
0.429500, 12485.456066, 15606.570083, -12484.456066, -12639.511767, -12485.456066, -7802.785042
0.430000, 12402.720734, 15503.150918, -12401.720734, -12555.742243, -12402.720734, -7751.075459
0.430500, 12319.863002, 15399.578753, -12318.863002, -12471.848790, -12319.863002, -7699.289376
0.431000, 12236.883688, 15295.854610, -12235.883688, -12387.832234, -12236.883688, -7647.427305
0.431500, 12153.783610, 15191.979513, -12152.783610, -12303.693405, -12153.783610, -7595.489756
0.432000, 12070.563589, 15087.954487, -12069.563589, -12219.433134, -12070.563589, -7543.477243
0.432500, 11987.224447, 14983.780559, -11986.224447, -12135.052252, -11987.224447, -7491.390279
0.433000, 11903.767005, 14879.458757, -11902.767005, -12050.551593, -11903.767005, -7439.229378
0.433500, 11820.192088, 14774.990110, -11819.192088, -11965.931989, -11820.192088, -7386.995055
0.434000, 11736.500520, 14670.375651, -11735.500520, -11881.194277, -11736.500520, -7334.687825
0.434500, 11652.693128, 14565.616410, -11651.693128, -11796.339292, -11652.693128, -7282.308205
0.435000, 11568.770738, 14460.713423, -11567.770738, -11711.367872, -11568.770738, -7229.856711
0.435500, 11484.734179, 14355.667724, -11483.734179, -11626.280856, -11484.734179, -7177.333862
0.436000, 11400.584280, 14250.480350, -11399.584280, -11541.079083, -11400.584280, -7124.740175
0.436500, 11316.321872, 14145.152340, -11315.321872, -11455.763395, -11316.321872, -7072.076170
0.437000, 11231.947786, 14039.684732, -11230.947786, -11370.334633, -11231.947786, -7019.342366
0.437500, 11147.462855, 13934.078569, -11146.462855, -11284.793641, -11147.462855, -6966.539284
0.438000, 11062.867913, 13828.334891, -11061.867913, -11199.141262, -11062.867913, -6913.667446
0.438500, 10978.163795, 13722.454744, -10977.163795, -11113.378342, -10978.163795, -6860.727372
0.439000, 10893.351337, 13616.439171, -10892.351337, -11027.505728, -10893.351337, -6807.719585
0.439500, 10808.431375, 13510.289219, -10807.431375, -10941.524267, -10808.431375, -6754.644609
0.440000, 10723.404749, 13404.005936, -10722.404749, -10855.434808, -10723.404749, -6701.502968
0.440500, 10638.272297, 13297.590371, -10637.272297, -10769.238200, -10638.272297, -6648.295185
0.441000, 10553.034859, 13191.043574, -10552.034859, -10682.935295, -10553.034859, -6595.021787
0.441500, 10467.693277, 13084.366596, -10466.693277, -10596.526943, -10467.693277, -6541.683298
0.442000, 10382.248393, 12977.560491, -10381.248393, -10510.013998, -10382.248393, -6488.280245
0.442500, 10296.701050, 12870.626312, -10295.701050, -10423.397313, -10296.701050, -6434.813156
0.443000, 10211.052092, 12763.565116, -10210.052092, -10336.677744, -10211.052092, -6381.282558
0.443500, 10125.302366, 12656.377958, -10124.302366, -10249.856146, -10125.302366, -6327.688979
0.444000, 10039.452717, 12549.065896, -10038.452717, -10162.933376, -10039.452717, -6274.032948
0.444500, 9953.503992, 12441.629990, -9952.503992, -10075.910292, -9953.503992, -6220.314995
0.445000, 9867.457041, 12334.071301, -9866.457041, -9988.787754, -9867.457041, -6166.535650
0.445500, 9781.312711, 12226.390888, -9780.312711, -9901.566620, -9781.312711, -6112.695444
0.446000, 9695.071853, 12118.589817, -9694.071853, -9814.247751, -9695.071853, -6058.794908
0.446500, 9608.735319, 12010.669149, -9607.735319, -9726.832011, -9608.735319, -6004.834574
0.447000, 9522.303961, 11902.629951, -9521.303961, -9639.320260, -9522.303961, -5950.814975
0.447500, 9435.778631, 11794.473288, -9434.778631, -9551.713364, -9435.778631, -5896.736644
0.448000, 9349.160183, 11686.200229, -9348.160183, -9464.012186, -9349.160183, -5842.600115
0.448500, 9262.449473, 11577.811842, -9261.449473, -9376.217592, -9262.449473, -5788.405921
0.449000, 9175.647357, 11469.309196, -9174.647357, -9288.330448, -9175.647357, -5734.154598
0.449500, 9088.754690, 11360.693362, -9087.754690, -9200.351623, -9088.754690, -5679.846681
0.450000, 9001.772330, 11251.965413, -9000.772330, -9112.281985, -9001.772330, -5625.482706
0.450500, 8914.701137, 11143.126421, -8913.701137, -9024.122401, -8914.701137, -5571.063211
0.451000, 8827.541969, 11034.177461, -8826.541969, -8935.873744, -8827.541969, -5516.588731
0.451500, 8740.295687, 10925.119609, -8739.295687, -8847.536883, -8740.295687, -5462.059804
0.452000, 8652.963151, 10815.953939, -8651.963151, -8759.112691, -8652.963151, -5407.476970
0.452500, 8565.545224, 10706.681530, -8564.545224, -8670.602039, -8565.545224, -5352.840765
0.453000, 8478.042769, 10597.303461, -8477.042769, -8582.005803, -8478.042769, -5298.151730
0.453500, 8390.456648, 10487.820810, -8389.456648, -8493.324856, -8390.456648, -5243.410405
0.454000, 8302.787727, 10378.234658, -8301.787727, -8404.560073, -8302.787727, -5188.617329
0.454500, 8215.036870, 10268.546088, -8214.036870, -8315.712331, -8215.036870, -5133.773044
0.455000, 8127.204945, 10158.756181, -8126.204945, -8226.782506, -8127.204945, -5078.878090
0.455500, 8039.292817, 10048.866021, -8038.292817, -8137.771477, -8039.292817, -5023.933010
0.456000, 7951.301354, 9938.876692, -7950.301354, -8048.680121, -7951.301354, -4968.938346
0.456500, 7863.231425, 9828.789281, -7862.231425, -7959.509318, -7863.231425, -4913.894640
0.457000, 7775.083899, 9718.604873, -7774.083899, -7870.259947, -7775.083899, -4858.802437
0.457500, 7686.859646, 9608.324557, -7685.859646, -7780.932891, -7686.859646, -4803.662278
0.458000, 7598.559536, 9497.949420, -7597.559536, -7691.529030, -7598.559536, -4748.474710
0.458500, 7510.184442, 9387.480552, -7509.184442, -7602.049247, -7510.184442, -4693.240276
0.459000, 7421.735235, 9276.919044, -7420.735235, -7512.494425, -7421.735235, -4637.959522
0.459500, 7333.212788, 9166.265985, -7332.212788, -7422.865448, -7333.212788, -4582.632993
0.460000, 7244.617976, 9055.522470, -7243.617976, -7333.163200, -7244.617976, -4527.261235
0.460500, 7155.951671, 8944.689589, -7154.951671, -7243.388567, -7155.951671, -4471.844795
0.461000, 7067.214751, 8833.768439, -7066.214751, -7153.542435, -7067.214751, -4416.384219
0.461500, 6978.408090, 8722.760112, -6977.408090, -7063.625691, -6978.408090, -4360.880056
0.462000, 6889.532564, 8611.665705, -6888.532564, -6973.639221, -6889.532564, -4305.332852
0.462500, 6800.589051, 8500.486314, -6799.589051, -6883.583915, -6800.589051, -4249.743157
0.463000, 6711.578430, 8389.223037, -6710.578430, -6793.460660, -6711.578430, -4194.111519
0.463500, 6622.501577, 8277.876971, -6621.501577, -6703.270347, -6622.501577, -4138.438486
0.464000, 6533.359373, 8166.449216, -6532.359373, -6613.013865, -6533.359373, -4082.724608
0.464500, 6444.152697, 8054.940872, -6443.152697, -6522.692106, -6444.152697, -4026.970436
0.465000, 6354.882430, 7943.353038, -6353.882430, -6432.305961, -6354.882430, -3971.176519
0.465500, 6265.549453, 7831.686816, -6264.549453, -6341.856321, -6265.549453, -3915.343408
0.466000, 6176.154647, 7719.943309, -6175.154647, -6251.344080, -6176.154647, -3859.471654
0.466500, 6086.698895, 7608.123619, -6085.698895, -6160.770131, -6086.698895, -3803.561809
0.467000, 5997.183079, 7496.228849, -5996.183079, -6070.135368, -5997.183079, -3747.614425
0.467500, 5907.608084, 7384.260105, -5906.608084, -5979.440685, -5907.608084, -3691.630052
0.468000, 5817.974792, 7272.218491, -5816.974792, -5888.686977, -5817.974792, -3635.609245
0.468500, 5728.284090, 7160.105112, -5727.284090, -5797.875141, -5728.284090, -3579.552556
0.469000, 5638.536861, 7047.921077, -5637.536861, -5707.006072, -5638.536861, -3523.460538
0.469500, 5548.733993, 6935.667491, -5547.733993, -5616.080668, -5548.733993, -3467.333745
0.470000, 5458.876370, 6823.345463, -5457.876370, -5525.099825, -5458.876370, -3411.172731
0.470500, 5368.964880, 6710.956101, -5367.964880, -5434.064441, -5368.964880, -3354.978050
0.471000, 5279.000411, 6598.500514, -5278.000411, -5342.975416, -5279.000411, -3298.750257
0.471500, 5188.983850, 6485.979813, -5187.983850, -5251.833648, -5188.983850, -3242.489906
0.472000, 5098.916086, 6373.395107, -5097.916086, -5160.640037, -5098.916086, -3186.197554
0.472500, 5008.798007, 6260.747509, -5007.798007, -5069.395482, -5008.798007, -3129.873754
0.473000, 4918.630503, 6148.038129, -4917.630503, -4978.100885, -4918.630503, -3073.519065
0.473500, 4828.414465, 6035.268081, -4827.414465, -4886.757146, -4828.414465, -3017.134040
0.474000, 4738.150781, 5922.438477, -4737.150781, -4795.365166, -4738.150781, -2960.719238
0.474500, 4647.840344, 5809.550430, -4646.840344, -4703.925849, -4647.840344, -2904.275215
0.475000, 4557.484045, 5696.605056, -4556.484045, -4612.440095, -4557.484045, -2847.802528
0.475500, 4467.082775, 5583.603468, -4466.082775, -4520.908809, -4467.082775, -2791.301734
0.476000, 4376.637426, 5470.546783, -4375.637426, -4429.332894, -4376.637426, -2734.773391
0.476500, 4286.148892, 5357.436115, -4285.148892, -4337.713253, -4286.148892, -2678.218057
0.477000, 4195.618065, 5244.272581, -4194.618065, -4246.050790, -4195.618065, -2621.636290
0.477500, 4105.045838, 5131.057298, -4104.045838, -4154.346411, -4105.045838, -2565.028649
0.478000, 4014.433107, 5017.791384, -4013.433107, -4062.601021, -4014.433107, -2508.395692
0.478500, 3923.780764, 4904.475955, -3922.780764, -3970.815524, -3923.780764, -2451.737978
0.479000, 3833.089706, 4791.112132, -3832.089706, -3878.990827, -3833.089706, -2395.056066
0.479500, 3742.360826, 4677.701032, -3741.360826, -3787.127836, -3742.360826, -2338.350516
0.480000, 3651.595020, 4564.243775, -3650.595020, -3695.227458, -3651.595020, -2281.621887
0.480500, 3560.793184, 4450.741480, -3559.793184, -3603.290599, -3560.793184, -2224.870740
0.481000, 3469.956215, 4337.195269, -3468.956215, -3511.318168, -3469.956215, -2168.097634
0.481500, 3379.085009, 4223.606261, -3378.085009, -3419.311071, -3379.085009, -2111.303130
0.482000, 3288.180462, 4109.975577, -3287.180462, -3327.270218, -3288.180462, -2054.487789
0.482500, 3197.243472, 3996.304340, -3196.243472, -3235.196515, -3197.243472, -1997.652170
0.483000, 3106.274936, 3882.593670, -3105.274936, -3143.090873, -3106.274936, -1940.796835
0.483500, 3015.275753, 3768.844691, -3014.275753, -3050.954200, -3015.275753, -1883.922346
0.484000, 2924.246820, 3655.058525, -2923.246820, -2958.787405, -2924.246820, -1827.029262
0.484500, 2833.189035, 3541.236294, -2832.189035, -2866.591398, -2833.189035, -1770.118147
0.485000, 2742.103299, 3427.379123, -2741.103299, -2774.367090, -2742.103299, -1713.189562
0.485500, 2650.990508, 3313.488135, -2649.990508, -2682.115389, -2650.990508, -1656.244068
0.486000, 2559.851563, 3199.564454, -2558.851563, -2589.837208, -2559.851563, -1599.282227
0.486500, 2468.687364, 3085.609204, -2467.687364, -2497.533456, -2468.687364, -1542.304602
0.487000, 2377.498809, 2971.623511, -2376.498809, -2405.205044, -2377.498809, -1485.311755
0.487500, 2286.286799, 2857.608499, -2285.286799, -2312.852884, -2286.286799, -1428.304249
0.488000, 2195.052234, 2743.565293, -2194.052234, -2220.477887, -2195.052234, -1371.282646
0.488500, 2103.796015, 2629.495019, -2102.796015, -2128.080965, -2103.796015, -1314.247509
0.489000, 2012.519042, 2515.398803, -2011.519042, -2035.663030, -2012.519042, -1257.199401
0.489500, 1921.222217, 2401.277771, -1920.222217, -1943.224994, -1921.222217, -1200.138885
0.490000, 1829.906439, 2287.133049, -1828.906439, -1850.767770, -1829.906439, -1143.066524
0.490500, 1738.572611, 2172.965764, -1737.572611, -1758.292269, -1738.572611, -1085.982882
0.491000, 1647.221634, 2058.777042, -1646.221634, -1665.799404, -1647.221634, -1028.888521
0.491500, 1555.854409, 1944.568011, -1554.854409, -1573.290089, -1555.854409, -971.784006
0.492000, 1464.471838, 1830.339798, -1463.471838, -1480.765236, -1464.471838, -914.669899
0.492500, 1373.074824, 1716.093530, -1372.074824, -1388.225759, -1373.074824, -857.546765
0.493000, 1281.664268, 1601.830334, -1280.664268, -1295.672571, -1281.664268, -800.415167
0.493500, 1190.241072, 1487.551340, -1189.241072, -1203.106585, -1190.241072, -743.275670
0.494000, 1098.806138, 1373.257673, -1097.806138, -1110.528715, -1098.806138, -686.128837
0.494500, 1007.360370, 1258.950463, -1006.360370, -1017.939875, -1007.360370, -628.975231
0.495000, 915.904670, 1144.630837, -914.904670, -925.340978, -915.904670, -571.815419
0.495500, 824.439939, 1030.299924, -823.439939, -832.732939, -824.439939, -514.649962
0.496000, 732.967082, 915.958853, -731.967082, -740.116671, -732.967082, -457.479426
0.496500, 641.487001, 801.608751, -640.487001, -647.493088, -641.487001, -400.304375
0.497000, 550.000598, 687.250747, -549.000598, -554.863105, -550.000598, -343.125374
0.497500, 458.508777, 572.885971, -457.508777, -462.227636, -458.508777, -285.942985
0.498000, 367.012440, 458.515550, -366.012440, -369.587595, -367.012440, -228.757775
0.498500, 275.512491, 344.140614, -274.512491, -276.943897, -275.512491, -171.570307
0.499000, 184.009832, 229.762291, -183.009832, -184.297455, -184.009832, -114.381145
0.499500, 92.505368, 115.381710, -91.505368, -91.649185, -92.505368, -57.190855
0.500000, 1.000000, 1.000000, -0.000000, 1.000000, -1.000000, -0.000000
0.500500, -90.505368, -113.381710, 91.505368, 93.649185, 90.505368, 57.190855
0.501000, -182.009832, -227.762291, 183.009832, 186.297455, 182.009832, 114.381145
0.501500, -273.512491, -342.140614, 274.512491, 278.943897, 273.512491, 171.570307
0.502000, -365.012440, -456.515550, 366.012440, 371.587595, 365.012440, 228.757775
0.502500, -456.508777, -570.885971, 457.508777, 464.227636, 456.508777, 285.942985
0.503000, -548.000598, -685.250747, 549.000598, 556.863105, 548.000598, 343.125374
0.503500, -639.487001, -799.608751, 640.487001, 649.493088, 639.487001, 400.304375
0.504000, -730.967082, -913.958853, 731.967082, 742.116671, 730.967082, 457.479426
0.504500, -822.439939, -1028.299924, 823.439939, 834.732939, 822.439939, 514.649962
0.505000, -913.904670, -1142.630837, 914.904670, 927.340978, 913.904670, 571.815419
0.505500, -1005.360370, -1256.950463, 1006.360370, 1019.939875, 1005.360370, 628.975231
0.506000, -1096.806138, -1371.257673, 1097.806138, 1112.528715, 1096.806138, 686.128837
0.506500, -1188.241072, -1485.551340, 1189.241072, 1205.106585, 1188.241072, 743.275670
0.507000, -1279.664268, -1599.830334, 1280.664268, 1297.672571, 1279.664268, 800.415167
0.507500, -1371.074824, -1714.093530, 1372.074824, 1390.225759, 1371.074824, 857.546765
0.508000, -1462.471838, -1828.339798, 1463.471838, 1482.765236, 1462.471838, 914.669899
0.508500, -1553.854409, -1942.568011, 1554.854409, 1575.290089, 1553.854409, 971.784006
0.509000, -1645.221634, -2056.777042, 1646.221634, 1667.799404, 1645.221634, 1028.888521
0.509500, -1736.572611, -2170.965764, 1737.572611, 1760.292269, 1736.572611, 1085.982882
0.510000, -1827.906439, -2285.133049, 1828.906439, 1852.767770, 1827.906439, 1143.066524
0.510500, -1919.222217, -2399.277771, 1920.222217, 1945.224994, 1919.222217, 1200.138885
0.511000, -2010.519042, -2513.398803, 2011.519042, 2037.663030, 2010.519042, 1257.199401
0.511500, -2101.796015, -2627.495019, 2102.796015, 2130.080965, 2101.796015, 1314.247509
0.512000, -2193.052234, -2741.565293, 2194.052234, 2222.477887, 2193.052234, 1371.282646
0.512500, -2284.286799, -2855.608499, 2285.286799, 2314.852884, 2284.286799, 1428.304249
0.513000, -2375.498809, -2969.623511, 2376.498809, 2407.205044, 2375.498809, 1485.311755
0.513500, -2466.687364, -3083.609204, 2467.687364, 2499.533456, 2466.687364, 1542.304602
0.514000, -2557.851563, -3197.564454, 2558.851563, 2591.837208, 2557.851563, 1599.282227
0.514500, -2648.990508, -3311.488135, 2649.990508, 2684.115389, 2648.990508, 1656.244068
0.515000, -2740.103299, -3425.379123, 2741.103299, 2776.367090, 2740.103299, 1713.189562
0.515500, -2831.189035, -3539.236294, 2832.189035, 2868.591398, 2831.189035, 1770.118147
0.516000, -2922.246820, -3653.058525, 2923.246820, 2960.787405, 2922.246820, 1827.029262
0.516500, -3013.275753, -3766.844691, 3014.275753, 3052.954200, 3013.275753, 1883.922346
0.517000, -3104.274936, -3880.593670, 3105.274936, 3145.090873, 3104.274936, 1940.796835
0.517500, -3195.243472, -3994.304340, 3196.243472, 3237.196515, 3195.243472, 1997.652170
0.518000, -3286.180462, -4107.975577, 3287.180462, 3329.270218, 3286.180462, 2054.487789
0.518500, -3377.085009, -4221.606261, 3378.085009, 3421.311071, 3377.085009, 2111.303130
0.519000, -3467.956215, -4335.195269, 3468.956215, 3513.318168, 3467.956215, 2168.097634
0.519500, -3558.793184, -4448.741480, 3559.793184, 3605.290599, 3558.793184, 2224.870740
0.520000, -3649.595020, -4562.243775, 3650.595020, 3697.227458, 3649.595020, 2281.621887
0.520500, -3740.360826, -4675.701032, 3741.360826, 3789.127836, 3740.360826, 2338.350516
0.521000, -3831.089706, -4789.112132, 3832.089706, 3880.990827, 3831.089706, 2395.056066
0.521500, -3921.780764, -4902.475955, 3922.780764, 3972.815524, 3921.780764, 2451.737978
0.522000, -4012.433107, -5015.791384, 4013.433107, 4064.601021, 4012.433107, 2508.395692
0.522500, -4103.045838, -5129.057298, 4104.045838, 4156.346411, 4103.045838, 2565.028649
0.523000, -4193.618065, -5242.272581, 4194.618065, 4248.050790, 4193.618065, 2621.636290
0.523500, -4284.148892, -5355.436115, 4285.148892, 4339.713253, 4284.148892, 2678.218057
0.524000, -4374.637426, -5468.546783, 4375.637426, 4431.332894, 4374.637426, 2734.773391
0.524500, -4465.082775, -5581.603468, 4466.082775, 4522.908809, 4465.082775, 2791.301734
0.525000, -4555.484045, -5694.605056, 4556.484045, 4614.440095, 4555.484045, 2847.802528
0.525500, -4645.840344, -5807.550430, 4646.840344, 4705.925849, 4645.840344, 2904.275215
0.526000, -4736.150781, -5920.438477, 4737.150781, 4797.365166, 4736.150781, 2960.719238
0.526500, -4826.414465, -6033.268081, 4827.414465, 4888.757146, 4826.414465, 3017.134040
0.527000, -4916.630503, -6146.038129, 4917.630503, 4980.100885, 4916.630503, 3073.519065
0.527500, -5006.798007, -6258.747509, 5007.798007, 5071.395482, 5006.798007, 3129.873754
0.528000, -5096.916086, -6371.395107, 5097.916086, 5162.640037, 5096.916086, 3186.197554
0.528500, -5186.983850, -6483.979813, 5187.983850, 5253.833648, 5186.983850, 3242.489906
0.529000, -5277.000411, -6596.500514, 5278.000411, 5344.975416, 5277.000411, 3298.750257
0.529500, -5366.964880, -6708.956101, 5367.964880, 5436.064441, 5366.964880, 3354.978050
0.530000, -5456.876370, -6821.345463, 5457.876370, 5527.099825, 5456.876370, 3411.172731
0.530500, -5546.733993, -6933.667491, 5547.733993, 5618.080668, 5546.733993, 3467.333745
