SHIH-XIAN-YANG/Robotic-vitual-system/run/exp2/log/joint_pos.txt
# Joint1, Joint2, Joint3, Joint4, Joint5, Joint6
 90.000000, 52.839001,  0.114000,  0.000000,-52.952999,  0.000000
 90.000000, 52.839001,  0.114000,  0.000000,-52.952999,  0.000000
 90.000000, 52.839001,  0.114000,  0.000000,-52.952999,  0.000000
 90.000000, 52.839001,  0.114000,  0.000000,-52.952999,  0.000000
 90.000000, 52.839001,  0.114000,  0.000000,-52.952999,  0.000000
 90.000000, 52.839001,  0.114000,  0.000000,-52.952999,  0.000000
 90.000000, 52.839001,  0.114000,  0.000000,-52.952999,  0.000000
 90.000000, 52.839001,  0.114000,  0.000000,-52.952999,  0.000000
 90.000000, 52.839001,  0.114000,  0.000000,-52.952999,  0.000000
 90.000000, 52.839001,  0.114000,  0.000000,-52.952999,  0.000000
 90.000000, 52.839001,  0.114000,  0.000000,-52.952999,  0.000000
 90.000000, 52.839001,  0.114000,  0.000000,-52.952999,  0.000000
 90.000000, 52.839001,  0.114000,  0.000000,-52.952999,  0.000000
 90.000000, 52.839001,  0.114000,  0.000000,-52.952999,  0.000000
 90.000000, 52.839001,  0.114000,  0.000000,-52.952999,  0.000000
 90.000000, 52.839001,  0.114000,  0.000000,-52.952999,  0.000000
 90.000000, 52.839001,  0.114000,  0.000000,-52.952999,  0.000000
 90.000000, 52.839001,  0.114000,  0.000000,-52.952999,  0.000000
 90.000000, 52.839001,  0.114000,  0.000000,-52.952999,  0.000000
 90.000000, 52.839001,  0.114000,  0.000000,-52.952999,  0.000000
 90.000000, 52.839001,  0.114000,  0.000000,-52.952999,  0.000000
 90.000000, 52.839001,  0.114000,  0.000000,-52.952999,  0.000000
 90.000000, 52.839001,  0.114000,  0.000000,-52.952999,  0.000000
 90.000000, 52.839001,  0.114000,  0.000000,-52.952999,  0.000001
 90.000001, 52.839001,  0.114000,  0.000000,-52.952999,  0.000001
 90.000002, 52.839001,  0.114000,  0.000000,-52.952999,  0.000003
 90.000003, 52.839001,  0.114000,  0.000000,-52.952999,  0.000005
 90.000005, 52.839001,  0.114000,  0.000000,-52.952999,  0.000008
 90.000008, 52.839001,  0.114000,  0.000000,-52.952999,  0.000012
 90.000012, 52.839001,  0.114000,  0.000000,-52.952999,  0.000019
 90.000018, 52.839001,  0.114000,  0.000000,-52.952999,  0.000028
 90.000026, 52.839001,  0.114000,  0.000000,-52.952999,  0.000040
 90.000036, 52.839001,  0.114000,  0.000000,-52.952999,  0.000056
 90.000050, 52.839001,  0.114000,  0.000000,-52.952999,  0.000077
 90.000067, 52.839001,  0.114000,  0.000000,-52.952999,  0.000103
 90.000089, 52.839001,  0.114000,  0.000000,-52.952999,  0.000136
 90.000116, 52.839001,  0.114000,  0.000000,-52.952999,  0.000176
 90.000149, 52.839001,  0.114000,  0.000000,-52.952999,  0.000225
 90.000189, 52.839001,  0.114000,  0.000000,-52.952999,  0.000284
 90.000236, 52.839001,  0.114000,  0.000000,-52.952999,  0.000354
 90.000293, 52.839001,  0.114000,  0.000000,-52.952999,  0.000438
 90.000360, 52.839001,  0.114000,  0.000000,-52.952999,  0.000535
 90.000438, 52.839001,  0.114000,  0.000000,-52.952999,  0.000648
 90.000529, 52.839001,  0.114000,  0.000000,-52.952999,  0.000779
 90.000634, 52.839001,  0.114000,  0.000000,-52.952999,  0.000929
 90.000754, 52.839001,  0.114000,  0.000000,-52.952999,  0.001100
 90.000891, 52.839001,  0.114000,  0.000000,-52.952999,  0.001293
 90.001046, 52.839001,  0.114000,  0.000000,-52.952999,  0.001511
 90.001222, 52.839001,  0.114000,  0.000000,-52.952999,  0.001756
 90.001419, 52.839001,  0.114000,  0.000000,-52.952999,  0.002029
 90.001639, 52.839001,  0.114000,  0.000000,-52.952999,  0.002333
 90.001885, 52.839001,  0.114000,  0.000000,-52.952999,  0.002669
 90.002158, 52.839001,  0.114000,  0.000000,-52.952999,  0.003039
 90.002460, 52.839001,  0.114000,  0.000000,-52.952999,  0.003446
 90.002793, 52.839001,  0.113999,  0.000000,-52.952998,  0.003891
 90.003159, 52.839001,  0.113999,  0.000000,-52.952998,  0.004376
 90.003559, 52.839001,  0.113999,  0.000000,-52.952998,  0.004904
 90.003997, 52.839002,  0.113999,  0.000000,-52.952998,  0.005477
 90.004473, 52.839002,  0.113999,  0.000000,-52.952998,  0.006096
 90.004991, 52.839002,  0.113998, -0.000000,-52.952997,  0.006762
 90.005551, 52.839002,  0.113998, -0.000000,-52.952997,  0.007479
 90.006157, 52.839002,  0.113998, -0.000000,-52.952997,  0.008248
 90.006810, 52.839003,  0.113997, -0.000000,-52.952996,  0.009071
 90.007513, 52.839003,  0.113997, -0.000000,-52.952996,  0.009950
 90.008267, 52.839004,  0.113996, -0.000000,-52.952995,  0.010885
 90.009074, 52.839004,  0.113995, -0.000000,-52.952995,  0.011879
 90.009938, 52.839005,  0.113995, -0.000000,-52.952994,  0.012934
 90.010859, 52.839006,  0.113994, -0.000000,-52.952993,  0.014051
 90.011840, 52.839006,  0.113993, -0.000000,-52.952992,  0.015231
 90.012882, 52.839007,  0.113991, -0.000000,-52.952991,  0.016476
 90.013988, 52.839008,  0.113990, -0.000000,-52.952990,  0.017787
 90.015161, 52.839009,  0.113989, -0.000000,-52.952988,  0.019166
 90.016400, 52.839011,  0.113987, -0.000000,-52.952986,  0.020613
 90.017710, 52.839012,  0.113985, -0.000000,-52.952985,  0.022131
 90.019090, 52.839014,  0.113983, -0.000000,-52.952983,  0.023719
 90.020544, 52.839016,  0.113980, -0.000000,-52.952980,  0.025379
 90.022073, 52.839018,  0.113977, -0.000000,-52.952978,  0.027113
 90.023678, 52.839020,  0.113974, -0.000000,-52.952975,  0.028920
 90.025362, 52.839023,  0.113971, -0.000000,-52.952972,  0.030803
 90.027126, 52.839026,  0.113967, -0.000000,-52.952968,  0.032761
 90.028970, 52.839029,  0.113963, -0.000000,-52.952965,  0.034796
 90.030898, 52.839033,  0.113958, -0.000000,-52.952960,  0.036908
 90.032910, 52.839037,  0.113952, -0.000000,-52.952956,  0.039099
 90.035008, 52.839042,  0.113947, -0.000000,-52.952951,  0.041368
 90.037193, 52.839047,  0.113940, -0.000000,-52.952945,  0.043717
 90.039466, 52.839052,  0.113933, -0.000000,-52.952939,  0.046146
 90.041829, 52.839058,  0.113925, -0.000000,-52.952932,  0.048656
 90.044282, 52.839065,  0.113916, -0.000000,-52.952925,  0.051248
 90.046827, 52.839072,  0.113907, -0.000000,-52.952917,  0.053922
 90.049465, 52.839080,  0.113896, -0.000000,-52.952908,  0.056680
 90.052196, 52.839089,  0.113885, -0.000000,-52.952899,  0.059520
 90.055022, 52.839098,  0.113872, -0.000000,-52.952889,  0.062445
 90.057944, 52.839108,  0.113858, -0.000000,-52.952877,  0.065455
 90.060962, 52.839120,  0.113843, -0.000000,-52.952865,  0.068551
 90.064078, 52.839132,  0.113827, -0.000000,-52.952852,  0.071733
 90.067291, 52.839145,  0.113809, -0.000000,-52.952838,  0.075003
 90.070604, 52.839160,  0.113790, -0.000000,-52.952823,  0.078360
 90.074016, 52.839176,  0.113769, -0.000000,-52.952807,  0.081806
 90.077528, 52.839192,  0.113747, -0.000000,-52.952789,  0.085341
 90.081140, 52.839211,  0.113722, -0.000000,-52.952770,  0.088967
 90.084854, 52.839231,  0.113696, -0.000000,-52.952750,  0.092684
 90.088670, 52.839252,  0.113667, -0.000000,-52.952728,  0.096494
 90.092589, 52.839275,  0.113636, -0.000000,-52.952705,  0.100396
 90.096611, 52.839300,  0.113603, -0.000000,-52.952680,  0.104393
 90.100736, 52.839327,  0.113567, -0.000000,-52.952653,  0.108486
 90.104965, 52.839355,  0.113528, -0.000000,-52.952624,  0.112674
 90.109299, 52.839386,  0.113487, -0.000000,-52.952594,  0.116960
 90.113738, 52.839419,  0.113442, -0.000000,-52.952561,  0.121345
 90.118283, 52.839455,  0.113395, -0.000000,-52.952526,  0.125830
 90.122935, 52.839493,  0.113343, -0.000000,-52.952489,  0.130417
 90.127692, 52.839533,  0.113288, -0.000000,-52.952450,  0.135105
 90.132558, 52.839576,  0.113230, -0.000000,-52.952408,  0.139898
 90.137531, 52.839623,  0.113167, -0.000000,-52.952364,  0.144795
 90.142613, 52.839672,  0.113100, -0.000000,-52.952316,  0.149800
 90.147804, 52.839725,  0.113028, -0.000000,-52.952266,  0.154912
 90.153104, 52.839781,  0.112952, -0.000000,-52.952213,  0.160134
 90.158515, 52.839841,  0.112870, -0.000000,-52.952157,  0.165467
 90.164037, 52.839904,  0.112784, -0.000000,-52.952098,  0.170912
 90.169671, 52.839972,  0.112691, -0.000000,-52.952035,  0.176471
 90.175417, 52.840043,  0.112593, -0.000000,-52.951968,  0.182146
 90.181277, 52.840119,  0.112489, -0.000000,-52.951898,  0.187938
 90.187251, 52.840200,  0.112378, -0.000000,-52.951824,  0.193848
 90.193340, 52.840285,  0.112261, -0.000000,-52.951746,  0.199878
 90.199544, 52.840376,  0.112136, -0.000000,-52.951663,  0.206031
 90.205866, 52.840472,  0.112004, -0.000000,-52.951577,  0.212306
 90.212305, 52.840573,  0.111864, -0.000000,-52.951485,  0.218706
 90.218863, 52.840680,  0.111716, -0.000000,-52.951389,  0.225233
 90.225541, 52.840793,  0.111559, -0.000000,-52.951288,  0.231888
 90.232340, 52.840913,  0.111393, -0.000000,-52.951181,  0.238672
 90.239261, 52.841039,  0.111218, -0.000000,-52.951070,  0.245587
 90.246306, 52.841172,  0.111033, -0.000000,-52.950952,  0.252635
 90.253475, 52.841312,  0.110838, -0.000000,-52.950829,  0.259816
 90.260769, 52.841459,  0.110632, -0.000000,-52.950700,  0.267133
 90.268191, 52.841614,  0.110415, -0.000000,-52.950564,  0.274587
 90.275742, 52.841778,  0.110187, -0.000000,-52.950422,  0.282180
 90.283422, 52.841949,  0.109946, -0.000000,-52.950273,  0.289912
 90.291233, 52.842130,  0.109693, -0.000000,-52.950118,  0.297785
 90.299177, 52.842320,  0.109426, -0.000000,-52.949955,  0.305800
 90.307256, 52.842519,  0.109146, -0.000000,-52.949784,  0.313960
 90.315470, 52.842728,  0.108851, -0.000000,-52.949606,  0.322264
 90.323821, 52.842947,  0.108542, -0.000000,-52.949419,  0.330715
 90.332311, 52.843176,  0.108217, -0.000000,-52.949224,  0.339313
 90.340942, 52.843417,  0.107877, -0.000000,-52.949021,  0.348060
 90.349714, 52.843669,  0.107519, -0.000000,-52.948809,  0.356957
 90.358631, 52.843933,  0.107144, -0.000000,-52.948587,  0.366005
 90.367692, 52.844209,  0.106752, -0.000000,-52.948356,  0.375205
 90.376901, 52.844498,  0.106340, -0.000000,-52.948115,  0.384559
 90.386258, 52.844800,  0.105910, -0.000000,-52.947863,  0.394067
 90.395766, 52.845116,  0.105459, -0.000000,-52.947601,  0.403730
 90.405426, 52.845446,  0.104987, -0.000000,-52.947329,  0.413550
 90.415239, 52.845790,  0.104494, -0.000000,-52.947044,  0.423528
 90.425208, 52.846150,  0.103979, -0.000000,-52.946749,  0.433664
 90.435334, 52.846525,  0.103440, -0.000000,-52.946441,  0.443960
 90.445619, 52.846916,  0.102878, -0.000000,-52.946121,  0.454416
 90.456065, 52.847324,  0.102291, -0.000000,-52.945788,  0.465033
 90.466672, 52.847749,  0.101678, -0.000000,-52.945442,  0.475814
 90.477444, 52.848191,  0.101039, -0.000000,-52.945082,  0.486757
 90.488381, 52.848652,  0.100372, -0.000000,-52.944708,  0.497865
 90.499485, 52.849133,  0.099677, -0.000000,-52.944320,  0.509138
 90.510758, 52.849632,  0.098953, -0.000000,-52.943917,  0.520577
 90.522202, 52.850152,  0.098198, -0.000000,-52.943499,  0.532184
 90.533817, 52.850692,  0.097412, -0.000000,-52.943065,  0.543958
 90.545606, 52.851254,  0.096595, -0.000000,-52.942615,  0.555902
 90.557570, 52.851839,  0.095743, -0.000000,-52.942148,  0.568016
 90.569711, 52.852445,  0.094858, -0.000000,-52.941663,  0.580300
 90.582029, 52.853076,  0.093937, -0.000000,-52.941161,  0.592757
 90.594527, 52.853730,  0.092979, -0.000000,-52.940641,  0.605386
 90.607206, 52.854409,  0.091984, -0.000000,-52.940102,  0.618190
 90.620067, 52.855114,  0.090951, -0.000000,-52.939544,  0.631168
 90.633112, 52.855846,  0.089877, -0.000000,-52.938966,  0.644322
 90.646342, 52.856604,  0.088762, -0.000000,-52.938367,  0.657653
 90.659757, 52.857390,  0.087604, -0.000000,-52.937748,  0.671163
 90.673361, 52.858205,  0.086403, -0.000000,-52.937107,  0.684851
 90.687152, 52.859049,  0.085157, -0.000000,-52.936444,  0.698719
 90.701133, 52.859924,  0.083865, -0.000000,-52.935759,  0.712767
 90.715305, 52.860830,  0.082525, -0.000000,-52.935050,  0.726997
 90.729667, 52.861768,  0.081136, -0.000000,-52.934318,  0.741409
 90.744221, 52.862738,  0.079697, -0.000000,-52.933561,  0.756003
 90.758968, 52.863743,  0.078206, -0.000000,-52.932778,  0.770781
 90.773908, 52.864781,  0.076663, -0.000000,-52.931971,  0.785741
 90.789040, 52.865856,  0.075064, -0.000000,-52.931137,  0.800885
 90.804366, 52.866966,  0.073410, -0.000000,-52.930276,  0.816212
 90.819885, 52.868114,  0.071699, -0.000000,-52.929388,  0.831723
 90.835597, 52.869300,  0.069929, -0.000000,-52.928472,  0.847416
 90.851502, 52.870525,  0.068098, -0.000000,-52.927527,  0.863291
 90.867599, 52.871789,  0.066206, -0.000000,-52.926553,  0.879347
 90.883887, 52.873095,  0.064250, -0.000000,-52.925550,  0.895585
 90.900366, 52.874442,  0.062230, -0.000000,-52.924516,  0.912001
 90.917035, 52.875832,  0.060143, -0.000000,-52.923451,  0.928597
 90.933892, 52.877266,  0.057989, -0.000000,-52.922354,  0.945369
 90.950936, 52.878743,  0.055765, -0.000000,-52.921226,  0.962316
 90.968166, 52.880267,  0.053471, -0.000000,-52.920065,  0.979438
 90.985580, 52.881836,  0.051104, -0.000000,-52.918871,  0.996731
 91.003177, 52.883453,  0.048663, -0.000000,-52.917644,  1.014195
 91.020953, 52.885118,  0.046147, -0.000000,-52.916382,  1.031826
 91.038908, 52.886832,  0.043554, -0.000000,-52.915086,  1.049623
 91.057039, 52.888595,  0.040882, -0.000000,-52.913755,  1.067583
 91.075344, 52.890410,  0.038130, -0.000000,-52.912388,  1.085704
 91.093820, 52.892276,  0.035297, -0.000000,-52.910986,  1.103984
 91.112464, 52.894194,  0.032381, -0.000000,-52.909546,  1.122420
 91.131274, 52.896166,  0.029380, -0.000000,-52.908070,  1.141008
 91.150248, 52.898192,  0.026293, -0.000000,-52.906557,  1.159747
 91.169382, 52.900273,  0.023119, -0.000000,-52.905005,  1.178634
 91.188673, 52.902410,  0.019855, -0.000000,-52.903416,  1.197666
 91.208118, 52.904603,  0.016501, -0.000000,-52.901788,  1.216840
 91.227714, 52.906854,  0.013055, -0.000000,-52.900121,  1.236153
 91.247459, 52.909163,  0.009515, -0.000000,-52.898415,  1.255603
 91.267348, 52.911531,  0.005881, -0.000000,-52.896669,  1.275187
 91.287379, 52.913959,  0.002150, -0.000000,-52.894883,  1.294902
 91.307548, 52.916447, -0.001679, -0.000000,-52.893056,  1.314746
 91.327852, 52.918997, -0.005606, -0.000000,-52.891188,  1.334716
 91.348288, 52.921608, -0.009634, -0.000000,-52.889280,  1.354809
 91.368853, 52.924282, -0.013764, -0.000000,-52.887329,  1.375023
 91.389543, 52.927019, -0.017997, -0.000000,-52.885337,  1.395355
 91.410355, 52.929821, -0.022335, -0.000000,-52.883303,  1.415804
 91.431287, 52.932687, -0.026778, -0.000000,-52.881226,  1.436367
 91.452334, 52.935618, -0.031328, -0.000000,-52.879106,  1.457042
 91.473494, 52.938615, -0.035987, -0.000000,-52.876943,  1.477827
 91.494765, 52.941678, -0.040755, -0.000000,-52.874736,  1.498720
 91.516142, 52.944809, -0.045634, -0.000000,-52.872485,  1.519719
 91.537623, 52.948007, -0.050624, -0.000000,-52.870190,  1.540823
 91.559206, 52.951273, -0.055728, -0.000000,-52.867851,  1.562030
 91.580888, 52.954608, -0.060946, -0.000000,-52.865467,  1.583339
 91.602666, 52.958012, -0.066279, -0.000000,-52.863037,  1.604748
 91.624538, 52.961485, -0.071728, -0.000000,-52.860562,  1.626257
 91.646501, 52.965029, -0.077295, -0.000000,-52.858041,  1.647863
 91.668554, 52.968644, -0.082981, -0.000000,-52.855474,  1.669567
 91.690693, 52.972329, -0.088785, -0.000000,-52.852861,  1.691366
 91.712918, 52.976086, -0.094711, -0.000000,-52.850200,  1.713261
 91.735226, 52.979915, -0.100757, -0.000000,-52.847492,  1.735251
 91.757615, 52.983817, -0.106926, -0.000000,-52.844737,  1.757334
 91.780084, 52.987791, -0.113218, -0.000000,-52.841934,  1.779511
 91.802632, 52.991838, -0.119635, -0.000000,-52.839083,  1.801781
 91.825256, 52.995959, -0.126176, -0.000000,-52.836183,  1.824143
 91.847957, 53.000153, -0.132843, -0.000000,-52.833234,  1.846597
 91.870731, 53.004422, -0.139636, -0.000000,-52.830236,  1.869143
 91.893579, 53.008765, -0.146557, -0.000000,-52.827188,  1.891780
 91.916500, 53.013183, -0.153606, -0.000000,-52.824091,  1.914508
 91.939492, 53.017677, -0.160783, -0.000000,-52.820943,  1.937327
 91.962556, 53.022245, -0.168091, -0.000000,-52.817745,  1.960236
 91.985689, 53.026889, -0.175528, -0.000000,-52.814495,  1.983235
 92.008893, 53.031610, -0.183096, -0.000000,-52.811195,  2.006324
 92.032166, 53.036406, -0.190796, -0.000000,-52.807843,  2.029502
 92.055509, 53.041279, -0.198627, -0.000000,-52.804439,  2.052769
 92.078920, 53.046229, -0.206591, -0.000000,-52.800983,  2.076125
 92.102400, 53.051256, -0.214689, -0.000000,-52.797474,  2.099570
 92.125948, 53.056360, -0.222920, -0.000000,-52.793912,  2.123102
 92.149566, 53.061542, -0.231285, -0.000000,-52.790297,  2.146722
 92.173251, 53.066801, -0.239785, -0.000000,-52.786629,  2.170428
 92.197006, 53.072138, -0.248420, -0.000000,-52.782907,  2.194221
 92.220829, 53.077554, -0.257191, -0.000000,-52.779131,  2.218099
 92.244721, 53.083048, -0.266097, -0.000000,-52.775301,  2.242061
 92.268682, 53.088620, -0.275141, -0.000000,-52.771417,  2.266108
 92.292712, 53.094271, -0.284321, -0.000000,-52.767477,  2.290237
 92.316811, 53.100001, -0.293638, -0.000000,-52.763483,  2.314449
 92.340980, 53.105810, -0.303092, -0.000000,-52.759433,  2.338741
 92.365218, 53.111699, -0.312685, -0.000000,-52.755328,  2.363113
 92.389526, 53.117667, -0.322415, -0.000000,-52.751167,  2.387564
 92.413904, 53.123714, -0.332284, -0.000000,-52.746950,  2.412091
 92.438352, 53.129842, -0.342292, -0.000000,-52.742678,  2.436695
 92.462870, 53.136050, -0.352438, -0.000000,-52.738349,  2.461373
 92.487458, 53.142337, -0.362724, -0.000000,-52.733963,  2.486125
 92.512116, 53.148706, -0.373149, -0.000000,-52.729522,  2.510947
 92.536844, 53.155154, -0.383714, -0.000000,-52.725023,  2.535839
 92.561642, 53.161684, -0.394418, -0.000000,-52.720468,  2.560800
 92.586509, 53.168294, -0.405263, -0.000000,-52.715856,  2.585826
 92.611445, 53.174986, -0.416247, -0.000000,-52.711187,  2.610917
 92.636451, 53.181758, -0.427372, -0.000000,-52.706462,  2.636071
 92.661525, 53.188612, -0.438637, -0.000000,-52.701679,  2.661286
 92.686667, 53.195547, -0.450043, -0.000000,-52.696839,  2.686559
 92.711876, 53.202564, -0.461589, -0.000000,-52.691942,  2.711890
 92.737152, 53.209663, -0.473276, -0.000000,-52.686988,  2.737275
 92.762494, 53.216844, -0.485104, -0.000000,-52.681976,  2.762713
 92.787901, 53.224106, -0.497072, -0.000000,-52.676908,  2.788203
 92.813372, 53.231451, -0.509182, -0.000000,-52.671782,  2.813741
 92.838906, 53.238878, -0.521432, -0.000000,-52.666600,  2.839327
 92.864502, 53.246388, -0.533823, -0.000000,-52.661360,  2.864957
 92.890159, 53.253980, -0.546356, -0.000000,-52.656064,  2.890631
 92.915875, 53.261654, -0.559029, -0.000000,-52.650710,  2.916345
 92.941650, 53.269411, -0.571842, -0.000000,-52.645300,  2.942099
 92.967480, 53.277251, -0.584797, -0.000000,-52.639833,  2.967890
 92.993366, 53.285174, -0.597893, -0.000000,-52.634309,  2.993717
 93.019305, 53.293180, -0.611129, -0.000000,-52.628729,  3.019577
 93.045295, 53.301268, -0.624506, -0.000000,-52.623092,  3.045468
 93.071335, 53.309440, -0.638023, -0.000000,-52.617399,  3.071390
 93.097423, 53.317695, -0.651681, -0.000000,-52.611650,  3.097340
 93.123556, 53.326033, -0.665480, -0.000000,-52.605845,  3.123316
 93.149733, 53.334454, -0.679418, -0.000000,-52.599984,  3.149317
 93.175952, 53.342958, -0.693497, -0.000000,-52.594068,  3.175342
 93.202211, 53.351545, -0.707715, -0.000000,-52.588095,  3.201389
 93.228507, 53.360215, -0.722074, -0.000000,-52.582068,  3.227455
 93.254838, 53.368968, -0.736572, -0.000000,-52.575985,  3.253541
 93.281202, 53.377805, -0.751209, -0.000000,-52.569847,  3.279644
 93.307596, 53.386724, -0.765985, -0.000000,-52.563655,  3.305764
 93.334018, 53.395726, -0.780900, -0.000000,-52.557407,  3.331898
 93.360466, 53.404811, -0.795954, -0.000000,-52.551106,  3.358047
 93.386938, 53.413979, -0.811146, -0.000000,-52.544750,  3.384207
 93.413430, 53.423229, -0.826477, -0.000000,-52.538340,  3.410380
 93.439941, 53.432562, -0.841945, -0.000000,-52.531876,  3.436562
 93.466469, 53.441977, -0.857550, -0.000000,-52.525359,  3.462754
 93.493010, 53.451474, -0.873293, -0.000000,-52.518788,  3.488954
 93.519562, 53.461053, -0.889173, -0.000000,-52.512164,  3.515162
 93.546123, 53.470713, -0.905188, -0.000000,-52.505487,  3.541376
 93.572691, 53.480455, -0.921340, -0.000000,-52.498758,  3.567595
 93.599263, 53.490279, -0.937628, -0.000000,-52.491976,  3.593819
 93.625838, 53.500183, -0.954050, -0.000000,-52.485142,  3.620047
 93.652412, 53.510168, -0.970608, -0.000000,-52.478256,  3.646278
 93.678983, 53.520233, -0.987300, -0.000000,-52.471318,  3.672510
 93.705550, 53.530379, -1.004125, -0.000000,-52.464329,  3.698744
 93.732111, 53.540604, -1.021084, -0.000000,-52.457289,  3.724979
 93.758662, 53.550908, -1.038175, -0.000000,-52.450198,  3.751213
 93.785202, 53.561292, -1.055398, -0.000000,-52.443056,  3.777445
 93.811730, 53.571754, -1.072753, -0.000000,-52.435864,  3.803676
 93.838243, 53.582294, -1.090239, -0.000000,-52.428623,  3.829904
 93.864740, 53.592912, -1.107856, -0.000000,-52.421331,  3.856128
 93.891218, 53.603606, -1.125602, -0.000000,-52.413990,  3.882347
 93.917677, 53.614378, -1.143477, -0.000000,-52.406601,  3.908561
 93.944113, 53.625226, -1.161480, -0.000000,-52.399162,  3.934768
 93.970527, 53.636149, -1.179611, -0.000000,-52.391675,  3.960969
 93.996916, 53.647148, -1.197868, -0.000000,-52.384140,  3.987161
 94.023279, 53.658221, -1.216252, -0.000000,-52.376558,  4.013343
 94.049615, 53.669368, -1.234761, -0.000000,-52.368929,  4.039516
 94.075922, 53.680589, -1.253395, -0.000000,-52.361252,  4.065677
 94.102200, 53.691882, -1.272152, -0.000000,-52.353529,  4.091826
 94.128446, 53.703247, -1.291032, -0.000000,-52.345760,  4.117962
 94.154661, 53.714684, -1.310033, -0.000000,-52.337945,  4.144084
 94.180844, 53.726191, -1.329156, -0.000000,-52.330084,  4.170191
 94.206993, 53.737769, -1.348399, -0.000000,-52.322179,  4.196282
 94.233109, 53.749417, -1.367762, -0.000000,-52.314229,  4.222357
 94.259190, 53.761133, -1.387243, -0.000000,-52.306234,  4.248414
 94.285236, 53.772918, -1.406842, -0.000000,-52.298195,  4.274452
 94.311247, 53.784770, -1.426557, -0.000000,-52.290112,  4.300472
 94.337223, 53.796690, -1.446388, -0.000000,-52.281986,  4.326472
 94.363164, 53.808676, -1.466334, -0.000000,-52.273816,  4.352451
 94.389069, 53.820728, -1.486395, -0.000000,-52.265603,  4.378410
 94.414939, 53.832845, -1.506568, -0.000000,-52.257347,  4.404347
 94.440774, 53.845027, -1.526854, -0.000000,-52.249048,  4.430263
 94.466575, 53.857273, -1.547252, -0.000000,-52.240707,  4.456157
 94.492341, 53.869583, -1.567761, -0.000000,-52.232323,  4.482028
 94.518074, 53.881956, -1.588380, -0.000000,-52.223897,  4.507877
 94.543774, 53.894392, -1.609108, -0.000000,-52.215428,  4.533704
 94.569441, 53.906890, -1.629945, -0.000000,-52.206917,  4.559507
 94.595077, 53.919449, -1.650890, -0.000000,-52.198364,  4.585288
 94.620682, 53.932070, -1.671941, -0.000000,-52.189769,  4.611046
 94.646257, 53.944753, -1.693100, -0.000000,-52.181132,  4.636781
 94.671804, 53.957496, -1.714364, -0.000000,-52.172452,  4.662494
 94.697322, 53.970299, -1.735734, -0.000000,-52.163730,  4.688185
 94.722814, 53.983162, -1.757209, -0.000000,-52.154965,  4.713854
 94.748281, 53.996085, -1.778787, -0.000000,-52.146158,  4.739501
 94.773723, 54.009068, -1.800469, -0.000000,-52.137309,  4.765126
 94.799141, 54.022111, -1.822255, -0.000000,-52.128417,  4.790731
 94.824538, 54.035212, -1.844143, -0.000000,-52.119482,  4.816315
 94.849914, 54.048373, -1.866134, -0.000000,-52.110504,  4.841879
 94.875270, 54.061593, -1.888226, -0.000000,-52.101483,  4.867424
 94.900608, 54.074872, -1.910420, -0.000000,-52.092419,  4.892950
 94.925929, 54.088210, -1.932715, -0.000000,-52.083312,  4.918456
 94.951233, 54.101606, -1.955111, -0.000000,-52.074161,  4.943945
 94.976524, 54.115062, -1.977608, -0.000000,-52.064967,  4.969416
 95.001800, 54.128577, -2.000205, -0.000000,-52.055728,  4.994870
 95.027064, 54.142152, -2.022903, -0.000000,-52.046446,  5.020307
 95.052317, 54.155785, -2.045701, -0.000000,-52.037120,  5.045728
 95.077560, 54.169479, -2.068598, -0.000000,-52.027749,  5.071134
 95.102793, 54.183231, -2.091596, -0.000000,-52.018334,  5.096524
 95.128018, 54.197044, -2.114693, -0.000000,-52.008875,  5.121899
 95.153236, 54.210917, -2.137891, -0.000000,-51.999371,  5.147260
 95.178447, 54.224850, -2.161188, -0.000000,-51.989823,  5.172607
 95.203652, 54.238844, -2.184585, -0.000000,-51.980229,  5.197940
 95.228853, 54.252899, -2.208081, -0.000000,-51.970591,  5.223260
 95.254049, 54.267016, -2.231678, -0.000000,-51.960909,  5.248567
 95.279241, 54.281193, -2.255375, -0.000000,-51.951181,  5.273860
 95.304430, 54.295433, -2.279172, -0.000000,-51.941409,  5.299141
 95.329615, 54.309736, -2.303069, -0.000000,-51.931591,  5.324409
 95.354798, 54.324100, -2.327067, -0.000000,-51.921729,  5.349664
 95.379979, 54.338528, -2.351166, -0.000000,-51.911823,  5.374907
 95.405158, 54.353020, -2.375365, -0.000000,-51.901871,  5.400137
 95.430334, 54.367575, -2.399666, -0.000000,-51.891875,  5.425354
 95.455508, 54.382195, -2.424068, -0.000000,-51.881835,  5.450559
 95.480680, 54.396879, -2.448572, -0.000000,-51.871750,  5.475750
 95.505849, 54.411629, -2.473178, -0.000000,-51.861621,  5.500929
 95.531016, 54.426444, -2.497887, -0.000000,-51.851448,  5.526094
 95.556180, 54.441325, -2.522698, -0.000000,-51.841231,  5.551246
 95.581340, 54.456272, -2.547611, -0.000000,-51.830971,  5.576384
 95.606496, 54.471286, -2.572628, -0.000000,-51.820667,  5.601507
 95.631648, 54.486367, -2.597749, -0.000000,-51.810319,  5.626616
 95.656795, 54.501515, -2.622973, -0.000000,-51.799929,  5.651710
 95.681937, 54.516731, -2.648302, -0.000000,-51.789496,  5.676789
 95.707072, 54.532015, -2.673735, -0.000000,-51.779021,  5.701852
 95.732199, 54.547368, -2.699273, -0.000000,-51.768503,  5.726898
 95.757319, 54.562789, -2.724917, -0.000000,-51.757943,  5.751928
 95.782429, 54.578280, -2.750665, -0.000000,-51.747342,  5.776941
 95.807530, 54.593840, -2.776520, -0.000000,-51.736699,  5.801936
 95.832620, 54.609469, -2.802481, -0.000000,-51.726015,  5.826912
 95.857698, 54.625168, -2.828548, -0.000000,-51.715290,  5.851870
 95.882763, 54.640937, -2.854723, -0.000000,-51.704524,  5.876809
 95.907814, 54.656776, -2.881004, -0.000000,-51.693718,  5.901728
 95.932850, 54.672685, -2.907393, -0.000000,-51.682872,  5.926626
 95.957870, 54.688665, -2.933889, -0.000000,-51.671986,  5.951505
 95.982873, 54.704716, -2.960493, -0.000000,-51.661061,  5.976362
 96.007857, 54.720837, -2.987206, -0.000000,-51.650096,  6.001197
 96.032822, 54.737028, -3.014026, -0.000000,-51.639092,  6.026011
 96.057767, 54.753291, -3.040955, -0.000000,-51.628049,  6.050802
 96.082690, 54.769624, -3.067993, -0.000000,-51.616967,  6.075570
 96.107591, 54.786027, -3.095140, -0.000000,-51.605847,  6.100315
 96.132468, 54.802501, -3.122396, -0.000000,-51.594688,  6.125037
 96.157321, 54.819046, -3.149761, -0.000000,-51.583492,  6.149735
 96.182148, 54.835661, -3.177236, -0.000000,-51.572257,  6.174409
 96.206948, 54.852346, -3.204819, -0.000000,-51.560985,  6.199059
 96.231722, 54.869101, -3.232513, -0.000000,-51.549675,  6.223684
 96.256466, 54.885926, -3.260315, -0.000000,-51.538327,  6.248285
 96.281182, 54.902821, -3.288228, -0.000000,-51.526942,  6.272861
 96.305868, 54.919785, -3.316249, -0.000000,-51.515519,  6.297412
 96.330524, 54.936818, -3.344380, -0.000000,-51.504059,  6.321938
 96.355148, 54.953919, -3.372621, -0.000000,-51.492562,  6.346439
 96.379741, 54.971090, -3.400971, -0.000000,-51.481028,  6.370914
 96.404301, 54.988328, -3.429430, -0.000000,-51.469456,  6.395365
 96.428829, 55.005634, -3.457998, -0.000000,-51.457848,  6.419790
 96.453323, 55.023007, -3.486675, -0.000000,-51.446202,  6.444191
 96.477784, 55.040448, -3.515461, -0.000000,-51.434519,  6.468566
 96.502210, 55.057955, -3.544356, -0.000000,-51.422799,  6.492916
 96.526603, 55.075528, -3.573359, -0.000000,-51.411042,  6.517242
 96.550961, 55.093167, -3.602470, -0.000000,-51.399247,  6.541543
 96.575285, 55.110871, -3.631689, -0.000000,-51.387416,  6.565819
 96.599575, 55.128639, -3.661015, -0.000000,-51.375547,  6.590071
 96.623830, 55.146472, -3.690449, -0.000000,-51.363641,  6.614298
 96.648050, 55.164369, -3.719990, -0.000000,-51.351698,  6.638501
 96.672237, 55.182329, -3.749637, -0.000000,-51.339717,  6.662681
 96.696389, 55.200352, -3.779391, -0.000000,-51.327699,  6.686836
 96.720507, 55.218438, -3.809250, -0.000000,-51.315644,  6.710968
 96.744592, 55.236585, -3.839216, -0.000000,-51.303551,  6.735076
 96.768643, 55.254794, -3.869286, -0.000000,-51.291420,  6.759161
 96.792662, 55.273063, -3.899460, -0.000000,-51.279253,  6.783223
 96.816648, 55.291393, -3.929739, -0.000000,-51.267047,  6.807262
 96.840601, 55.309783, -3.960122, -0.000000,-51.254804,  6.831278
 96.864524, 55.328232, -3.990608, -0.000000,-51.242524,  6.855271
 96.888415, 55.346740, -4.021197, -0.000000,-51.230206,  6.879242
 96.912276, 55.365307, -4.051888, -0.000000,-51.217850,  6.903190
 96.936107, 55.383931, -4.082681, -0.000000,-51.205457,  6.927116
 96.959908, 55.402614, -4.113575, -0.000000,-51.193027,  6.951019
 96.983681, 55.421353, -4.144570, -0.000000,-51.180559,  6.974900
 97.007426, 55.440150, -4.175665, -0.000000,-51.168053,  6.998759
 97.031143, 55.459003, -4.206860, -0.000000,-51.155510,  7.022596
 97.054834, 55.477912, -4.238155, -0.000000,-51.142930,  7.046410
 97.078498, 55.496876, -4.269547, -0.000000,-51.130313,  7.070202
 97.102137, 55.515896, -4.301038, -0.000000,-51.117659,  7.093972
 97.125751, 55.534971, -4.332627, -0.000000,-51.104967,  7.117720
 97.149340, 55.554101, -4.364312, -0.000000,-51.092239,  7.141445
 97.172906, 55.573285, -4.396094, -0.000000,-51.079474,  7.165147
 97.196449, 55.592524, -4.427972, -0.000000,-51.066672,  7.188827
 97.219970, 55.611816, -4.459945, -0.000000,-51.053834,  7.212484
 97.243469, 55.631163, -4.492014, -0.000000,-51.040960,  7.236118
 97.266946, 55.650563, -4.524176, -0.000000,-51.028050,  7.259729
 97.290402, 55.670016, -4.556433, -0.000000,-51.015103,  7.283316
 97.313838, 55.689523, -4.588782, -0.000000,-51.002121,  7.306880
 97.337254, 55.709083, -4.621225, -0.000000,-50.989103,  7.330420
 97.360651, 55.728696, -4.653760, -0.000000,-50.976050,  7.353937
 97.384028, 55.748362, -4.686387, -0.000000,-50.962962,  7.377428
 97.407386, 55.768082, -4.719105, -0.000000,-50.949838,  7.400896
 97.430726, 55.787854, -4.751914, -0.000000,-50.936680,  7.424338
 97.454048, 55.807679, -4.784813, -0.000000,-50.923488,  7.447756
 97.477351, 55.827557, -4.817802, -0.000000,-50.910261,  7.471148
 97.500636, 55.847488, -4.850881, -0.000000,-50.897000,  7.494515
 97.523904, 55.867472, -4.884049, -0.000000,-50.883705,  7.517856
 97.547154, 55.887510, -4.917306, -0.000000,-50.870377,  7.541170
 97.570385, 55.907601, -4.950651, -0.000000,-50.857015,  7.564458
 97.593599, 55.927745, -4.984084, -0.000000,-50.843620,  7.587719
 97.616795, 55.947942, -5.017604, -0.000000,-50.830191,  7.610954
 97.639973, 55.968194, -5.051212, -0.000000,-50.816730,  7.634161
 97.663133, 55.988499, -5.084907, -0.000000,-50.803237,  7.657340
 97.686274, 56.008858, -5.118688, -0.000000,-50.789711,  7.680492
 97.709397, 56.029271, -5.152556, -0.000000,-50.776152,  7.703615
 97.732500, 56.049739, -5.186509, -0.000000,-50.762562,  7.726710
 97.755584, 56.070261, -5.220548, -0.000000,-50.748940,  7.749777
 97.778648, 56.090838, -5.254673, -0.000000,-50.735286,  7.772815
 97.801693, 56.111470, -5.288882, -0.000000,-50.721600,  7.795824
 97.824716, 56.132157, -5.323177, -0.000000,-50.707883,  7.818803
 97.847719, 56.152900, -5.357557, -0.000000,-50.694135,  7.841754
 97.870699, 56.173698, -5.392021, -0.000000,-50.680356,  7.864674
 97.893658, 56.194553, -5.426569, -0.000000,-50.666546,  7.887565
 97.916594, 56.215463, -5.461201, -0.000000,-50.652705,  7.910427
 97.939507, 56.236430, -5.495918, -0.000000,-50.638833,  7.933258
 97.962396, 56.257454, -5.530718, -0.000000,-50.624931,  7.956059
 97.985260, 56.278534, -5.565603, -0.000000,-50.610998,  7.978830
 98.008099, 56.299672, -5.600571, -0.000000,-50.597034,  8.001570
 98.030912, 56.320867, -5.635622, -0.000000,-50.583040,  8.024281
 98.053699, 56.342119, -5.670757, -0.000000,-50.569016,  8.046960
 98.076458, 56.363430, -5.705975, -0.000000,-50.554961,  8.069610
 98.099190, 56.384798, -5.741277, -0.000000,-50.540877,  8.092228
 98.121893, 56.406224, -5.776661, -0.000000,-50.526762,  8.114816
 98.144567, 56.427709, -5.812129, -0.000000,-50.512617,  8.137374
 98.167211, 56.449252, -5.847680, -0.000000,-50.498442,  8.159901
 98.189825, 56.470854, -5.883314, -0.000000,-50.484237,  8.182397
 98.212408, 56.492514, -5.919032, -0.000000,-50.470001,  8.204862
 98.234959, 56.514234, -5.954832, -0.000000,-50.455736,  8.227297
 98.257477, 56.536012, -5.990716, -0.000000,-50.441441,  8.249701
 98.279963, 56.557849, -6.026682, -0.000000,-50.427117,  8.272075
 98.302415, 56.579746, -6.062731, -0.000000,-50.412762,  8.294418
 98.324833, 56.601701, -6.098864, -0.000000,-50.398377,  8.316730
 98.347217, 56.623716, -6.135080, -0.000000,-50.383963,  8.339012
 98.369565, 56.645790, -6.171378, -0.000000,-50.369519,  8.361263
 98.391878, 56.667923, -6.207760, -0.000000,-50.355045,  8.383484
 98.414156, 56.690116, -6.244225, -0.000000,-50.340542,  8.405674
 98.436396, 56.712367, -6.280773, -0.000000,-50.326008,  8.427833
 98.458600, 56.734678, -6.317404, -0.000000,-50.311446,  8.449962
 98.480767, 56.757047, -6.354118, -0.000000,-50.296853,  8.472060
 98.502897, 56.779476, -6.390915, -0.000000,-50.282232,  8.494128
 98.524989, 56.801963, -6.427795, -0.000000,-50.267580,  8.516165
 98.547043, 56.824509, -6.464759, -0.000000,-50.252900,  8.538172
 98.569059, 56.847113, -6.501806, -0.000000,-50.238190,  8.560147
 98.591037, 56.869776, -6.538935, -0.000000,-50.223451,  8.582092
 98.612976, 56.892496, -6.576148, -0.000000,-50.208683,  8.604007
 98.634877, 56.915275, -6.613444, -0.000000,-50.193886,  8.625890
 98.656739, 56.938111, -6.650824, -0.000000,-50.179060,  8.647743
 98.678563, 56.961004, -6.688286, -0.000000,-50.164206,  8.669565
 98.700348, 56.983955, -6.725831, -0.000000,-50.149323,  8.691356
 98.722094, 57.006962, -6.763459, -0.000000,-50.134411,  8.713115
 98.743802, 57.030026, -6.801171, -0.000000,-50.119471,  8.734844
 98.765472, 57.053146, -6.838965, -0.000000,-50.104502,  8.756541
 98.787103, 57.076322, -6.876842, -0.000000,-50.089505,  8.778206
 98.808696, 57.099554, -6.914801, -0.000000,-50.074481,  8.799840
 98.830251, 57.122840, -6.952844, -0.000000,-50.059429,  8.821443
 98.851769, 57.146182, -6.990969, -0.000000,-50.044349,  8.843013
 98.873248, 57.169578, -7.029176, -0.000000,-50.029241,  8.864552
 98.894691, 57.193029, -7.067466, -0.000000,-50.014106,  8.886058
 98.916096, 57.216533, -7.105838, -0.000000,-49.998944,  8.907532
 98.937465, 57.240090, -7.144292, -0.000000,-49.983756,  8.928973
 98.958796, 57.263701, -7.182828, -0.000000,-49.968540,  8.950382
 98.980092, 57.287364, -7.221446, -0.000000,-49.953298,  8.971758
 99.001352, 57.311080, -7.260145, -0.000000,-49.938029,  8.993101
 99.022576, 57.334847, -7.298926, -0.000000,-49.922734,  9.014410
 99.043764, 57.358666, -7.337788, -0.000000,-49.907413,  9.035686
 99.064917, 57.382535, -7.376732, -0.000000,-49.892067,  9.056929
 99.086036, 57.406456, -7.415756, -0.000000,-49.876694,  9.078137
 99.107120, 57.430427, -7.454860, -0.000000,-49.861297,  9.099312
 99.128170, 57.454447, -7.494046, -0.000000,-49.845873,  9.120452
 99.149186, 57.478518, -7.533311, -0.000000,-49.830425,  9.141558
 99.170169, 57.502637, -7.572656, -0.000000,-49.814952,  9.162630
 99.191118, 57.526805, -7.612081, -0.000000,-49.799454,  9.183666
 99.212034, 57.551022, -7.651585, -0.000000,-49.783932,  9.204668
 99.232918, 57.575287, -7.691169, -0.000000,-49.768385,  9.225634
 99.253768, 57.599599, -7.730831, -0.000000,-49.752814,  9.246565
 99.274587, 57.623960, -7.770571, -0.000000,-49.737219,  9.267461
 99.295373, 57.648367, -7.810390, -0.000000,-49.721600,  9.288320
 99.316127, 57.672821, -7.850286, -0.000000,-49.705957,  9.309144
 99.336850, 57.697322, -7.890261, -0.000000,-49.690290,  9.329932
 99.357540, 57.721869, -7.930312, -0.000000,-49.674600,  9.350684
 99.378199, 57.746462, -7.970440, -0.000000,-49.658887,  9.371399
 99.398827, 57.771101, -8.010645, -0.000000,-49.643151,  9.392078
 99.419423, 57.795786, -8.050926, -0.000000,-49.627391,  9.412720
 99.439988, 57.820516, -8.091282, -0.000000,-49.611609,  9.433326
 99.460521, 57.845291, -8.131714, -0.000000,-49.595804,  9.453894
 99.481023, 57.870112, -8.172221, -0.000000,-49.579975,  9.474426
 99.501494, 57.894977, -8.212803, -0.000000,-49.564125,  9.494920
 99.521933, 57.919887, -8.253459, -0.000000,-49.548252,  9.515377
 99.542340, 57.944841, -8.294189, -0.000000,-49.532356,  9.535797
 99.562716, 57.969840, -8.334993, -0.000000,-49.516438,  9.556179
 99.583060, 57.994883, -8.375869, -0.000000,-49.500498,  9.576524
 99.603372, 58.019971, -8.416819, -0.000000,-49.484536,  9.596831
 99.623651, 58.045103, -8.457840, -0.000000,-49.468552,  9.617100
 99.643898, 58.070279, -8.498934, -0.000000,-49.452545,  9.637332
 99.664113, 58.095499, -8.540099, -0.000000,-49.436517,  9.657525
 99.684294, 58.120764, -8.581336, -0.000000,-49.420467,  9.677681
 99.704442, 58.146072, -8.622643, -0.000000,-49.404395,  9.697799
 99.724557, 58.171425, -8.664021, -0.000000,-49.388302,  9.717878
 99.744638, 58.196822, -8.705468, -0.000000,-49.372187,  9.737919
 99.764684, 58.222262, -8.746985, -0.000000,-49.356051,  9.757923
 99.784696, 58.247748, -8.788572, -0.000000,-49.339893,  9.777887
 99.804673, 58.273277, -8.830227, -0.000000,-49.323713,  9.797814
 99.824615, 58.298851, -8.871951, -0.000000,-49.307513,  9.817702
 99.844521, 58.324469, -8.913742, -0.000000,-49.291291,  9.837551
 99.864390, 58.350132, -8.955602, -0.000000,-49.275048,  9.857362
 99.884223, 58.375839, -8.997528, -0.000000,-49.258784,  9.877134
 99.904020, 58.401591, -9.039522, -0.000000,-49.242499,  9.896868
 99.923778, 58.427388, -9.081582, -0.000000,-49.226193,  9.916562
 99.943499, 58.453229, -9.123709, -0.000000,-49.209867,  9.936218
 99.963182, 58.479116, -9.165901, -0.000000,-49.193519,  9.955835
 99.982825, 58.505048, -9.208159, -0.000000,-49.177151,  9.975413
100.002430, 58.531025, -9.250482, -0.000000,-49.160763,  9.994952
100.021995, 58.557047, -9.292870, -0.000000,-49.144354, 10.014452
100.041520, 58.583115, -9.335322, -0.000000,-49.127925, 10.033912
100.061005, 58.609229, -9.377839, -0.000000,-49.111476, 10.053333
100.080448, 58.635388, -9.420420, -0.000000,-49.095006, 10.072715
100.099851, 58.661593, -9.463064, -0.000000,-49.078517, 10.092057
100.119212, 58.687844, -9.505771, -0.000000,-49.062008, 10.111359
100.138530, 58.714142, -9.548542, -0.000000,-49.045480, 10.130622
100.157807, 58.740485, -9.591375, -0.000000,-49.028931, 10.149845
100.177040, 58.766875, -9.634270, -0.000000,-49.012364, 10.169027
100.196230, 58.793311, -9.677228, -0.000000,-48.995777, 10.188170
100.215377, 58.819794, -9.720248, -0.000000,-48.979171, 10.207272
100.234480, 58.846323, -9.763329, -0.000000,-48.962546, 10.226334
100.253539, 58.872898, -9.806471, -0.000000,-48.945902, 10.245356
100.272554, 58.899521, -9.849675, -0.000000,-48.929240, 10.264336
100.291524, 58.926190, -9.892940, -0.000000,-48.912559, 10.283276
100.310449, 58.952906, -9.936265, -0.000000,-48.895859, 10.302175
100.329329, 58.979669, -9.979651, -0.000000,-48.879142, 10.321033
100.348164, 59.006479,-10.023097, -0.000000,-48.862407, 10.339850
100.366953, 59.033335,-10.066603, -0.000000,-48.845653, 10.358625
100.385697, 59.060238,-10.110168, -0.000000,-48.828882, 10.377359
100.404395, 59.087188,-10.153794, -0.000000,-48.812094, 10.396051
100.423047, 59.114185,-10.197478, -0.000000,-48.795288, 10.414701
100.441653, 59.141229,-10.241222, -0.000000,-48.778465, 10.433309
100.460212, 59.168319,-10.285025, -0.000000,-48.761625, 10.451875
100.478726, 59.195456,-10.328887, -0.000000,-48.744769, 10.470399
100.497193, 59.222640,-10.372808, -0.000000,-48.727895, 10.488880
100.515615, 59.249870,-10.416787, -0.000000,-48.711005, 10.507318
100.533989, 59.277146,-10.460824, -0.000000,-48.694099, 10.525714
100.552318, 59.304468,-10.504919, -0.000000,-48.677176, 10.544066
100.570600, 59.331837,-10.549073, -0.000000,-48.660238, 10.562376
100.588836, 59.359251,-10.593284, -0.000000,-48.643283, 10.580642
100.607026, 59.386711,-10.637554, -0.000000,-48.626313, 10.598864
100.625169, 59.414217,-10.681880, -0.000000,-48.609328, 10.617043
100.643267, 59.441768,-10.726264, -0.000000,-48.592327, 10.635178
100.661318, 59.469364,-10.770706, -0.000000,-48.575310, 10.653269
100.679324, 59.497005,-10.815204, -0.000000,-48.558279, 10.671317
100.697283, 59.524690,-10.859760, -0.000000,-48.541233, 10.689319
100.715197, 59.552421,-10.904372, -0.000000,-48.524172, 10.707278
100.733065, 59.580195,-10.949042, -0.000000,-48.507096, 10.725192
100.750887, 59.608013,-10.993767, -0.000000,-48.490005, 10.743061
100.768665, 59.635875,-11.038549, -0.000000,-48.472900, 10.760885
100.786396, 59.663781,-11.083388, -0.000000,-48.455781, 10.778665
100.804083, 59.691730,-11.128282, -0.000000,-48.438648, 10.796399
100.821724, 59.719721,-11.173233, -0.000000,-48.421500, 10.814088
100.839320, 59.747755,-11.218239, -0.000000,-48.404339, 10.831732
100.856871, 59.775831,-11.263302, -0.000000,-48.387164, 10.849330
100.874378, 59.803950,-11.308419, -0.000000,-48.369975, 10.866883
100.891840, 59.832110,-11.353592, -0.000000,-48.352772, 10.884390
100.909257, 59.860311,-11.398821, -0.000000,-48.335556, 10.901851
100.926629, 59.888553,-11.444104, -0.000000,-48.318327, 10.919266
100.943957, 59.916836,-11.489443, -0.000000,-48.301084, 10.936635
100.961241, 59.945159,-11.534836, -0.000000,-48.283828, 10.953958
100.978480, 59.973523,-11.580284, -0.000000,-48.266559, 10.971234
100.995674, 60.001926,-11.625786, -0.000000,-48.249277, 10.988464
101.012825, 60.030368,-11.671343, -0.000000,-48.231982, 11.005648
101.029931, 60.058850,-11.716954, -0.000000,-48.214675, 11.022785
101.046992, 60.087370,-11.762618, -0.000000,-48.197354, 11.039875
101.064010, 60.115929,-11.808337, -0.000000,-48.180021, 11.056918
101.080983, 60.144526,-11.854109, -0.000000,-48.162676, 11.073914
101.097911, 60.173161,-11.899934, -0.000000,-48.145318, 11.090864
101.114796, 60.201834,-11.945813, -0.000000,-48.127948, 11.107766
101.131635, 60.230544,-11.991744, -0.000000,-48.110566, 11.124621
101.148430, 60.259291,-12.037728, -0.000000,-48.093171, 11.141428
101.165181, 60.288074,-12.083765, -0.000000,-48.075765, 11.158188
101.181886, 60.316895,-12.129854, -0.000000,-48.058347, 11.174900
101.198547, 60.345751,-12.175995, -0.000000,-48.040917, 11.191565
101.215162, 60.374643,-12.222189, -0.000000,-48.023475, 11.208181
101.231732, 60.403572,-12.268433, -0.000000,-48.006022, 11.224750
101.248257, 60.432535,-12.314729, -0.000000,-47.988557, 11.241271
101.264736, 60.461535,-12.361077, -0.000000,-47.971081, 11.257743
101.281170, 60.490569,-12.407475, -0.000000,-47.953594, 11.274168
101.297557, 60.519638,-12.453924, -0.000000,-47.936096, 11.290544
101.313898, 60.548742,-12.500423, -0.000000,-47.918587, 11.306871
101.330193, 60.577880,-12.546972, -0.000000,-47.901067, 11.323149
101.346441, 60.607053,-12.593571, -0.000000,-47.883536, 11.339379
101.362642, 60.636260,-12.640220, -0.000000,-47.865995, 11.355560
101.378795, 60.665501,-12.686918, -0.000000,-47.848443, 11.371692
101.394901, 60.694776,-12.733665, -0.000000,-47.830882, 11.387775
101.410960, 60.724085,-12.780461, -0.000000,-47.813309, 11.403808
101.426970, 60.753428,-12.827305, -0.000000,-47.795727, 11.419792
101.442932, 60.782805,-12.874198, -0.000000,-47.778136, 11.435727
101.458845, 60.812215,-12.921138, -0.000000,-47.760534, 11.451611
101.474709, 60.841658,-12.968126, -0.000000,-47.742923, 11.467446
101.490524, 60.871135,-13.015161, -0.000000,-47.725302, 11.483231
101.506290, 60.900645,-13.062243, -0.000000,-47.707672, 11.498966
101.522005, 60.930189,-13.109372, -0.000000,-47.690034, 11.514650
101.537670, 60.959766,-13.156547, -0.000000,-47.672386, 11.530284
101.553285, 60.989376,-13.203768, -0.000000,-47.654729, 11.545868
101.568848, 61.019020,-13.251035, -0.000000,-47.637064, 11.561400
101.584361, 61.048697,-13.298347, -0.000000,-47.619390, 11.576882
101.599822, 61.078407,-13.345704, -0.000000,-47.601708, 11.592313
101.615231, 61.108150,-13.393106, -0.000000,-47.584017, 11.607692
101.630588, 61.137927,-13.440552, -0.000000,-47.566319, 11.623020
101.645893, 61.167737,-13.488042, -0.000000,-47.548612, 11.638297
101.661145, 61.197580,-13.535576, -0.000000,-47.530898, 11.653522
101.676344, 61.227456,-13.583154, -0.000000,-47.513177, 11.668695
101.691490, 61.257366,-13.630774, -0.000000,-47.495448, 11.683817
101.706582, 61.287309,-13.678437, -0.000000,-47.477712, 11.698886
101.721621, 61.317286,-13.726143, -0.000000,-47.459968, 11.713903
101.736606, 61.347296,-13.773891, -0.000000,-47.442218, 11.728867
101.751536, 61.377340,-13.821680, -0.000000,-47.424461, 11.743779
101.766412, 61.407417,-13.869511, -0.000000,-47.406697, 11.758638
101.781233, 61.437528,-13.917383, -0.000000,-47.388927, 11.773445
101.795999, 61.467672,-13.965296, -0.000000,-47.371150, 11.788198
101.810710, 61.497850,-14.013249, -0.000000,-47.353367, 11.802898
101.825366, 61.528062,-14.061243, -0.000000,-47.335578, 11.817544
101.839966, 61.558307,-14.109276, -0.000000,-47.317783, 11.832138
101.854511, 61.588587,-14.157349, -0.000000,-47.299982, 11.846677
101.868999, 61.618900,-14.205460, -0.000000,-47.282175, 11.861163
101.883432, 61.649246,-14.253611, -0.000000,-47.264363, 11.875595
101.897809, 61.679627,-14.301800, -0.000000,-47.246545, 11.889972
101.912129, 61.710041,-14.350028, -0.000000,-47.228722, 11.904296
101.926394, 61.740490,-14.398293, -0.000000,-47.210894, 11.918565
101.940601, 61.770972,-14.446596, -0.000000,-47.193061, 11.932780
101.954752, 61.801488,-14.494936, -0.000000,-47.175223, 11.946940
101.968847, 61.832037,-14.543313, -0.000000,-47.157380, 11.961045
101.982885, 61.862621,-14.591727, -0.000000,-47.139532, 11.975095
101.996866, 61.893238,-14.640177, -0.000000,-47.121680, 11.989090
102.010790, 61.923889,-14.688664, -0.000000,-47.103823, 12.003030
102.024658, 61.954574,-14.737186, -0.000000,-47.085962, 12.016915
102.038468, 61.985292,-14.785743, -0.000000,-47.068097, 12.030744
102.052222, 62.016043,-14.834336, -0.000000,-47.050227, 12.044517
102.065918, 62.046829,-14.882964, -0.000000,-47.032354, 12.058235
102.079557, 62.077647,-14.931627, -0.000000,-47.014476, 12.071897
102.093140, 62.108499,-14.980324, -0.000000,-46.996595, 12.085503
102.106665, 62.139384,-15.029055, -0.000000,-46.978710, 12.099052
102.120133, 62.170302,-15.077820, -0.000000,-46.960822, 12.112546
102.133545, 62.201253,-15.126618, -0.000000,-46.942930, 12.125983
102.146899, 62.232237,-15.175450, -0.000000,-46.925035, 12.139363
102.160196, 62.263253,-15.224315, -0.000000,-46.907136, 12.152687
102.173435, 62.294302,-15.273212, -0.000000,-46.889235, 12.165954
102.186618, 62.325384,-15.322143, -0.000000,-46.871330, 12.179163
102.199743, 62.356497,-15.371105, -0.000000,-46.853423, 12.192316
102.212812, 62.387643,-15.420100, -0.000000,-46.835512, 12.205412
102.225823, 62.418820,-15.469126, -0.000000,-46.817599, 12.218450
102.238777, 62.450029,-15.518184, -0.000000,-46.799684, 12.231431
102.251673, 62.481269,-15.567274, -0.000000,-46.781766, 12.244354
102.264513, 62.512540,-15.616394, -0.000000,-46.763846, 12.257219
102.277295, 62.543843,-15.665545, -0.000000,-46.745924, 12.270027
102.290020, 62.575176,-15.714727, -0.000000,-46.728000, 12.282776
102.302687, 62.606539,-15.763940, -0.000000,-46.710073, 12.295467
102.315297, 62.637933,-15.813182, -0.000000,-46.692145, 12.308100
102.327850, 62.669357,-15.862455, -0.000000,-46.674216, 12.320674
102.340345, 62.700811,-15.911757, -0.000000,-46.656284, 12.333190
102.352782, 62.732294,-15.961089, -0.000000,-46.638352, 12.345647
102.365162, 62.763806,-16.010450, -0.000000,-46.620418, 12.358046
102.377484, 62.795347,-16.059840, -0.000000,-46.602483, 12.370385
102.389748, 62.826917,-16.109259, -0.000000,-46.584547, 12.382665
102.401954, 62.858516,-16.158706, -0.000000,-46.566610, 12.394885
102.414102, 62.890143,-16.208182, -0.000000,-46.548672, 12.407047
102.426192, 62.921797,-16.257686, -0.000000,-46.530734, 12.419148
102.438224, 62.953479,-16.307218, -0.000000,-46.512795, 12.431190
102.450197, 62.985189,-16.356778, -0.000000,-46.494856, 12.443172
102.462112, 63.016926,-16.406366, -0.000000,-46.476917, 12.455094
102.473968, 63.048689,-16.455981, -0.000000,-46.458978, 12.466955
102.485765, 63.080479,-16.505622, -0.000000,-46.441039, 12.478757
102.497503, 63.112295,-16.555291, -0.000000,-46.423100, 12.490497
102.509181, 63.144138,-16.604987, -0.000000,-46.405162, 12.502177
102.520801, 63.176006,-16.654709, -0.000000,-46.387224, 12.513796
102.532360, 63.207899,-16.704457, -0.000000,-46.369286, 12.525355
102.543860, 63.239818,-16.754231, -0.000000,-46.351350, 12.536852
102.555300, 63.271762,-16.804031, -0.000000,-46.333415, 12.548288
102.566680, 63.303730,-16.853857, -0.000000,-46.315481, 12.559662
102.577999, 63.335723,-16.903708, -0.000000,-46.297548, 12.570975
102.589258, 63.367740,-16.953584, -0.000000,-46.279616, 12.582225
102.600456, 63.399781,-17.003485, -0.000000,-46.261686, 12.593414
102.611592, 63.431846,-17.053411, -0.000000,-46.243758, 12.604541
102.622668, 63.463935,-17.103361, -0.000000,-46.225831, 12.615606
102.633681, 63.496047,-17.153336, -0.000000,-46.207907, 12.626608
102.644633, 63.528182,-17.203334, -0.000000,-46.189985, 12.637548
102.655523, 63.560340,-17.253357, -0.000000,-46.172064, 12.648425
102.666351, 63.592520,-17.303403, -0.000000,-46.154147, 12.659239
102.677116, 63.624724,-17.353472, -0.000000,-46.136232, 12.669990
102.687818, 63.656949,-17.403564, -0.000000,-46.118319, 12.680678
102.698457, 63.689197,-17.453679, -0.000000,-46.100409, 12.691303
102.709033, 63.721467,-17.503817, -0.000000,-46.082503, 12.701864
102.719545, 63.753759,-17.553977, -0.000000,-46.064599, 12.712361
102.729993, 63.786073,-17.604159, -0.000000,-46.046698, 12.722795
102.740377, 63.818408,-17.654363, -0.000000,-46.028801, 12.733165
102.750697, 63.850765,-17.704589, -0.000000,-46.010907, 12.743470
102.760953, 63.883143,-17.754836, -0.000000,-45.993017, 12.753711
102.771144, 63.915542,-17.805104, -0.000000,-45.975131, 12.763888
102.781269, 63.947963,-17.855393, -0.000000,-45.957248, 12.774000
102.791329, 63.980405,-17.905702, -0.000000,-45.939369, 12.784048
102.801324, 64.012867,-17.956032, -0.000000,-45.921494, 12.794031
102.811253, 64.045351,-18.006382, -0.000000,-45.903624, 12.803948
102.821116, 64.077855,-18.056751, -0.000000,-45.885758, 12.813800
102.830913, 64.110380,-18.107140, -0.000000,-45.867896, 12.823588
102.840644, 64.142925,-18.157549, -0.000000,-45.850039, 12.833309
102.850308, 64.175492,-18.207976, -0.000000,-45.832186, 12.842965
102.859905, 64.208078,-18.258422, -0.000000,-45.814339, 12.852555
102.869435, 64.240686,-18.308886, -0.000000,-45.796496, 12.862079
102.878898, 64.273313,-18.359368, -0.000000,-45.778658, 12.871537
102.888294, 64.305961,-18.409868, -0.000000,-45.760825, 12.880929
102.897622, 64.338630,-18.460386, -0.000000,-45.742998, 12.890255
102.906882, 64.371318,-18.510921, -0.000000,-45.725176, 12.899514
102.916074, 64.404027,-18.561473, -0.000000,-45.707359, 12.908706
102.925199, 64.436757,-18.612041, -0.000000,-45.689548, 12.917831
102.934255, 64.469506,-18.662626, -0.000000,-45.671743, 12.926890
102.943243, 64.502275,-18.713227, -0.000000,-45.653943, 12.935881
102.952162, 64.535065,-18.763844, -0.000000,-45.636150, 12.944805
102.961013, 64.567875,-18.814476, -0.000000,-45.618362, 12.953661
102.969795, 64.600705,-18.865124, -0.000000,-45.600581, 12.962450
102.978508, 64.633555,-18.915786, -0.000000,-45.582806, 12.971172
102.987152, 64.666425,-18.966463, -0.000000,-45.565038, 12.979825
102.995727, 64.699315,-19.017154, -0.000000,-45.547276, 12.988410
103.004233, 64.732225,-19.067859, -0.000001,-45.529520, 12.996927
103.012669, 64.765155,-19.118578, -0.000001,-45.511772, 13.005376
103.021036, 64.798105,-19.169310, -0.000001,-45.494030, 13.013756
103.029334, 64.831074,-19.220055, -0.000001,-45.476295, 13.022068
103.037562, 64.864064,-19.270813, -0.000001,-45.458568, 13.030311
103.045720, 64.897073,-19.321583, -0.000001,-45.440848, 13.038485
103.053808, 64.930102,-19.372365, -0.000001,-45.423135, 13.046590
103.061826, 64.963150,-19.423159, -0.000001,-45.405430, 13.054625
103.069775, 64.996219,-19.473965, -0.000001,-45.387732, 13.062591
103.077653, 65.029306,-19.524782, -0.000001,-45.370042, 13.070488
103.085461, 65.062413,-19.575610, -0.000001,-45.352360, 13.078315
103.093199, 65.095540,-19.626448, -0.000001,-45.334687, 13.086072
103.100867, 65.128685,-19.677297, -0.000001,-45.317021, 13.093759
103.108464, 65.161850,-19.728156, -0.000001,-45.299364, 13.101376
103.115991, 65.195034,-19.779024, -0.000001,-45.281715, 13.108922
103.123447, 65.228237,-19.829902, -0.000001,-45.264074, 13.116398
103.130833, 65.261459,-19.880789, -0.000001,-45.246442, 13.123803
103.138148, 65.294700,-19.931685, -0.000001,-45.228820, 13.131138
103.145392, 65.327959,-19.982589, -0.000001,-45.211206, 13.138401
103.152565, 65.361237,-20.033501, -0.000001,-45.193601, 13.145594
103.159667, 65.394533,-20.084421, -0.000001,-45.176005, 13.152715
103.166699, 65.427848,-20.135349, -0.000001,-45.158419, 13.159765
103.173659, 65.461180,-20.186284, -0.000001,-45.140842, 13.166743
103.180547, 65.494530,-20.237226, -0.000001,-45.123275, 13.173649
103.187364, 65.527899,-20.288174, -0.000001,-45.105718, 13.180483
103.194110, 65.561284,-20.339129, -0.000001,-45.088170, 13.187246
103.200784, 65.594687,-20.390090, -0.000001,-45.070633, 13.193936
103.207387, 65.628108,-20.441057, -0.000001,-45.053106, 13.200553
103.213918, 65.661545,-20.492030, -0.000001,-45.035589, 13.207098
103.220376, 65.694999,-20.543007, -0.000001,-45.018082, 13.213571
103.226763, 65.728470,-20.593990, -0.000001,-45.000586, 13.219970
103.233077, 65.761957,-20.644977, -0.000001,-44.983101, 13.226297
103.239319, 65.795460,-20.695968, -0.000001,-44.965626, 13.232550
103.245488, 65.828979,-20.746964, -0.000001,-44.948163, 13.238730
103.251585, 65.862514,-20.797963, -0.000001,-44.930710, 13.244836
103.257609, 65.896065,-20.848966, -0.000001,-44.913269, 13.250869
103.263560, 65.929631,-20.899972, -0.000001,-44.895839, 13.256828
103.269438, 65.963212,-20.950981, -0.000001,-44.878420, 13.262712
103.275243, 65.996807,-21.001993, -0.000001,-44.861013, 13.268523
103.280974, 66.030418,-21.053007, -0.000001,-44.843618, 13.274259
103.286631, 66.064042,-21.104023, -0.000001,-44.826234, 13.279921
103.292215, 66.097681,-21.155041, -0.000001,-44.808863, 13.285508
103.297725, 66.131333,-21.206061, -0.000001,-44.791503, 13.291021
103.303160, 66.164999,-21.257082, -0.000001,-44.774156, 13.296458
103.308521, 66.198679,-21.308104, -0.000001,-44.756821, 13.301820
103.313808, 66.232371,-21.359127, -0.000001,-44.739498, 13.307107
103.319019, 66.266076,-21.410150, -0.000001,-44.722188, 13.312319
103.324156, 66.299794,-21.461173, -0.000001,-44.704890, 13.317454
103.329218, 66.333524,-21.512197, -0.000001,-44.687606, 13.322515
103.334204, 66.367266,-21.563220, -0.000001,-44.670334, 13.327499
103.339115, 66.401020,-21.614242, -0.000001,-44.653075, 13.332407
103.343949, 66.434785,-21.665264, -0.000001,-44.635829, 13.337239
103.348708, 66.468562,-21.716285, -0.000001,-44.618597, 13.341994
103.353391, 66.502349,-21.767304, -0.000001,-44.601378, 13.346673
103.357997, 66.536148,-21.818322, -0.000001,-44.584172, 13.351275
103.362527, 66.569957,-21.869338, -0.000001,-44.566980, 13.355801
103.366979, 66.603776,-21.920352, -0.000001,-44.549801, 13.360249
103.371355, 66.637605,-21.971363, -0.000001,-44.532637, 13.364620
103.375653, 66.671445,-22.022372, -0.000001,-44.515486, 13.368914
103.379874, 66.705293,-22.073377, -0.000001,-44.498349, 13.373131
103.384017, 66.739151,-22.124380, -0.000001,-44.481227, 13.377269
103.388082, 66.773019,-22.175379, -0.000001,-44.464118, 13.381330
103.392069, 66.806895,-22.226375, -0.000001,-44.447024, 13.385313
103.395977, 66.840780,-22.277366, -0.000001,-44.429945, 13.389218
103.399807, 66.874673,-22.328354, -0.000001,-44.412880, 13.393045
103.403559, 66.908575,-22.379337, -0.000001,-44.395830, 13.396793
103.407231, 66.942484,-22.430315, -0.000001,-44.378794, 13.400462
103.410824, 66.976402,-22.481288, -0.000001,-44.361774, 13.404053
103.414338, 67.010328,-22.532256, -0.000001,-44.344768, 13.407565
103.417772, 67.044261,-22.583219, -0.000001,-44.327778, 13.410998
103.421126, 67.078201,-22.634175, -0.000001,-44.310803, 13.414352
103.424401, 67.112148,-22.685126, -0.000001,-44.293843, 13.417626
103.427595, 67.146103,-22.736070, -0.000001,-44.276899, 13.420821
103.430709, 67.180064,-22.787008, -0.000001,-44.259970, 13.423936
103.433743, 67.214032,-22.837939, -0.000001,-44.243057, 13.426971
103.436695, 67.248007,-22.888863, -0.000001,-44.226160, 13.429926
103.439567, 67.281988,-22.939780, -0.000001,-44.209279, 13.432802
103.442358, 67.315975,-22.990689, -0.000001,-44.192414, 13.435597
103.445068, 67.349969,-23.041590, -0.000001,-44.175565, 13.438311
103.447696, 67.383968,-23.092483, -0.000001,-44.158733, 13.440945
103.450243, 67.417973,-23.143367, -0.000001,-44.141916, 13.443498
103.452708, 67.451984,-23.194243, -0.000001,-44.125117, 13.445970
103.455092, 67.486001,-23.245110, -0.000001,-44.108334, 13.448361
103.457393, 67.520023,-23.295968, -0.000001,-44.091568, 13.450671
103.459613, 67.554051,-23.346816, -0.000001,-44.074819, 13.452899
103.461750, 67.588084,-23.397654, -0.000001,-44.058086, 13.455046
103.463804, 67.622122,-23.448483, -0.000001,-44.041371, 13.457111
103.465777, 67.656165,-23.499301, -0.000001,-44.024673, 13.459094
103.467666, 67.690213,-23.550108, -0.000001,-44.007993, 13.460996
103.469473, 67.724266,-23.600904, -0.000001,-43.991330, 13.462815
103.471197, 67.758323,-23.651690, -0.000001,-43.974685, 13.464551
103.472837, 67.792386,-23.702464, -0.000001,-43.958057, 13.466206
103.474395, 67.826453,-23.753226, -0.000001,-43.941447, 13.467777
103.475869, 67.860524,-23.803976, -0.000001,-43.924855, 13.469266
103.477260, 67.894600,-23.854713, -0.000001,-43.908282, 13.470672
103.478567, 67.928680,-23.905438, -0.000001,-43.891726, 13.471994
103.479791, 67.962764,-23.956151, -0.000001,-43.875189, 13.473234
103.480931, 67.996852,-24.006850, -0.000001,-43.858670, 13.474390
103.481987, 68.030945,-24.057535, -0.000001,-43.842170, 13.475462
103.482959, 68.065041,-24.108207, -0.000001,-43.825688, 13.476450
103.483847, 68.099141,-24.158865, -0.000001,-43.809225, 13.477355
103.484651, 68.133245,-24.209508, -0.000001,-43.792781, 13.478175
103.485370, 68.167353,-24.260137, -0.000001,-43.776356, 13.478912
103.486005, 68.201464,-24.310751, -0.000001,-43.759951, 13.479564
103.486556, 68.235578,-24.361349, -0.000001,-43.743564, 13.480131
103.487022, 68.269696,-24.411932, -0.000001,-43.727197, 13.480614
103.487403, 68.303816,-24.462499, -0.000001,-43.710849, 13.481012
103.487699, 68.337940,-24.513050, -0.000001,-43.694521, 13.481324
103.487910, 68.372067,-24.563585, -0.000001,-43.678213, 13.481552
103.488036, 68.406197,-24.614103, -0.000001,-43.661924, 13.481694
103.488076, 68.440329,-24.664604, -0.000001,-43.645655, 13.481751
103.488032, 68.474464,-24.715087, -0.000001,-43.629406, 13.481722
103.487901, 68.508601,-24.765553, -0.000001,-43.613178, 13.481608
103.487686, 68.542741,-24.816001, -0.000001,-43.596969, 13.481407
103.487384, 68.576883,-24.866430, -0.000001,-43.580781, 13.481120
103.486996, 68.611027,-24.916841, -0.000001,-43.564614, 13.480747
103.486523, 68.645172,-24.967233, -0.000001,-43.548467, 13.480288
103.485963, 68.679320,-25.017606, -0.000001,-43.532340, 13.479742
103.485317, 68.713468,-25.067960, -0.000001,-43.516235, 13.479110
103.484585, 68.747619,-25.118293, -0.000001,-43.500150, 13.478390
103.483766, 68.781770,-25.168607, -0.000001,-43.484086, 13.477584
103.482860, 68.815922,-25.218900, -0.000001,-43.468043, 13.476690
103.481868, 68.850075,-25.269172, -0.000001,-43.452021, 13.475709
103.480788, 68.884229,-25.319424, -0.000001,-43.436021, 13.474641
103.479622, 68.918383,-25.369654, -0.000001,-43.420042, 13.473485
103.478368, 68.952538,-25.419862, -0.000001,-43.404085, 13.472241
103.477026, 68.986692,-25.470049, -0.000001,-43.388149, 13.470909
103.475597, 69.020846,-25.520213, -0.000001,-43.372234, 13.469489
103.474081, 69.055000,-25.570355, -0.000001,-43.356342, 13.467981
103.472476, 69.089153,-25.620473, -0.000001,-43.340471, 13.466385
103.470783, 69.123305,-25.670569, -0.000001,-43.324623, 13.464700
103.469002, 69.157456,-25.720641, -0.000001,-43.308796, 13.462926
103.467132, 69.191606,-25.770689, -0.000001,-43.292992, 13.461064
103.465174, 69.225755,-25.820713, -0.000001,-43.277210, 13.459112
103.463127, 69.259901,-25.870713, -0.000001,-43.261450, 13.457072
103.460991, 69.294045,-25.920688, -0.000001,-43.245713, 13.454942
103.458766, 69.328188,-25.970638, -0.000001,-43.229998, 13.452723
103.456452, 69.362327,-26.020563, -0.000001,-43.214306, 13.450414
103.454048, 69.396464,-26.070462, -0.000001,-43.198637, 13.448015
103.451554, 69.430598,-26.120335, -0.000001,-43.182990, 13.445527
103.448971, 69.464729,-26.170182, -0.000001,-43.167367, 13.442949
103.446298, 69.498856,-26.220003, -0.000001,-43.151767, 13.440280
103.443534, 69.532979,-26.269796, -0.000001,-43.136190, 13.437521
103.440680, 69.567098,-26.319562, -0.000001,-43.120636, 13.434672
103.437736, 69.601213,-26.369301, -0.000001,-43.105105, 13.431732
103.434701, 69.635323,-26.419013, -0.000001,-43.089598, 13.428702
103.431575, 69.669428,-26.468696, -0.000001,-43.074115, 13.425580
103.428358, 69.703528,-26.518350, -0.000001,-43.058655, 13.422368
103.425049, 69.737623,-26.567976, -0.000001,-43.043219, 13.419064
103.421650, 69.771712,-26.617574, -0.000001,-43.027807, 13.415669
103.418158, 69.805795,-26.667141, -0.000001,-43.012419, 13.412183
103.414575, 69.839872,-26.716680, -0.000001,-42.997055, 13.408605
103.410900, 69.873942,-26.766188, -0.000001,-42.981715, 13.404935
103.407133, 69.908006,-26.815667, -0.000001,-42.966399, 13.401173
103.403273, 69.942063,-26.865114, -0.000001,-42.951108, 13.397319
103.399321, 69.976112,-26.914532, -0.000001,-42.935841, 13.393373
103.395276, 70.010154,-26.963918, -0.000001,-42.920599, 13.389335
103.391139, 70.044189,-27.013272, -0.000001,-42.905381, 13.385205
103.386909, 70.078215,-27.062596, -0.000001,-42.890188, 13.380981
103.382585, 70.112233,-27.111887, -0.000001,-42.875021, 13.376665
103.378168, 70.146242,-27.161146, -0.000001,-42.859878, 13.372256
103.373658, 70.180243,-27.210372, -0.000001,-42.844760, 13.367754
103.369054, 70.214235,-27.259566, -0.000001,-42.829667, 13.363159
103.364357, 70.248217,-27.308727, -0.000001,-42.814600, 13.358471
103.359565, 70.282190,-27.357854, -0.000001,-42.799557, 13.353689
103.354680, 70.316153,-27.406947, -0.000001,-42.784541, 13.348813
103.349700, 70.350106,-27.456007, -0.000001,-42.769550, 13.343844
103.344626, 70.384050,-27.505032, -0.000001,-42.754584, 13.338781
103.339458, 70.417982,-27.554023, -0.000001,-42.739645, 13.333624
103.334195, 70.451904,-27.602979, -0.000001,-42.724731, 13.328373
103.328837, 70.485815,-27.651899, -0.000001,-42.709843, 13.323027
103.323385, 70.519716,-27.700785, -0.000001,-42.694981, 13.317587
103.317837, 70.553604,-27.749634, -0.000001,-42.680145, 13.312052
103.312194, 70.587482,-27.798448, -0.000001,-42.665335, 13.306423
103.306456, 70.621347,-27.847225, -0.000001,-42.650552, 13.300699
103.300623, 70.655201,-27.895966, -0.000001,-42.635795, 13.294880
103.294694, 70.689043,-27.944670, -0.000001,-42.621065, 13.288966
103.288670, 70.722872,-27.993336, -0.000001,-42.606361, 13.282957
103.282549, 70.756689,-28.041965, -0.000001,-42.591684, 13.276852
103.276333, 70.790494,-28.090557, -0.000001,-42.577033, 13.270651
103.270021, 70.824285,-28.139110, -0.000001,-42.562410, 13.264356
103.263613, 70.858064,-28.187625, -0.000001,-42.547813, 13.257964
103.257109, 70.891829,-28.236102, -0.000001,-42.533243, 13.251476
103.250508, 70.925581,-28.284539, -0.000001,-42.518701, 13.244893
103.243811, 70.959319,-28.332937, -0.000001,-42.504185, 13.238213
103.237018, 70.993044,-28.381296, -0.000001,-42.489697, 13.231437
103.230128, 71.026754,-28.429615, -0.000001,-42.475237, 13.224564
103.223141, 71.060451,-28.477894, -0.000001,-42.460803, 13.217595
103.216057, 71.094133,-28.526132, -0.000001,-42.446397, 13.210529
103.208877, 71.127801,-28.574330, -0.000001,-42.432019, 13.203367
103.201599, 71.161454,-28.622486, -0.000001,-42.417669, 13.196107
103.194224, 71.195093,-28.670602, -0.000001,-42.403346, 13.188751
103.186752, 71.228717,-28.718676, -0.000001,-42.389051, 13.181297
103.179183, 71.262325,-28.766708, -0.000001,-42.374784, 13.173746
103.171516, 71.295918,-28.814697, -0.000001,-42.360545, 13.166097
103.163751, 71.329496,-28.862645, -0.000001,-42.346335, 13.158351
103.155889, 71.363059,-28.910549, -0.000001,-42.332152, 13.150507
103.147929, 71.396605,-28.958411, -0.000001,-42.317998, 13.142565
103.139872, 71.430136,-29.006229, -0.000001,-42.303872, 13.134526
103.131716, 71.463651,-29.054004, -0.000001,-42.289774, 13.126388
103.123462, 71.497149,-29.101734, -0.000001,-42.275705, 13.118152
103.115110, 71.530631,-29.149420, -0.000001,-42.261664, 13.109818
103.106660, 71.564096,-29.197062, -0.000001,-42.247652, 13.101386
103.098111, 71.597545,-29.244659, -0.000001,-42.233669, 13.092855
103.089464, 71.630977,-29.292211, -0.000001,-42.219715, 13.084225
103.080718, 71.664391,-29.339717, -0.000001,-42.205789, 13.075496
103.071874, 71.697789,-29.387177, -0.000001,-42.191893, 13.066669
103.062930, 71.731168,-29.434592, -0.000001,-42.178025, 13.057742
103.053888, 71.764530,-29.481960, -0.000001,-42.164187, 13.048717
103.044747, 71.797875,-29.529281, -0.000001,-42.150378, 13.039592
103.035506, 71.831201,-29.576555, -0.000001,-42.136598, 13.030368
103.026166, 71.864509,-29.623782, -0.000001,-42.122847, 13.021044
103.016727, 71.897799,-29.670962, -0.000001,-42.109126, 13.011621
103.007189, 71.931070,-29.718093, -0.000001,-42.095435, 13.002098
102.997550, 71.964322,-29.765176, -0.000001,-42.081772, 12.992475
102.987813, 71.997555,-29.812211, -0.000001,-42.068140, 12.982752
102.977975, 72.030769,-29.859197, -0.000001,-42.054537, 12.972929
102.968037, 72.063963,-29.906133, -0.000001,-42.040964, 12.963006
102.957999, 72.097138,-29.953020, -0.000001,-42.027421, 12.952983
102.947861, 72.130293,-29.999858, -0.000001,-42.013908, 12.942860
102.937623, 72.163427,-30.046645, -0.000001,-42.000425, 12.932636
102.927284, 72.196541,-30.093382, -0.000001,-41.986972, 12.922311
102.916845, 72.229635,-30.140068, -0.000001,-41.973549, 12.911886
102.906305, 72.262708,-30.186703, -0.000001,-41.960156, 12.901360
102.895664, 72.295759,-30.233287, -0.000001,-41.946794, 12.890733
102.884922, 72.328790,-30.279819, -0.000001,-41.933462, 12.880005
102.874079, 72.361799,-30.326299, -0.000001,-41.920160, 12.869176
102.863136, 72.394786,-30.372727, -0.000001,-41.906889, 12.858245
102.852090, 72.427750,-30.419102, -0.000001,-41.893649, 12.847214
102.840944, 72.460693,-30.465424, -0.000001,-41.880439, 12.836080
102.829696, 72.493613,-30.511693, -0.000001,-41.867260, 12.824846
102.818346, 72.526510,-30.557909, -0.000001,-41.854112, 12.813510
102.806895, 72.559383,-30.604070, -0.000001,-41.840994, 12.802072
102.795342, 72.592234,-30.650178, -0.000001,-41.827908, 12.790532
102.783686, 72.625061,-30.696230, -0.000001,-41.814853, 12.778890
102.771929, 72.657863,-30.742229, -0.000001,-41.801828, 12.767147
102.760070, 72.690642,-30.788171, -0.000001,-41.788835, 12.755301
102.748108, 72.723396,-30.834059, -0.000001,-41.775873, 12.743353
102.736044, 72.756125,-30.879891, -0.000001,-41.762942, 12.731302
102.723877, 72.788828,-30.925666, -0.000001,-41.750043, 12.719150
102.711608, 72.821507,-30.971385, -0.000001,-41.737175, 12.706895
102.699235, 72.854160,-31.017048, -0.000001,-41.724338, 12.694537
102.686760, 72.886787,-31.062653, -0.000001,-41.711533, 12.682076
102.674182, 72.919387,-31.108201, -0.000001,-41.698760, 12.669513
102.661501, 72.951961,-31.153692, -0.000001,-41.686018, 12.656847
102.648717, 72.984508,-31.199124, -0.000001,-41.673308, 12.644078
102.635830, 73.017028,-31.244498, -0.000001,-41.660630, 12.631206
102.622839, 73.049520,-31.289814, -0.000001,-41.647984, 12.618231
102.609745, 73.081985,-31.335070, -0.000001,-41.635369, 12.605153
102.596547, 73.114421,-31.380267, -0.000001,-41.622787, 12.591971
102.583245, 73.146829,-31.425405, -0.000001,-41.610236, 12.578687
102.569840, 73.179209,-31.470483, -0.000001,-41.597718, 12.565298
102.556331, 73.211559,-31.515500, -0.000001,-41.585231, 12.551806
102.542718, 73.243880,-31.560457, -0.000001,-41.572777, 12.538211
102.529002, 73.276172,-31.605353, -0.000001,-41.560356, 12.524512
102.515181, 73.308434,-31.650188, -0.000001,-41.547966, 12.510709
102.501256, 73.340665,-31.694962, -0.000001,-41.535609, 12.496802
102.487226, 73.372867,-31.739674, -0.000001,-41.523284, 12.482791
102.473093, 73.405037,-31.784323, -0.000001,-41.510992, 12.468677
102.458855, 73.437176,-31.828911, -0.000001,-41.498732, 12.454458
102.444512, 73.469284,-31.873435, -0.000001,-41.486505, 12.440135
102.430065, 73.501361,-31.917896, -0.000001,-41.474310, 12.425708
102.415514, 73.533405,-31.962295, -0.000001,-41.462148, 12.411177
102.400858, 73.565417,-32.006629, -0.000001,-41.450019, 12.396541
102.386097, 73.597397,-32.050899, -0.000001,-41.437923, 12.381801
102.371232, 73.629344,-32.095106, -0.000001,-41.425859, 12.366956
102.356261, 73.661258,-32.139247, -0.000001,-41.413828, 12.352007
102.341186, 73.693139,-32.183324, -0.000001,-41.401830, 12.336954
102.326006, 73.724986,-32.227335, -0.000001,-41.389866, 12.321795
102.310721, 73.756799,-32.271281, -0.000001,-41.377934, 12.306532
102.295330, 73.788579,-32.315161, -0.000001,-41.366035, 12.291164
102.279835, 73.820323,-32.358975, -0.000001,-41.354169, 12.275691
102.264235, 73.852033,-32.402722, -0.000001,-41.342337, 12.260113
102.248529, 73.883709,-32.446403, -0.000001,-41.330538, 12.244431
102.232718, 73.915349,-32.490016, -0.000001,-41.318772, 12.228643
102.216802, 73.946953,-32.533562, -0.000001,-41.307039, 12.212750
102.200781, 73.978522,-32.577040, -0.000001,-41.295340, 12.196752
102.184654, 74.010055,-32.620451, -0.000001,-41.283674, 12.180648
102.168422, 74.041552,-32.663793, -0.000001,-41.272041, 12.164440
102.152085, 74.073012,-32.707066, -0.000001,-41.260442, 12.148126
102.135642, 74.104435,-32.750270, -0.000001,-41.248877, 12.131707
102.119093, 74.135822,-32.793405, -0.000001,-41.237345, 12.115182
102.102439, 74.167171,-32.836471, -0.000001,-41.225846, 12.098552
102.085679, 74.198483,-32.879466, -0.000001,-41.214382, 12.081817
102.068814, 74.229757,-32.922392, -0.000001,-41.202951, 12.064975
102.051843, 74.260993,-32.965247, -0.000001,-41.191553, 12.048029
102.034767, 74.292192,-33.008031, -0.000001,-41.180190, 12.030976
102.017585, 74.323351,-33.050744, -0.000001,-41.168860, 12.013818
102.000297, 74.354472,-33.093386, -0.000001,-41.157564, 11.996554
101.982903, 74.385554,-33.135955, -0.000001,-41.146302, 11.979185
101.965403, 74.416597,-33.178453, -0.000000,-41.135074, 11.961709
101.947798, 74.447601,-33.220879, -0.000000,-41.123880, 11.944128
101.930087, 74.478565,-33.263232, -0.000000,-41.112720, 11.926441
101.912270, 74.509489,-33.305511, -0.000000,-41.101594, 11.908648
101.894347, 74.540373,-33.347718, -0.000000,-41.090502, 11.890749
101.876318, 74.571217,-33.389851, -0.000000,-41.079444, 11.872744
101.858183, 74.602020,-33.431910, -0.000000,-41.068421, 11.854633
101.839942, 74.632783,-33.473895, -0.000000,-41.057431, 11.836416
101.821595, 74.663504,-33.515806, -0.000000,-41.046476, 11.818093
101.803142, 74.694184,-33.557642, -0.000000,-41.035555, 11.799664
101.784583, 74.724823,-33.599402, -0.000000,-41.024668, 11.781129
101.765918, 74.755420,-33.641087, -0.000000,-41.013816, 11.762488
101.747147, 74.785975,-33.682697, -0.000000,-41.002998, 11.743740
101.728270, 74.816488,-33.724230, -0.000000,-40.992214, 11.724887
101.709286, 74.846958,-33.765687, -0.000000,-40.981465, 11.705927
101.690197, 74.877386,-33.807068, -0.000000,-40.970750, 11.686861
101.671001, 74.907770,-33.848371, -0.000000,-40.960070, 11.667688
101.651699, 74.938112,-33.889597, -0.000000,-40.949424, 11.648410
101.632291, 74.968410,-33.930746, -0.000000,-40.938813, 11.629025
101.612776, 74.998664,-33.971817, -0.000000,-40.928237, 11.609534
101.593156, 75.028874,-34.012810, -0.000000,-40.917695, 11.589936
101.573429, 75.059040,-34.053724, -0.000000,-40.907187, 11.570233
101.553595, 75.089162,-34.094559, -0.000000,-40.896715, 11.550423
101.533656, 75.119239,-34.135315, -0.000000,-40.886277, 11.530506
101.513610, 75.149271,-34.175992, -0.000000,-40.875873, 11.510484
101.493457, 75.179257,-34.216589, -0.000000,-40.865505, 11.490355
101.473199, 75.209198,-34.257106, -0.000000,-40.855171, 11.470120
101.452834, 75.239093,-34.297543, -0.000000,-40.844872, 11.449778
101.432362, 75.268942,-34.337899, -0.000000,-40.834608, 11.429330
101.411784, 75.298745,-34.378174, -0.000000,-40.824378, 11.408776
101.391100, 75.328501,-34.418368, -0.000000,-40.814184, 11.388115
101.370310, 75.358210,-34.458480, -0.000000,-40.804024, 11.367349
101.349413, 75.387872,-34.498510, -0.000000,-40.793899, 11.346475
101.328409, 75.417486,-34.538459, -0.000000,-40.783809, 11.325496
101.307300, 75.447053,-34.578324, -0.000000,-40.773754, 11.304410
101.286084, 75.476571,-34.618107, -0.000000,-40.763734, 11.283218
101.264761, 75.506041,-34.657807, -0.000000,-40.753749, 11.261920
101.243332, 75.535462,-34.697423, -0.000000,-40.743799, 11.240516
101.221797, 75.564834,-34.736956, -0.000000,-40.733884, 11.219005
101.200156, 75.594157,-34.776404, -0.000000,-40.724004, 11.197388
101.178408, 75.623431,-34.815768, -0.000000,-40.714159, 11.175665
101.156553, 75.652654,-34.855048, -0.000000,-40.704349, 11.153836
101.134593, 75.681827,-34.894242, -0.000000,-40.694575, 11.131900
101.112526, 75.710950,-34.933351, -0.000000,-40.684835, 11.109859
101.090353, 75.740021,-34.972375, -0.000000,-40.675130, 11.087711
101.068073, 75.769042,-35.011313, -0.000000,-40.665460, 11.065458
101.045687, 75.798011,-35.050164, -0.000000,-40.655826, 11.043098
101.023195, 75.826928,-35.088929, -0.000000,-40.646227, 11.020632
101.000597, 75.855793,-35.127607, -0.000000,-40.636662, 10.998061
100.977893, 75.884606,-35.166198, -0.000000,-40.627133, 10.975383
100.955083, 75.913365,-35.204701, -0.000000,-40.617639, 10.952600
100.932166, 75.942072,-35.243117, -0.000000,-40.608181, 10.929711
100.909144, 75.970725,-35.281445, -0.000000,-40.598757, 10.906715
100.886015, 75.999324,-35.319684, -0.000000,-40.589369, 10.883615
100.862781, 76.027870,-35.357834, -0.000000,-40.580015, 10.860408
100.839440, 76.056360,-35.395896, -0.000000,-40.570697, 10.837096
100.815994, 76.084796,-35.433868, -0.000000,-40.561415, 10.813678
100.792442, 76.113177,-35.471750, -0.000000,-40.552167, 10.790154
100.768784, 76.141503,-35.509543, -0.000000,-40.542955, 10.766525
100.745020, 76.169773,-35.547245, -0.000000,-40.533778, 10.742791
100.721151, 76.197986,-35.584857, -0.000000,-40.524636, 10.718951
100.697176, 76.226143,-35.622378, -0.000000,-40.515529, 10.695005
100.673096, 76.254244,-35.659808, -0.000000,-40.506458, 10.670955
100.648910, 76.282287,-35.697146, -0.000000,-40.497421, 10.646799
100.624619, 76.310273,-35.734392, -0.000000,-40.488421, 10.622538
100.600222, 76.338201,-35.771547, -0.000000,-40.479455, 10.598172
100.575720, 76.366071,-35.808609, -0.000000,-40.470524, 10.573700
100.551113, 76.393882,-35.845578, -0.000000,-40.461629, 10.549124
100.526401, 76.421635,-35.882454, -0.000000,-40.452769, 10.524443
100.501583, 76.449329,-35.919237, -0.000000,-40.443945, 10.499657
100.476661, 76.476963,-35.955926, -0.000000,-40.435155, 10.474766
100.451634, 76.504538,-35.992522, -0.000000,-40.426401, 10.449771
100.426502, 76.532052,-36.029023, -0.000000,-40.417682, 10.424670
100.401265, 76.559506,-36.065429, -0.000000,-40.408999, 10.399466
100.375924, 76.586900,-36.101741, -0.000000,-40.400350, 10.374157
100.350478, 76.614232,-36.137958, -0.000000,-40.391737, 10.348743
100.324928, 76.641504,-36.174079, -0.000000,-40.383159, 10.323225
100.299274, 76.668713,-36.210104, -0.000000,-40.374617, 10.297603
100.273515, 76.695861,-36.246034, -0.000000,-40.366109, 10.271877
100.247652, 76.722946,-36.281867, -0.000000,-40.357637, 10.246047
100.221685, 76.749969,-36.317603, -0.000000,-40.349200, 10.220112
100.195613, 76.776929,-36.353242, -0.000000,-40.340799, 10.194074
100.169439, 76.803825,-36.388784, -0.000000,-40.332432, 10.167933
100.143160, 76.830659,-36.424229, -0.000000,-40.324101, 10.141687
100.116778, 76.857428,-36.459576, -0.000000,-40.315805, 10.115338
100.090292, 76.884134,-36.494824, -0.000000,-40.307544, 10.088886
100.063702, 76.910775,-36.529974, -0.000000,-40.299318, 10.062330
100.037010, 76.937351,-36.565025, -0.000000,-40.291128, 10.035671
100.010214, 76.963862,-36.599978, -0.000000,-40.282973, 10.008908
 99.983315, 76.990308,-36.634831, -0.000000,-40.274853,  9.982043
 99.956313, 77.016689,-36.669584, -0.000000,-40.266768,  9.955075
 99.929209, 77.043003,-36.704237, -0.000000,-40.258718,  9.928004
 99.902001, 77.069252,-36.738790, -0.000000,-40.250703,  9.900830
 99.874691, 77.095434,-36.773243, -0.000000,-40.242724,  9.873554
 99.847278, 77.121549,-36.807595, -0.000000,-40.234779,  9.846175
 99.819764, 77.147597,-36.841845, -0.000000,-40.226870,  9.818694
 99.792146, 77.173578,-36.875994, -0.000000,-40.218996,  9.791111
 99.764427, 77.199492,-36.910042, -0.000000,-40.211156,  9.763425
 99.736606, 77.225337,-36.943987, -0.000000,-40.203352,  9.735638
 99.708683, 77.251115,-36.977830, -0.000000,-40.195583,  9.707749
 99.680658, 77.276824,-37.011571, -0.000000,-40.187849,  9.679758
 99.652531, 77.302464,-37.045209, -0.000000,-40.180150,  9.651666
 99.624303, 77.328035,-37.078743, -0.000000,-40.172486,  9.623472
 99.595974, 77.353537,-37.112175, -0.000000,-40.164857,  9.595177
 99.567544, 77.378970,-37.145502, -0.000000,-40.157263,  9.566781
 99.539012, 77.404332,-37.178725, -0.000000,-40.149704,  9.538283
 99.510380, 77.429625,-37.211844, -0.000000,-40.142179,  9.509685
 99.481647, 77.454847,-37.244859, -0.000000,-40.134690,  9.480986
 99.452813, 77.479998,-37.277768, -0.000000,-40.127235,  9.452187
 99.423879, 77.505079,-37.310573, -0.000000,-40.119816,  9.423287
 99.394844, 77.530088,-37.343272, -0.000000,-40.112431,  9.394287
 99.365710, 77.555026,-37.375865, -0.000000,-40.105081,  9.365187
 99.336475, 77.579892,-37.408352, -0.000000,-40.097766,  9.335987
 99.307141, 77.604686,-37.440733, -0.000000,-40.090485,  9.306687
 99.277706, 77.629408,-37.473007, -0.000000,-40.083240,  9.277288
 99.248173, 77.654057,-37.505174, -0.000000,-40.076029,  9.247789
 99.218540, 77.678633,-37.537235, -0.000000,-40.068852,  9.218191
 99.188807, 77.703136,-37.569187, -0.000000,-40.061711,  9.188494
 99.158976, 77.727566,-37.601032, -0.000000,-40.054604,  9.158697
 99.129046, 77.751921,-37.632769, -0.000000,-40.047532,  9.128802
 99.099017, 77.776203,-37.664398, -0.000000,-40.040494,  9.098809
 99.068890, 77.800410,-37.695918, -0.000000,-40.033491,  9.068717
 99.038664, 77.824543,-37.727330, -0.000000,-40.026522,  9.038526
 99.008340, 77.848601,-37.758632, -0.000000,-40.019588,  9.008238
 98.977918, 77.872584,-37.789825, -0.000000,-40.012689,  8.977852
 98.947398, 77.896491,-37.820908, -0.000000,-40.005824,  8.947368
 98.916781, 77.920322,-37.851881, -0.000000,-39.998993,  8.916787
 98.886066, 77.944078,-37.882744, -0.000000,-39.992197,  8.886108
 98.855254, 77.967757,-37.913496, -0.000000,-39.985435,  8.855332
 98.824344, 77.991359,-37.944138, -0.000000,-39.978707,  8.824460
 98.793338, 78.014884,-37.974669, -0.000000,-39.972014,  8.793490
 98.762235, 78.038332,-38.005088, -0.000000,-39.965355,  8.762424
 98.731036, 78.061703,-38.035395, -0.000000,-39.958731,  8.731262
 98.699741, 78.084995,-38.065591, -0.000000,-39.952141,  8.700003
 98.668349, 78.108210,-38.095675, -0.000000,-39.945584,  8.668649
 98.636862, 78.131346,-38.125646, -0.000000,-39.939062,  8.637199
 98.605278, 78.154403,-38.155505, -0.000000,-39.932575,  8.605654
 98.573600, 78.177381,-38.185250, -0.000000,-39.926121,  8.574013
 98.541826, 78.200279,-38.214882, -0.000000,-39.919701,  8.542277
 98.509957, 78.223098,-38.244401, -0.000000,-39.913316,  8.510447
 98.477993, 78.245837,-38.273806, -0.000000,-39.906964,  8.478521
 98.445935, 78.268495,-38.303097, -0.000000,-39.900647,  8.446502
 98.413782, 78.291073,-38.332274, -0.000000,-39.894363,  8.414388
 98.381536, 78.313570,-38.361336, -0.000000,-39.888113,  8.382180
 98.349195, 78.335986,-38.390283, -0.000000,-39.881898,  8.349878
 98.316761, 78.358320,-38.419115, -0.000000,-39.875716,  8.317484
 98.284233, 78.380572,-38.447832, -0.000000,-39.869567,  8.284995
 98.251612, 78.402741,-38.476433, -0.000000,-39.863453,  8.252414
 98.218898, 78.424829,-38.504918, -0.000000,-39.857372,  8.219740
 98.186091, 78.446833,-38.533287, -0.000000,-39.851325,  8.186973
 98.153192, 78.468754,-38.561539, -0.000000,-39.845312,  8.154115
 98.120201, 78.490591,-38.589675, -0.000000,-39.839333,  8.121164
 98.087118, 78.512345,-38.617694, -0.000000,-39.833387,  8.088121
 98.053943, 78.534015,-38.645596, -0.000000,-39.827474,  8.054987
 98.020676, 78.555600,-38.673380, -0.000000,-39.821595,  8.021761
 97.987319, 78.577100,-38.701046, -0.000000,-39.815750,  7.988445
 97.953870, 78.598515,-38.728595, -0.000000,-39.809938,  7.955037
 97.920331, 78.619845,-38.756025, -0.000000,-39.804159,  7.921540
 97.886701, 78.641089,-38.783336, -0.000000,-39.798414,  7.887951
 97.852981, 78.662246,-38.810529, -0.000000,-39.792702,  7.854273
 97.819172, 78.683318,-38.837603, -0.000000,-39.787023,  7.820506
 97.785272, 78.704303,-38.864557, -0.000000,-39.781378,  7.786648
 97.751284, 78.725200,-38.891392, -0.000000,-39.775766,  7.752702
 97.717206, 78.746011,-38.918107, -0.000000,-39.770187,  7.718666
 97.683040, 78.766733,-38.944702, -0.000000,-39.764641,  7.684542
 97.648785, 78.787368,-38.971177, -0.000000,-39.759129,  7.650330
 97.614442, 78.807914,-38.997531, -0.000000,-39.753649,  7.616029
 97.580011, 78.828372,-39.023764, -0.000000,-39.748202,  7.581641
 97.545492, 78.848741,-39.049877, -0.000000,-39.742788,  7.547165
 97.510886, 78.869021,-39.075868, -0.000000,-39.737408,  7.512602
 97.476193, 78.889211,-39.101737, -0.000000,-39.732060,  7.477952
 97.441413, 78.909312,-39.127484, -0.000000,-39.726745,  7.443216
 97.406547, 78.929322,-39.153110, -0.000000,-39.721462,  7.408393
 97.371595, 78.949242,-39.178613, -0.000000,-39.716213,  7.373484
 97.336557, 78.969071,-39.203994, -0.000000,-39.710996,  7.338489
 97.301433, 78.988809,-39.229251, -0.000000,-39.705812,  7.303409
 97.266225, 79.008456,-39.254386, -0.000000,-39.700661,  7.268243
 97.230931, 79.028011,-39.279397, -0.000000,-39.695542,  7.232993
 97.195553, 79.047475,-39.304285, -0.000000,-39.690455,  7.197658
 97.160090, 79.066846,-39.329049, -0.000000,-39.685401,  7.162239
 97.124543, 79.086125,-39.353689, -0.000000,-39.680380,  7.126736
 97.088913, 79.105311,-39.378205, -0.000000,-39.675391,  7.091150
 97.053200, 79.124404,-39.402596, -0.000000,-39.670434,  7.055480
 97.017403, 79.143403,-39.426863, -0.000000,-39.665510,  7.019727
 96.981524, 79.162309,-39.451004, -0.000000,-39.660618,  6.983892
 96.945562, 79.181121,-39.475021, -0.000000,-39.655758,  6.947974
 96.909518, 79.199840,-39.498912, -0.000000,-39.650930,  6.911975
 96.873393, 79.218463,-39.522677, -0.000000,-39.646134,  6.875893
 96.837186, 79.236992,-39.546316, -0.000000,-39.641371,  6.839731
 96.800899, 79.255426,-39.569829, -0.000000,-39.636639,  6.803487
 96.764530, 79.273765,-39.593216, -0.000000,-39.631940,  6.767163
 96.728081, 79.292008,-39.616476, -0.000000,-39.627272,  6.730758
 96.691553, 79.310156,-39.639609, -0.000000,-39.622637,  6.694274
 96.654944, 79.328208,-39.662615, -0.000000,-39.618033,  6.657709
 96.618256, 79.346163,-39.685494, -0.000000,-39.613461,  6.621066
 96.581490, 79.364022,-39.708246, -0.000000,-39.608921,  6.584344
 96.544644, 79.381784,-39.730869, -0.000000,-39.604412,  6.547542
 96.507720, 79.399449,-39.753365, -0.000000,-39.599935,  6.510663
 96.470719, 79.417017,-39.775732, -0.000000,-39.595490,  6.473706
 96.433639, 79.434487,-39.797971, -0.000000,-39.591076,  6.436671
 96.396483, 79.451860,-39.820082, -0.000000,-39.586694,  6.399560
 96.359250, 79.469135,-39.842063, -0.000000,-39.582344,  6.362371
 96.321940, 79.486311,-39.863916, -0.000000,-39.578024,  6.325106
 96.284554, 79.503389,-39.885639, -0.000000,-39.573737,  6.287765
 96.247092, 79.520368,-39.907232, -0.000000,-39.569480,  6.250348
 96.209555, 79.537248,-39.928696, -0.000000,-39.565255,  6.212856
 96.171943, 79.554029,-39.950030, -0.000000,-39.561061,  6.175288
 96.134256, 79.570710,-39.971234, -0.000000,-39.556898,  6.137647
 96.096495, 79.587292,-39.992307, -0.000000,-39.552766,  6.099930
 96.058660, 79.603774,-40.013250, -0.000000,-39.548666,  6.062141
 96.020751, 79.620155,-40.034061, -0.000000,-39.544597,  6.024277
 95.982769, 79.636435,-40.054742, -0.000000,-39.540559,  5.986340
 95.944715, 79.652615,-40.075291, -0.000000,-39.536552,  5.948331
 95.906587, 79.668694,-40.095708, -0.000000,-39.532576,  5.910248
 95.868388, 79.684670,-40.115993, -0.000000,-39.528631,  5.872094
 95.830116, 79.700545,-40.136145, -0.000000,-39.524717,  5.833867
 95.791773, 79.716317,-40.156165, -0.000000,-39.520835,  5.795569
 95.753358, 79.731986,-40.176051, -0.000000,-39.516984,  5.757199
 95.714873, 79.747552,-40.195803, -0.000000,-39.513164,  5.718758
 95.676317, 79.763014,-40.215421, -0.000000,-39.509376,  5.680247
 95.637690, 79.778371,-40.234905, -0.000000,-39.505619,  5.641664
 95.598994, 79.793623,-40.254253, -0.000000,-39.501894,  5.603011
 95.560227, 79.808770,-40.273465, -0.000000,-39.498200,  5.564288
 95.521391, 79.823810,-40.292542, -0.000000,-39.494539,  5.525495
 95.482486, 79.838744,-40.311481, -0.000000,-39.490909,  5.486633
 95.443512, 79.853570,-40.330283, -0.000000,-39.487312,  5.447700
 95.404469, 79.868287,-40.348946, -0.000000,-39.483746,  5.408699
 95.365357, 79.882896,-40.367471, -0.000000,-39.480213,  5.369628
 95.326177, 79.897394,-40.385856, -0.000000,-39.476713,  5.330489
 95.286930, 79.911783,-40.404100, -0.000000,-39.473245,  5.291280
 95.247614, 79.926059,-40.422204, -0.000000,-39.469810,  5.252004
 95.208231, 79.940224,-40.440166, -0.000000,-39.466408,  5.212659
 95.168781, 79.954275,-40.457985, -0.000000,-39.463040,  5.173247
 95.129263, 79.968213,-40.475661, -0.000000,-39.459704,  5.133766
 95.089679, 79.982035,-40.493193, -0.000000,-39.456402,  5.094219
 95.050029, 79.995742,-40.510579, -0.000000,-39.453134,  5.054604
 95.010312, 80.009332,-40.527820, -0.000000,-39.449899,  5.014922
 94.970530, 80.022804,-40.544913, -0.000000,-39.446698,  4.975174
 94.930682, 80.036158,-40.561859, -0.000000,-39.443532,  4.935359
 94.890768, 80.049392,-40.578656, -0.000000,-39.440399,  4.895479
 94.850790, 80.062506,-40.595304, -0.000000,-39.437300,  4.855533
 94.810747, 80.075498,-40.611801, -0.000000,-39.434236,  4.815523
 94.770639, 80.088367,-40.628147, -0.000000,-39.431207,  4.775447
 94.730468, 80.101114,-40.644340, -0.000000,-39.428211,  4.735307
 94.690233, 80.113736,-40.660381, -0.000000,-39.425250,  4.695104
 94.649935, 80.126232,-40.676267, -0.000000,-39.422324,  4.654837
 94.609574, 80.138603,-40.691998, -0.000000,-39.419433,  4.614507
 94.569150, 80.150846,-40.707573, -0.000000,-39.416575,  4.574115
 94.528664, 80.162962,-40.722991, -0.000000,-39.413753,  4.533661
 94.488117, 80.174948,-40.738251, -0.000000,-39.410965,  4.493146
 94.447509, 80.186805,-40.753353, -0.000000,-39.408212,  4.452570
 94.406840, 80.198531,-40.768295, -0.000000,-39.405493,  4.411934
 94.366110, 80.210126,-40.783077, -0.000000,-39.402808,  4.371239
 94.325322, 80.221589,-40.797698, -0.000000,-39.400158,  4.330485
 94.284474, 80.232920,-40.812157, -0.000000,-39.397542,  4.289673
 94.243567, 80.244116,-40.826454, -0.000000,-39.394960,  4.248803
 94.202603, 80.255179,-40.840587, -0.000000,-39.392412,  4.207877
 94.161581, 80.266107,-40.854555, -0.000000,-39.389898,  4.166895
 94.120502, 80.276899,-40.868359, -0.000000,-39.387417,  4.125857
 94.079367, 80.287556,-40.881998, -0.000000,-39.384970,  4.084766
 94.038177, 80.298076,-40.895470, -0.000000,-39.382556,  4.043620
 93.996932, 80.308460,-40.908776, -0.000000,-39.380176,  4.002421
 93.955633, 80.318707,-40.921915, -0.000000,-39.377828,  3.961171
 93.914281, 80.328816,-40.934886, -0.000000,-39.375512,  3.919869
 93.872875, 80.338788,-40.947690, -0.000000,-39.373229,  3.878516
 93.831418, 80.348621,-40.960324, -0.000000,-39.370979,  3.837114
 93.789910, 80.358317,-40.972790, -0.000000,-39.368760,  3.795663
 93.748351, 80.367875,-40.985087, -0.000000,-39.366573,  3.754164
 93.706743, 80.377295,-40.997215, -0.000000,-39.364417,  3.712617
 93.665086, 80.386576,-41.009173, -0.000000,-39.362293,  3.671024
 93.623380, 80.395719,-41.020961, -0.000000,-39.360199,  3.629385
 93.581628, 80.404725,-41.032580, -0.000000,-39.358136,  3.587702
 93.539829, 80.413593,-41.044028, -0.000000,-39.356104,  3.545975
 93.497985, 80.422323,-41.055307, -0.000000,-39.354101,  3.504204
 93.456096, 80.430916,-41.066416, -0.000000,-39.352129,  3.462391
 93.414163, 80.439373,-41.077355, -0.000000,-39.350186,  3.420537
 93.372188, 80.447693,-41.088125, -0.000000,-39.348273,  3.378641
 93.330170, 80.455877,-41.098725, -0.000000,-39.346389,  3.336706
 93.288111, 80.463926,-41.109156, -0.000000,-39.344533,  3.294731
 93.246012, 80.471840,-41.119418, -0.000000,-39.342707,  3.252718
 93.203874, 80.479620,-41.129512, -0.000000,-39.340909,  3.210667
 93.161696, 80.487266,-41.139438, -0.000000,-39.339139,  3.168579
 93.119482, 80.494780,-41.149197, -0.000000,-39.337397,  3.126455
 93.077230, 80.502162,-41.158788, -0.000000,-39.335683,  3.084295
 93.034942, 80.509413,-41.168214, -0.000000,-39.333997,  3.042100
 92.992620, 80.516533,-41.177473, -0.000000,-39.332339,  2.999871
 92.950263, 80.523524,-41.186567, -0.000000,-39.330707,  2.957608
 92.907873, 80.530387,-41.195497, -0.000000,-39.329103,  2.915312
 92.865450, 80.537122,-41.204263, -0.000000,-39.327526,  2.872984
 92.822995, 80.543731,-41.212866, -0.000000,-39.325976,  2.830624
 92.780510, 80.550215,-41.221308, -0.000000,-39.324453,  2.788234
 92.737994, 80.556574,-41.229588, -0.000000,-39.322956,  2.745812
 92.695450, 80.562810,-41.237708, -0.000000,-39.321486,  2.703361
 92.652877, 80.568924,-41.245669, -0.000000,-39.320042,  2.660881
 92.610276, 80.574917,-41.253472, -0.000000,-39.318624,  2.618371
 92.567648, 80.580790,-41.261118, -0.000000,-39.317233,  2.575834
 92.524994, 80.586545,-41.268608, -0.000000,-39.315868,  2.533269
 92.482314, 80.592182,-41.275943, -0.000000,-39.314529,  2.490676
 92.439610, 80.597703,-41.283125, -0.000000,-39.313216,  2.448057
 92.396881, 80.603108,-41.290153, -0.000000,-39.311929,  2.405412
 92.354130, 80.608400,-41.297031, -0.000000,-39.310668,  2.362741
 92.311355, 80.613579,-41.303758, -0.000000,-39.309432,  2.320045
 92.268559, 80.618647,-41.310336, -0.000000,-39.308223,  2.277325
 92.225740, 80.623604,-41.316767, -0.000000,-39.307039,  2.234580
 92.182902, 80.628452,-41.323051, -0.000000,-39.305880,  2.191812
 92.140042, 80.633192,-41.329191, -0.000000,-39.304747,  2.149020
 92.097164, 80.637825,-41.335186, -0.000000,-39.303640,  2.106206
 92.054266, 80.642352,-41.341040, -0.000000,-39.302558,  2.063369
 92.011349, 80.646774,-41.346752, -0.000000,-39.301502,  2.020511
 91.968414, 80.651093,-41.352324, -0.000000,-39.300471,  1.977631
 91.925462, 80.655310,-41.357758, -0.000000,-39.299465,  1.934731
 91.882493, 80.659424,-41.363054, -0.000000,-39.298484,  1.891810
 91.839507, 80.663439,-41.368215, -0.000000,-39.297528,  1.848870
 91.796505, 80.667353,-41.373242, -0.000000,-39.296598,  1.805910
 91.753487, 80.671169,-41.378135, -0.000000,-39.295692,  1.762931
 91.710454, 80.674887,-41.382897, -0.000000,-39.294812,  1.719933
 91.667407, 80.678509,-41.387528, -0.000000,-39.293956,  1.676918
 91.624344, 80.682034,-41.392030, -0.000000,-39.293124,  1.633885
 91.581268, 80.685464,-41.396403, -0.000000,-39.292318,  1.590835
 91.538178, 80.688799,-41.400650, -0.000000,-39.291536,  1.547768
 91.495074, 80.692041,-41.404772, -0.000000,-39.290778,  1.504685
 91.451958, 80.695189,-41.408769, -0.000000,-39.290044,  1.461587
 91.408829, 80.698245,-41.412644, -0.000000,-39.289335,  1.418473
 91.365688, 80.701208,-41.416396, -0.000000,-39.288649,  1.375345
 91.322534, 80.704080,-41.420028, -0.000000,-39.287988,  1.332203
 91.279369, 80.706862,-41.423540, -0.000000,-39.287350,  1.289047
 91.236193, 80.709552,-41.426933, -0.000000,-39.286736,  1.245878
 91.193006, 80.712153,-41.430209, -0.000000,-39.286145,  1.202697
 91.149808, 80.714663,-41.433369, -0.000000,-39.285577,  1.159503
 91.106599, 80.717084,-41.436413, -0.000000,-39.285033,  1.116298
 91.063380, 80.719416,-41.439342, -0.000000,-39.284511,  1.073081
 91.020152, 80.721659,-41.442158, -0.000000,-39.284013,  1.029854
 90.976914, 80.723812,-41.444861, -0.000000,-39.283537,  0.986616
 90.933666, 80.725877,-41.447452, -0.000000,-39.283084,  0.943369
 90.890410, 80.727854,-41.449932, -0.000000,-39.282653,  0.900112
 90.847145, 80.729741,-41.452302, -0.000000,-39.282244,  0.856847
 90.803872, 80.731540,-41.454561, -0.000000,-39.281857,  0.813573
 90.760590, 80.733250,-41.456712, -0.000000,-39.281493,  0.770292
 90.717301, 80.734871,-41.458754, -0.000000,-39.281150,  0.727004
 90.674004, 80.736404,-41.460689, -0.000000,-39.280829,  0.683708
 90.630699, 80.737847,-41.462516, -0.000000,-39.280529,  0.640406
 90.587388, 80.739201,-41.464236, -0.000000,-39.280251,  0.597099
 90.544071, 80.740465,-41.465850, -0.000000,-39.279995,  0.553786
 90.500747, 80.741640,-41.467358, -0.000000,-39.279759,  0.510468
 90.457417, 80.742724,-41.468760, -0.000000,-39.279545,  0.467145
 90.414081, 80.743718,-41.470056, -0.000000,-39.279351,  0.423818
 90.370740, 80.744622,-41.471248, -0.000000,-39.279179,  0.380488
 90.327394, 80.745434,-41.472334, -0.000000,-39.279027,  0.337154
 90.284044, 80.746154,-41.473316, -0.000000,-39.278896,  0.293818
 90.240689, 80.746783,-41.474192, -0.000000,-39.278787,  0.250479
 90.197331, 80.747319,-41.474964, -0.000000,-39.278697,  0.207138
 90.153968, 80.747762,-41.475631, -0.000000,-39.278629,  0.163796
 90.110603, 80.748112,-41.476193, -0.000000,-39.278581,  0.120452
 90.067235, 80.748367,-41.476651, -0.000000,-39.278554,  0.077108
 90.023864, 80.748528,-41.477003,  0.000000,-39.278548,  0.033764
 89.980492, 80.748594,-41.477250,  0.000000,-39.278563, -0.009581
 89.937118, 80.748565,-41.477391,  0.000000,-39.278598, -0.052925
 89.893743, 80.748439,-41.477426,  0.000000,-39.278654, -0.096269
 89.850367, 80.748216,-41.477355,  0.000000,-39.278731, -0.139611
 89.806990, 80.747896,-41.477178,  0.000000,-39.278830, -0.182951
 89.763614, 80.747478,-41.476893,  0.000000,-39.278949, -0.226290
 89.720239, 80.746962,-41.476501,  0.000000,-39.279089, -0.269627
 89.676864, 80.746346,-41.476001,  0.000000,-39.279251, -0.312960
 89.633491, 80.745630,-41.475392,  0.000000,-39.279434, -0.356291
 89.590120, 80.744814,-41.474674,  0.000000,-39.279638, -0.399618
 89.546752, 80.743898,-41.473847,  0.000000,-39.279864, -0.442942
 89.503386, 80.742879,-41.472909,  0.000000,-39.280112, -0.486261
 89.460024, 80.741759,-41.471861,  0.000000,-39.280382, -0.529576
 89.416666, 80.740537,-41.470701,  0.000000,-39.280673, -0.572886
 89.373312, 80.739211,-41.469429,  0.000000,-39.280986, -0.616191
 89.329963, 80.737782,-41.468044,  0.000000,-39.281322, -0.659490
 89.286619, 80.736249,-41.466545,  0.000000,-39.281680, -0.702783
 89.243281, 80.734612,-41.464932,  0.000000,-39.282060, -0.746070
 89.199950, 80.732870,-41.463205,  0.000000,-39.282462, -0.789350
 89.156626, 80.731023,-41.461361,  0.000000,-39.282887, -0.832623
 89.113309, 80.729071,-41.459401,  0.000000,-39.283335, -0.875888
 89.070000, 80.727013,-41.457324,  0.000000,-39.283806, -0.919146
 89.026699, 80.724848,-41.455128,  0.000000,-39.284299, -0.962395
 88.983408, 80.722578,-41.452814,  0.000000,-39.284815, -1.005636
 88.940126, 80.720200,-41.450381,  0.000000,-39.285355, -1.048867
 88.896854, 80.717716,-41.447827,  0.000000,-39.285918, -1.092089
 88.853593, 80.715124,-41.445151,  0.000000,-39.286503, -1.135301
 88.810342, 80.712425,-41.442354,  0.000000,-39.287113, -1.178502
 88.767103, 80.709619,-41.439435,  0.000000,-39.287745, -1.221693
 88.723877, 80.706704,-41.436392,  0.000000,-39.288402, -1.264873
 88.680663, 80.703682,-41.433224,  0.000000,-39.289081, -1.308041
 88.637462, 80.700553,-41.429932,  0.000000,-39.289785, -1.351197
 88.594274, 80.697315,-41.426513,  0.000000,-39.290512, -1.394340
 88.551101, 80.693968,-41.422969,  0.000000,-39.291263, -1.437470
 88.507943, 80.690514,-41.419297,  0.000000,-39.292038, -1.480587
 88.464799, 80.686952,-41.415496,  0.000000,-39.292836, -1.523690
 88.421671, 80.683281,-41.411568,  0.000000,-39.293659, -1.566778
 88.378560, 80.679502,-41.407509,  0.000000,-39.294506, -1.609852
 88.335465, 80.675614,-41.403320,  0.000000,-39.295377, -1.652910
 88.292388, 80.671618,-41.399000,  0.000000,-39.296273, -1.695952
 88.249328, 80.667514,-41.394549,  0.000000,-39.297192, -1.738978
 88.206286, 80.663302,-41.389965,  0.000000,-39.298136, -1.781987
 88.163263, 80.658981,-41.385248,  0.000000,-39.299105, -1.824979
 88.120259, 80.654552,-41.380397,  0.000000,-39.300098, -1.867952
 88.077275, 80.650014,-41.375412,  0.000000,-39.301115, -1.910907
 88.034310, 80.645368,-41.370291,  0.000000,-39.302157, -1.953843
 87.991367, 80.640614,-41.365035,  0.000000,-39.303224, -1.996759
 87.948445, 80.635751,-41.359642,  0.000000,-39.304316, -2.039655
 87.905544, 80.630780,-41.354112,  0.000000,-39.305433, -2.082531
 87.862666, 80.625701,-41.348445,  0.000000,-39.306575, -2.125385
 87.819810, 80.620513,-41.342639,  0.000000,-39.307743, -2.168217
 87.776977, 80.615216,-41.336694,  0.000000,-39.308935, -2.211027
 87.734169, 80.609811,-41.330609,  0.000000,-39.310153, -2.253813
 87.691384, 80.604298,-41.324385,  0.000000,-39.311396, -2.296576
 87.648624, 80.598675,-41.318020,  0.000000,-39.312666, -2.339315
 87.605889, 80.592944,-41.311513,  0.000000,-39.313960, -2.382029
 87.563180, 80.587103,-41.304864,  0.000000,-39.315281, -2.424717
 87.520497, 80.581153,-41.298074,  0.000000,-39.316628, -2.467380
 87.477840, 80.575094,-41.291140,  0.000000,-39.318002, -2.510016
 87.435211, 80.568926,-41.284062,  0.000000,-39.319401, -2.552624
 87.392610, 80.562647,-41.276841,  0.000000,-39.320827, -2.595204
 87.350037, 80.556259,-41.269475,  0.000000,-39.322280, -2.637756
 87.307493, 80.549760,-41.261964,  0.000000,-39.323760, -2.680279
 87.264978, 80.543150,-41.254308,  0.000000,-39.325267, -2.722772
 87.222494, 80.536430,-41.246505,  0.000000,-39.326801, -2.765234
 87.180040, 80.529598,-41.238556,  0.000000,-39.328363, -2.807666
 87.137616, 80.522654,-41.230460,  0.000000,-39.329952, -2.850065
 87.095225, 80.515599,-41.222217,  0.000000,-39.331569, -2.892432
 87.052866, 80.508431,-41.213825,  0.000000,-39.333214, -2.934767
 87.010540, 80.501150,-41.205285,  0.000000,-39.334888, -2.977067
 86.968247, 80.493755,-41.196596,  0.000000,-39.336590, -3.019333
 86.925988, 80.486247,-41.187758,  0.000000,-39.338320, -3.061564
 86.883764, 80.478624,-41.178770,  0.000000,-39.340079, -3.103759
 86.841575, 80.470886,-41.169631,  0.000000,-39.341868, -3.145918
 86.799421, 80.463033,-41.160342,  0.000000,-39.343685, -3.188040
 86.757305, 80.455063,-41.150902,  0.000000,-39.345532, -3.230124
 86.715225, 80.446977,-41.141311,  0.000000,-39.347409, -3.272170
 86.673184, 80.438774,-41.131567,  0.000000,-39.349316, -3.314177
 86.631181, 80.430452,-41.121671,  0.000000,-39.351252, -3.356144
 86.589216, 80.422012,-41.111622,  0.000000,-39.353219, -3.398071
 86.547292, 80.413453,-41.101420,  0.000000,-39.355216, -3.439957
 86.505408, 80.404774,-41.091065,  0.000000,-39.357244, -3.481801
 86.463566, 80.395974,-41.080555,  0.000000,-39.359303, -3.523603
 86.421765, 80.387053,-41.069891,  0.000000,-39.361392, -3.565361
 86.380007, 80.378010,-41.059072,  0.000000,-39.363513, -3.607077
 86.338292, 80.368845,-41.048098,  0.000000,-39.365665, -3.648747
