SHIH-XIAN-YANG/Robotic-vitual-system/run/exp1/log/joint_vel.txt
# Joint1, Joint2, Joint3, Joint4, Joint5, Joint6
  0.000000,  0.000000,  0.000000,  0.000000,  0.000000,  0.000000
  0.000000,  0.000000,  0.000000,  0.000000,  0.000000,  0.000000
  0.000000,  0.000000,  0.000000,  0.000000,  0.000000,  0.000000
  0.000000,  0.000000,  0.000000,  0.000000,  0.000000,  0.000000
  0.000000,  0.000000,  0.000000,  0.000000,  0.000000,  0.000000
  0.000000,  0.000000,  0.000000,  0.000000,  0.000000,  0.000000
  0.000000,  0.000000,  0.000000,  0.000000,  0.000000,  0.000000
  0.000000,  0.000000,  0.000000,  0.000000,  0.000000,  0.000000
  0.000000,  0.000000,  0.000000,  0.000000,  0.000000,  0.000000
  0.000000,  0.000000,  0.000000,  0.000000,  0.000000,  0.000000
  0.000000,  0.000000,  0.000000,  0.000000,  0.000000,  0.000000
  0.000000,  0.000000,  0.000000,  0.000000,  0.000000,  0.000000
  0.000000,  0.000000,  0.000000,  0.000000,  0.000000,  0.000000
  0.000000,  0.000000,  0.000000,  0.000000,  0.000000,  0.000000
  0.000000,  0.000000,  0.000000,  0.000000,  0.000000,  0.000000
  0.000000,  0.000000,  0.000000,  0.000000,  0.000000,  0.000000
  0.000000,  0.000000,  0.000000,  0.000000,  0.000000,  0.000000
  0.000000,  0.000000,  0.000000,  0.000000,  0.000000,  0.000000
  0.000000,  0.000000,  0.000000,  0.000000,  0.000000,  0.000000
  0.000003,  0.000000,  0.000000,  0.000000,  0.000000,  0.000005
  0.000018,  0.000000,  0.000000,  0.000000,  0.000000,  0.000029
  0.000060,  0.000000,  0.000000,  0.000000,  0.000000,  0.000095
  0.000150,  0.000000,  0.000000,  0.000000,  0.000000,  0.000236
  0.000313,  0.000000,  0.000000,  0.000000,  0.000000,  0.000493
  0.000582,  0.000000,  0.000000,  0.000000,  0.000000,  0.000914
  0.000993,  0.000000, -0.000000,  0.000000,  0.000000,  0.001555
  0.001588,  0.000000, -0.000000,  0.000000,  0.000000,  0.002478
  0.002413,  0.000000, -0.000000,  0.000000,  0.000000,  0.003753
  0.003518,  0.000000, -0.000000,  0.000000,  0.000000,  0.005452
  0.004959,  0.000000, -0.000000,  0.000000,  0.000000,  0.007654
  0.006793,  0.000000, -0.000000,  0.000000,  0.000000,  0.010442
  0.009082,  0.000000, -0.000000,  0.000000,  0.000000,  0.013901
  0.011890,  0.000000, -0.000000,  0.000000,  0.000000,  0.018119
  0.015285,  0.000000, -0.000000,  0.000000,  0.000000,  0.023185
  0.019336,  0.000000, -0.000001,  0.000000,  0.000001,  0.029190
  0.024114,  0.000001, -0.000001,  0.000000,  0.000001,  0.036224
  0.029693,  0.000001, -0.000001,  0.000000,  0.000001,  0.044376
  0.036145,  0.000001, -0.000002,  0.000000,  0.000002,  0.053735
  0.043546,  0.000002, -0.000003,  0.000000,  0.000003,  0.064387
  0.051971,  0.000003, -0.000004,  0.000000,  0.000004,  0.076417
  0.061493,  0.000004, -0.000005,  0.000000,  0.000005,  0.089904
  0.072188,  0.000005, -0.000006,  0.000000,  0.000007,  0.104924
  0.084130,  0.000007, -0.000009,  0.000000,  0.000009,  0.121551
  0.097389,  0.000009, -0.000011,  0.000000,  0.000012,  0.139851
  0.112038,  0.000011, -0.000014,  0.000000,  0.000015,  0.159885
  0.128146,  0.000014, -0.000019,  0.000000,  0.000020,  0.181711
  0.145778,  0.000018, -0.000024,  0.000000,  0.000025,  0.205379
  0.165000,  0.000023, -0.000030,  0.000000,  0.000032,  0.230932
  0.185873,  0.000029, -0.000038,  0.000000,  0.000039,  0.258407
  0.208455,  0.000036, -0.000047,  0.000000,  0.000049,  0.287836
  0.232802,  0.000045, -0.000058,  0.000000,  0.000060,  0.319242
  0.258965,  0.000055, -0.000071,  0.000000,  0.000073,  0.352643
  0.286992,  0.000067, -0.000086,  0.000000,  0.000089,  0.388048
  0.316927,  0.000081, -0.000105,  0.000000,  0.000108,  0.425462
  0.348808,  0.000098, -0.000126,  0.000000,  0.000129,  0.464882
  0.382673,  0.000117, -0.000151,  0.000000,  0.000154,  0.506298
  0.418552,  0.000140, -0.000181,  0.000000,  0.000183,  0.549694
  0.456471,  0.000166, -0.000215,  0.000000,  0.000217,  0.595050
  0.496452,  0.000197, -0.000254,  0.000000,  0.000255,  0.642338
  0.538512,  0.000232, -0.000299, -0.000000,  0.000299,  0.691525
  0.582665,  0.000272, -0.000351, -0.000000,  0.000349,  0.742574
  0.628917,  0.000317, -0.000411, -0.000000,  0.000405,  0.795444
  0.677273,  0.000369, -0.000478, -0.000000,  0.000470,  0.850088
  0.727731,  0.000428, -0.000555, -0.000000,  0.000542,  0.906457
  0.780285,  0.000495, -0.000642, -0.000000,  0.000623,  0.964499
  0.834925,  0.000571, -0.000740, -0.000000,  0.000714,  1.024158
  0.891637,  0.000655, -0.000850, -0.000000,  0.000816,  1.085377
  0.950400,  0.000751, -0.000974, -0.000000,  0.000929,  1.148097
  1.011193,  0.000857, -0.001113, -0.000000,  0.001055,  1.212257
  1.073989,  0.000976, -0.001268, -0.000000,  0.001195,  1.277798
  1.138757,  0.001109, -0.001441, -0.000000,  0.001350,  1.344659
  1.205463,  0.001256, -0.001634, -0.000000,  0.001521,  1.412779
  1.274070,  0.001419, -0.001847, -0.000000,  0.001709,  1.482098
  1.344537,  0.001599, -0.002084, -0.000000,  0.001915,  1.552560
  1.416822,  0.001799, -0.002345, -0.000000,  0.002142,  1.624107
  1.490879,  0.002019, -0.002634, -0.000000,  0.002390,  1.696686
  1.566659,  0.002260, -0.002951, -0.000000,  0.002660,  1.770245
  1.644112,  0.002526, -0.003300, -0.000000,  0.002956,  1.844736
  1.723187,  0.002816, -0.003683, -0.000000,  0.003277,  1.920113
  1.803831,  0.003134, -0.004102, -0.000000,  0.003626,  1.996334
  1.885989,  0.003482, -0.004560, -0.000000,  0.004004,  2.073362
  1.969606,  0.003861, -0.005061, -0.000000,  0.004414,  2.151163
  2.054626,  0.004273, -0.005606, -0.000000,  0.004856,  2.229707
  2.140993,  0.004721, -0.006200, -0.000000,  0.005334,  2.308969
  2.228650,  0.005207, -0.006845, -0.000000,  0.005849,  2.388928
  2.317541,  0.005735, -0.007545, -0.000000,  0.006404,  2.469568
  2.407613,  0.006305, -0.008303, -0.000000,  0.006999,  2.550878
  2.498808,  0.006922, -0.009124, -0.000000,  0.007639,  2.632849
  2.591076,  0.007588, -0.010011, -0.000000,  0.008324,  2.715480
  2.684362,  0.008305, -0.010969, -0.000000,  0.009057,  2.798772
  2.778617,  0.009077, -0.012002, -0.000000,  0.009842,  2.882731
  2.873792,  0.009908, -0.013113, -0.000000,  0.010679,  2.967369
  2.969841,  0.010800, -0.014309, -0.000000,  0.011573,  3.052698
  3.066718,  0.011757, -0.015594, -0.000000,  0.012524,  3.138737
  3.164383,  0.012782, -0.016973, -0.000000,  0.013537,  3.225508
  3.262795,  0.013880, -0.018450, -0.000000,  0.014614,  3.313036
  3.361919,  0.015054, -0.020033, -0.000000,  0.015758,  3.401348
  3.461720,  0.016307, -0.021726, -0.000000,  0.016972,  3.490476
  3.562169,  0.017645, -0.023535, -0.000000,  0.018258,  3.580452
  3.663238,  0.019070, -0.025467, -0.000000,  0.019621,  3.671311
  3.764903,  0.020588, -0.027527, -0.000000,  0.021063,  3.763092
  3.867143,  0.022204, -0.029722, -0.000000,  0.022587,  3.855831
  3.969942,  0.023921, -0.032059, -0.000000,  0.024196,  3.949569
  4.073285,  0.025744, -0.034546, -0.000000,  0.025895,  4.044346
  4.177163,  0.027678, -0.037188, -0.000000,  0.027687,  4.140203
  4.281568,  0.029729, -0.039993, -0.000000,  0.029574,  4.237179
  4.386497,  0.031902, -0.042970, -0.000000,  0.031562,  4.335317
  4.491951,  0.034201, -0.046126, -0.000000,  0.033653,  4.434654
  4.597934,  0.036632, -0.049469, -0.000000,  0.035851,  4.535232
  4.704451,  0.039201, -0.053007, -0.000000,  0.038160,  4.637086
  4.811514,  0.041913, -0.056750, -0.000000,  0.040585,  4.740254
  4.919136,  0.044775, -0.060705, -0.000000,  0.043129,  4.844770
  5.027334,  0.047793, -0.064883, -0.000000,  0.045797,  4.950667
  5.136126,  0.050971, -0.069291, -0.000000,  0.048592,  5.057975
  5.245536,  0.054318, -0.073941, -0.000000,  0.051519,  5.166722
  5.355587,  0.057839, -0.078841, -0.000000,  0.054583,  5.276933
  5.466308,  0.061540, -0.084002, -0.000000,  0.057788,  5.388632
  5.577729,  0.065430, -0.089434, -0.000000,  0.061138,  5.501838
  5.689880,  0.069513, -0.095147, -0.000000,  0.064639,  5.616567
  5.802797,  0.073798, -0.101154, -0.000000,  0.068295,  5.732835
  5.916514,  0.078292, -0.107463, -0.000000,  0.072111,  5.850652
  6.031068,  0.083002, -0.114088, -0.000000,  0.076092,  5.970025
  6.146499,  0.087934, -0.121040, -0.000000,  0.080243,  6.090960
  6.262846,  0.093098, -0.128330, -0.000000,  0.084570,  6.213458
  6.380148,  0.098501, -0.135970, -0.000000,  0.089077,  6.337517
  6.498449,  0.104150, -0.143974, -0.000000,  0.093771,  6.463135
  6.617789,  0.110054, -0.152353, -0.000000,  0.098656,  6.590303
  6.738210,  0.116221, -0.161121, -0.000000,  0.103738,  6.719011
  6.859754,  0.122659, -0.170292, -0.000000,  0.109024,  6.849249
  6.982463,  0.129377, -0.179877, -0.000000,  0.114518,  6.981000
  7.106379,  0.136384, -0.189892, -0.000000,  0.120228,  7.114249
  7.231542,  0.143687, -0.200350, -0.000000,  0.126158,  7.248975
  7.357993,  0.151296, -0.211266, -0.000000,  0.132316,  7.385159
  7.485770,  0.159221, -0.222654, -0.000000,  0.138708,  7.522778
  7.614912,  0.167471, -0.234529, -0.000000,  0.145339,  7.661808
  7.745455,  0.176054, -0.246907, -0.000000,  0.152217,  7.802223
  7.877434,  0.184981, -0.259802, -0.000000,  0.159348,  7.943998
  8.010882,  0.194261, -0.273231, -0.000000,  0.166739,  8.087106
  8.145832,  0.203904, -0.287209, -0.000000,  0.174398,  8.231519
  8.282312,  0.213920, -0.301753, -0.000000,  0.182330,  8.377210
  8.420350,  0.224320, -0.316880, -0.000000,  0.190544,  8.524151
  8.559972,  0.235113, -0.332606, -0.000000,  0.199046,  8.672315
  8.701200,  0.246311, -0.348948, -0.000000,  0.207845,  8.821674
  8.844055,  0.257923, -0.365924, -0.000000,  0.216946,  8.972202
  8.988556,  0.269962, -0.383552, -0.000000,  0.226360,  9.123872
  9.134717,  0.282437, -0.401850, -0.000000,  0.236092,  9.276660
  9.282551,  0.295360, -0.420835, -0.000000,  0.246151,  9.430543
  9.432070,  0.308743, -0.440528, -0.000000,  0.256546,  9.585497
  9.583280,  0.322596, -0.460946, -0.000000,  0.267284,  9.741502
  9.736187,  0.336932, -0.482108, -0.000000,  0.278373,  9.898538
  9.890794,  0.351763, -0.504036, -0.000000,  0.289823, 10.056587
 10.047099,  0.367100, -0.526747, -0.000000,  0.301641, 10.215634
 10.205101,  0.382956, -0.550263, -0.000000,  0.313837, 10.375665
 10.364794,  0.399342, -0.574604, -0.000000,  0.326420, 10.536666
 10.526169,  0.416273, -0.599790, -0.000000,  0.339398, 10.698629
 10.689218,  0.433760, -0.625843, -0.000000,  0.352780, 10.861545
 10.853927,  0.451817, -0.652783, -0.000000,  0.366577, 11.025408
 11.020281,  0.470456, -0.680634, -0.000000,  0.380797, 11.190214
 11.188264,  0.489690, -0.709416, -0.000000,  0.395449, 11.355961
 11.357855,  0.509535, -0.739152, -0.000000,  0.410545, 11.522648
 11.529035,  0.530002, -0.769865, -0.000000,  0.426092, 11.690279
 11.701781,  0.551106, -0.801578, -0.000000,  0.442102, 11.858855
 11.876067,  0.572862, -0.834313, -0.000000,  0.458585, 12.028383
 12.051868,  0.595282, -0.868095, -0.000000,  0.475550, 12.198870
 12.229157,  0.618383, -0.902947, -0.000000,  0.493008, 12.370325
 12.407905,  0.642178, -0.938894, -0.000000,  0.510970, 12.542758
 12.588081,  0.666682, -0.975960, -0.000000,  0.529447, 12.716180
 12.769657,  0.691911, -1.014170, -0.000000,  0.548448, 12.890604
 12.952599,  0.717880, -1.053549, -0.000000,  0.567986, 13.066045
 13.136871,  0.744604, -1.094123, -0.000000,  0.588070, 13.242506
 13.322421,  0.772097, -1.135917, -0.000000,  0.608711, 13.419976
 13.509187,  0.800375, -1.178953, -0.000000,  0.629917, 13.598423
 13.697095,  0.829449, -1.223256, -0.000000,  0.651697, 13.777800
 13.886060,  0.859335, -1.268847, -0.000000,  0.674056, 13.958041
 14.075986,  0.890043, -1.315750, -0.000000,  0.697001, 14.139068
 14.266768,  0.921585, -1.363984, -0.000000,  0.720536, 14.320785
 14.458290,  0.953973, -1.413571, -0.000001,  0.744666, 14.503085
 14.650430,  0.987217, -1.464529, -0.000001,  0.769392, 14.685848
 14.843057,  1.021325, -1.516876, -0.000001,  0.794716, 14.868942
 15.036031,  1.056308, -1.570631, -0.000001,  0.820640, 15.052226
 15.229209,  1.092172, -1.625809, -0.000001,  0.847161, 15.235551
 15.422441,  1.128924, -1.682425, -0.000001,  0.874279, 15.418761
 15.615572,  1.166571, -1.740495, -0.000001,  0.901990, 15.601693
 15.808443,  1.205118, -1.800031, -0.000001,  0.930292, 15.784182
 16.000894,  1.244569, -1.861045, -0.000001,  0.959179, 15.966057
 16.192761,  1.284927, -1.923548, -0.000001,  0.988647, 16.147150
 16.383879,  1.326194, -1.987550, -0.000001,  1.018688, 16.327289
 16.574084,  1.368373, -2.053060, -0.000001,  1.049297, 16.506306
 16.763210,  1.411465, -2.120084, -0.000001,  1.080465, 16.684035
 16.951094,  1.455467, -2.188629, -0.000001,  1.112184, 16.860313
 17.137574,  1.500380, -2.258700, -0.000001,  1.144446, 17.034984
 17.322493,  1.546201, -2.330300, -0.000001,  1.177240, 17.207898
 17.505694,  1.592928, -2.403433, -0.000001,  1.210557, 17.378910
 17.687028,  1.640555, -2.478098, -0.000001,  1.244388, 17.547888
 17.866349,  1.689078, -2.554297, -0.000001,  1.278721, 17.714704
 18.043516,  1.738492, -2.632029, -0.000001,  1.313546, 17.879245
 18.218397,  1.788790, -2.711290, -0.000001,  1.348852, 18.041405
 18.390864,  1.839964, -2.792077, -0.000001,  1.384630, 18.201091
 18.560798,  1.892007, -2.874386, -0.000001,  1.420867, 18.358223
 18.728087,  1.944908, -2.958210, -0.000001,  1.457555, 18.512730
 18.892630,  1.998660, -3.043542, -0.000001,  1.494681, 18.664557
 19.054331,  2.053250, -3.130375, -0.000001,  1.532236, 18.813660
 19.213106,  2.108668, -3.218698, -0.000001,  1.570211, 18.960007
 19.368880,  2.164902, -3.308502, -0.000001,  1.608595, 19.103580
 19.521586,  2.221940, -3.399774, -0.000001,  1.647380, 19.244374
 19.671168,  2.279769, -3.492503, -0.000001,  1.686557, 19.382395
 19.817582,  2.338375, -3.586675, -0.000001,  1.726118, 19.517661
 19.960791,  2.397744, -3.682274, -0.000001,  1.766055, 19.650202
 20.100771,  2.457862, -3.779287, -0.000001,  1.806361, 19.780060
 20.237505,  2.518714, -3.877696, -0.000001,  1.847029, 19.907285
 20.370990,  2.580284, -3.977483, -0.000001,  1.888054, 20.031939
 20.501229,  2.642558, -4.078632, -0.000001,  1.929430, 20.154093
 20.628239,  2.705518, -4.181123, -0.000001,  1.971152, 20.273824
 20.752044,  2.769150, -4.284937, -0.000001,  2.013217, 20.391219
 20.872677,  2.833437, -4.390053, -0.000001,  2.055620, 20.506371
 20.990182,  2.898362, -4.496450, -0.000001,  2.098359, 20.619377
 21.104611,  2.963908, -4.604107, -0.000001,  2.141432, 20.730341
 21.216024,  3.030060, -4.713001, -0.000001,  2.184835, 20.839370
 21.324489,  3.096800, -4.823109, -0.000001,  2.228569, 20.946574
 21.430083,  3.164112, -4.934409, -0.000001,  2.272631, 21.052063
 21.532887,  3.231979, -5.046876, -0.000001,  2.317022, 21.155950
 21.632992,  3.300385, -5.160487, -0.000001,  2.361742, 21.258349
 21.730493,  3.369313, -5.275217, -0.000001,  2.406790, 21.359370
 21.825490,  3.438747, -5.391040, -0.000001,  2.452167, 21.459123
 21.918089,  3.508671, -5.507932, -0.000001,  2.497875, 21.557716
 22.008400,  3.579069, -5.625868, -0.000001,  2.543913, 21.655252
 22.096536,  3.649926, -5.744822, -0.000001,  2.590283, 21.751831
 22.182615,  3.721226, -5.864768, -0.000001,  2.636987, 21.847546
 22.266753,  3.792955, -5.985680, -0.000001,  2.684026, 21.942488
 22.349073,  3.865098, -6.107532, -0.000001,  2.731400, 22.036738
 22.429695,  3.937641, -6.230299, -0.000001,  2.779111, 22.130372
 22.508742,  4.010569, -6.353954, -0.000001,  2.827160, 22.223460
 22.586336,  4.083871, -6.478471, -0.000001,  2.875548, 22.316062
 22.662597,  4.157532, -6.603825, -0.000001,  2.924274, 22.408231
 22.737645,  4.231540, -6.729989, -0.000001,  2.973341, 22.500013
 22.811599,  4.305883, -6.856938, -0.000001,  3.022746, 22.591444
 22.884572,  4.380550, -6.984646, -0.000001,  3.072491, 22.682552
 22.956678,  4.455530, -7.113088, -0.000001,  3.122573, 22.773356
 23.028025,  4.530812, -7.242239, -0.000001,  3.172991, 22.863868
 23.098716,  4.606385, -7.372074, -0.000001,  3.223744, 22.954091
 23.168851,  4.682240, -7.502568, -0.000001,  3.274829, 23.044018
 23.238526,  4.758369, -7.633698, -0.000001,  3.326243, 23.133636
 23.307828,  4.834761, -7.765438, -0.000001,  3.377982, 23.222924
 23.376842,  4.911410, -7.897765, -0.000001,  3.430042, 23.311852
 23.445644,  4.988307, -8.030657, -0.000001,  3.482418, 23.400386
 23.514304,  5.065446, -8.164089, -0.000001,  3.535104, 23.488483
 23.582886,  5.142818, -8.298040, -0.000001,  3.588095, 23.576094
 23.651447,  5.220418, -8.432487, -0.000001,  3.641384, 23.663165
 23.720036,  5.298240, -8.567408, -0.000001,  3.694962, 23.749638
 23.788695,  5.376278, -8.702782, -0.000001,  3.748823, 23.835450
 23.857458,  5.454528, -8.838588, -0.000001,  3.802957, 23.920532
 23.926353,  5.532983, -8.974806, -0.000001,  3.857355, 24.004815
 23.995398,  5.611639, -9.111414, -0.000001,  3.912008, 24.088226
 24.064605,  5.690493, -9.248394, -0.000001,  3.966904, 24.170689
 24.133978,  5.769539, -9.385725, -0.000001,  4.022034, 24.252130
 24.203513,  5.848775, -9.523390, -0.000001,  4.077386, 24.332472
 24.273200,  5.928197, -9.661369, -0.000001,  4.132948, 24.411637
 24.343020,  6.007800, -9.799645, -0.000001,  4.188708, 24.489550
 24.412948,  6.087583, -9.938199, -0.000001,  4.244653, 24.566136
 24.482951,  6.167542,-10.077015, -0.000001,  4.300771, 24.641322
 24.552992,  6.247674,-10.216075, -0.000001,  4.357048, 24.715037
 24.623025,  6.327976,-10.355363, -0.000001,  4.413471, 24.787215
 24.692998,  6.408445,-10.494863, -0.000001,  4.470027, 24.857790
 24.762856,  6.489078,-10.634558, -0.000001,  4.526702, 24.926701
 24.832536,  6.569872,-10.774433, -0.000001,  4.583482, 24.993894
 24.901971,  6.650823,-10.914473, -0.000001,  4.640353, 25.059315
 24.971090,  6.731930,-11.054663, -0.000001,  4.697303, 25.122918
 25.039817,  6.813188,-11.194988, -0.000001,  4.754316, 25.184661
 25.108072,  6.894593,-11.335434, -0.000001,  4.811379, 25.244507
 25.175774,  6.976143,-11.475985, -0.000001,  4.868479, 25.302427
 25.242837,  7.057833,-11.616630, -0.000001,  4.925603, 25.358394
 25.309173,  7.139659,-11.757352, -0.000001,  4.982737, 25.412389
 25.374693,  7.221617,-11.898140, -0.000001,  5.039869, 25.464399
 25.439306,  7.303701,-12.038978, -0.000001,  5.096985, 25.514415
 25.502921,  7.385906,-12.179854, -0.000001,  5.154075, 25.562436
 25.565445,  7.468227,-12.320755, -0.000001,  5.211125, 25.608465
 25.626788,  7.550658,-12.461667, -0.000001,  5.268124, 25.652511
 25.686857,  7.633193,-12.602576, -0.000001,  5.325061, 25.694588
 25.745562,  7.715824,-12.743470, -0.000001,  5.381925, 25.734715
 25.802814,  7.798545,-12.884335, -0.000001,  5.438705, 25.772916
 25.858527,  7.881348,-13.025159, -0.000001,  5.495392, 25.809219
 25.912615,  7.964223,-13.165927, -0.000001,  5.551977, 25.843658
 25.964997,  8.047164,-13.306626, -0.000001,  5.608448, 25.876268
 26.015594,  8.130160,-13.447244, -0.000001,  5.664799, 25.907089
 26.064330,  8.213202,-13.587765, -0.000001,  5.721021, 25.936164
 26.111135,  8.296279,-13.728177, -0.000001,  5.777104, 25.963538
 26.155939,  8.379380,-13.868466, -0.000001,  5.833043, 25.989260
 26.198681,  8.462495,-14.008617, -0.000001,  5.888829, 26.013378
 26.239301,  8.545611,-14.148616, -0.000001,  5.944456, 26.035943
 26.277748,  8.628716,-14.288449, -0.000001,  5.999917, 26.057007
 26.313971,  8.711796,-14.428100, -0.000001,  6.055206, 26.076622
 26.347928,  8.794839,-14.567556, -0.000001,  6.110316, 26.094841
 26.379582,  8.877831,-14.706800, -0.000001,  6.165242, 26.111715
 26.408900,  8.960755,-14.845816, -0.000001,  6.219978, 26.127295
 26.435856,  9.043599,-14.984590, -0.000001,  6.274519, 26.141631
 26.460430,  9.126345,-15.123104, -0.000001,  6.328860, 26.154773
 26.482608,  9.208979,-15.261342, -0.000001,  6.382995, 26.166766
 26.502379,  9.291483,-15.399287, -0.000001,  6.436919, 26.177655
 26.519741,  9.373841,-15.536922, -0.000001,  6.490627, 26.187482
 26.534696,  9.456034,-15.674229, -0.000001,  6.544115, 26.196286
 26.547253,  9.538046,-15.811190, -0.000001,  6.597377, 26.204104
 26.557426,  9.619859,-15.947787, -0.000001,  6.650408, 26.210968
 26.565233,  9.701453,-16.084001, -0.000001,  6.703202, 26.216909
 26.570699,  9.782809,-16.219812, -0.000001,  6.755756, 26.221952
 26.573853,  9.863910,-16.355202, -0.000001,  6.808062, 26.226120
 26.574730,  9.944734,-16.490150, -0.000001,  6.860116, 26.229431
 26.573369, 10.025263,-16.624635, -0.000001,  6.911912, 26.231900
 26.569813, 10.105477,-16.758638, -0.000001,  6.963444, 26.233540
 26.564109, 10.185355,-16.892136, -0.000001,  7.014705, 26.234356
 26.556308, 10.264876,-17.025108, -0.000001,  7.065689, 26.234353
 26.546467, 10.344022,-17.157533, -0.000001,  7.116389, 26.233530
 26.534641, 10.422770,-17.289388, -0.000001,  7.166798, 26.231883
 26.520894, 10.501101,-17.420650, -0.000001,  7.216909, 26.229406
 26.505287, 10.578993,-17.551296, -0.000001,  7.266714, 26.226087
 26.487886, 10.656426,-17.681303, -0.000001,  7.316206, 26.221914
 26.468760, 10.733380,-17.810647, -0.000001,  7.365375, 26.216869
 26.447977, 10.809833,-17.939304, -0.000001,  7.414213, 26.210934
 26.425608, 10.885765,-18.067250, -0.000001,  7.462711, 26.204085
 26.401722, 10.961156,-18.194459, -0.000001,  7.510860, 26.196300
 26.376396, 11.035986,-18.320908, -0.000001,  7.558653, 26.187557
 26.349708, 11.110239,-18.446576, -0.000001,  7.606082, 26.177842
 26.321745, 11.183898,-18.571443, -0.000001,  7.653146, 26.167148
 26.292597, 11.256951,-18.695492, -0.000001,  7.699843, 26.155476
 26.262359, 11.329387,-18.818709, -0.000001,  7.746175, 26.142834
 26.231130, 11.401198,-18.941080, -0.000001,  7.792147, 26.129237
 26.199011, 11.472378,-19.062596, -0.000001,  7.837765, 26.114705
 26.166107, 11.542923,-19.183249, -0.000001,  7.883038, 26.099268
 26.132525, 11.612831,-19.303034, -0.000001,  7.927977, 26.082958
 26.098374, 11.682103,-19.421946, -0.000001,  7.972594, 26.065816
 26.063762, 11.750742,-19.539986, -0.000001,  8.016906, 26.047885
 26.028801, 11.818753,-19.657155, -0.000001,  8.060927, 26.029214
 25.993599, 11.886142,-19.773455, -0.000001,  8.104677, 26.009857
 25.958266, 11.952921,-19.888893, -0.000001,  8.148175, 25.989870
 25.922910, 12.019100,-20.003476, -0.000001,  8.191442, 25.969314
 25.887637, 12.084692,-20.117214, -0.000001,  8.234499, 25.948250
 25.852551, 12.149713,-20.230119, -0.000001,  8.277369, 25.926743
 25.817753, 12.214181,-20.342204, -0.000001,  8.320075, 25.904859
 25.783341, 12.278115,-20.453486, -0.000001,  8.362640, 25.882664
 25.749409, 12.341535,-20.563980, -0.000001,  8.405089, 25.860225
 25.716049, 12.404464,-20.673708, -0.000001,  8.447445, 25.837609
 25.683345, 12.466926,-20.782688, -0.000001,  8.489732, 25.814881
 25.651377, 12.528946,-20.890944, -0.000001,  8.531972, 25.792107
 25.620223, 12.590551,-20.998499, -0.000001,  8.574188, 25.769347
 25.589951, 12.651769,-21.105377, -0.000001,  8.616403, 25.746664
 25.560627, 12.712629,-21.211607, -0.000001,  8.658637, 25.724114
 25.532307, 12.773160,-21.317214, -0.000001,  8.700910, 25.701752
 25.505044, 12.833393,-21.422227, -0.000001,  8.743240, 25.679629
 25.478883, 12.893359,-21.526676, -0.000001,  8.785645, 25.657792
 25.453864, 12.953091,-21.630592, -0.000001,  8.828139, 25.636285
 25.430016, 13.012621,-21.734004, -0.000001,  8.870739, 25.615146
 25.407367, 13.071980,-21.836946, -0.000001,  8.913454, 25.594409
 25.385934, 13.131203,-21.939450, -0.000001,  8.956297, 25.574104
 25.365729, 13.190321,-22.041547, -0.000001,  8.999276, 25.554256
 25.346756, 13.249368,-22.143272, -0.000001,  9.042397, 25.534883
 25.329014, 13.308376,-22.244657, -0.000001,  9.085666, 25.516000
 25.312492, 13.367376,-22.345737, -0.000001,  9.129085, 25.497617
 25.297177, 13.426402,-22.446544, -0.000001,  9.172656, 25.479737
 25.283046, 13.485482,-22.547111, -0.000001,  9.216377, 25.462362
 25.270071, 13.544649,-22.647473, -0.000001,  9.260245, 25.445485
 25.258219, 13.603932,-22.747661, -0.000001,  9.304256, 25.429096
 25.247450, 13.663358,-22.847709, -0.000001,  9.348403, 25.413182
 25.237718, 13.722956,-22.947649, -0.000001,  9.392678, 25.397723
 25.228975, 13.782751,-23.047511, -0.000001,  9.437071, 25.382697
 25.221164, 13.842769,-23.147327, -0.000001,  9.481571, 25.368077
 25.214227, 13.903034,-23.247126, -0.000001,  9.526164, 25.353833
 25.208100, 13.963568,-23.346939, -0.000001,  9.570838, 25.339933
 25.202715, 14.024392,-23.446793, -0.000001,  9.615577, 25.326341
 25.198002, 14.085525,-23.546716, -0.000001,  9.660364, 25.313019
 25.193887, 14.146984,-23.646734, -0.000001,  9.705182, 25.299925
 25.190294, 14.208785,-23.746871, -0.000001,  9.750014, 25.287020
 25.187145, 14.270944,-23.847153, -0.000001,  9.794842, 25.274258
 25.184359, 14.333471,-23.947602, -0.000001,  9.839646, 25.261596
 25.181855, 14.396378,-24.048240, -0.000001,  9.884407, 25.248988
 25.179551, 14.459673,-24.149086, -0.000001,  9.929107, 25.236391
 25.177365, 14.523363,-24.250159, -0.000001,  9.973726, 25.223759
 25.175214, 14.587453,-24.351477, -0.000001, 10.018247, 25.211047
 25.173015, 14.651945,-24.453055, -0.000001, 10.062649, 25.198213
 25.170688, 14.716842,-24.554908, -0.000001, 10.106915, 25.185214
 25.168151, 14.782142,-24.657049, -0.000001, 10.151029, 25.172009
 25.165327, 14.847842,-24.759489, -0.000001, 10.194973, 25.158559
 25.162139, 14.913937,-24.862238, -0.000001, 10.238732, 25.144828
 25.158513, 14.980423,-24.965303, -0.000001, 10.282292, 25.130780
 25.154377, 15.047289,-25.068693, -0.000001, 10.325639, 25.116385
 25.149662, 15.114527,-25.172411, -0.000001, 10.368760, 25.101612
 25.144304, 15.182125,-25.276461, -0.000001, 10.411645, 25.086436
 25.138241, 15.250069,-25.380845, -0.000001, 10.454285, 25.070834
 25.131415, 15.318345,-25.485565, -0.000001, 10.496670, 25.054784
 25.123772, 15.386936,-25.590617, -0.000001, 10.538795, 25.038271
 25.115264, 15.455825,-25.696001, -0.000001, 10.580655, 25.021282
 25.105846, 15.524992,-25.801711, -0.000001, 10.622244, 25.003806
 25.095477, 15.594417,-25.907743, -0.000001, 10.663563, 24.985836
 25.084123, 15.664078,-26.014088, -0.000001, 10.704608, 24.967370
 25.071753, 15.733953,-26.120740, -0.000001, 10.745383, 24.948407
 25.058342, 15.804018,-26.227688, -0.000001, 10.785888, 24.928950
 25.043870, 15.874249,-26.334922, -0.000001, 10.826128, 24.909007
 25.028322, 15.944619,-26.442429, -0.000001, 10.866108, 24.888586
 25.011688, 16.015104,-26.550196, -0.000001, 10.905834, 24.867700
 24.993964, 16.085676,-26.658208, -0.000001, 10.945313, 24.846364
 24.975150, 16.156308,-26.766450, -0.000001, 10.984555, 24.824595
 24.955251, 16.226972,-26.874905, -0.000001, 11.023569, 24.802413
 24.934278, 16.297642,-26.983555, -0.000001, 11.062366, 24.779840
 24.912246, 16.368289,-27.092383, -0.000001, 11.100958, 24.756900
 24.889174, 16.438884,-27.201369, -0.000001, 11.139357, 24.733618
 24.865088, 16.509401,-27.310493, -0.000001, 11.177575, 24.710021
 24.840015, 16.579811,-27.419734, -0.000001, 11.215628, 24.686136
 24.813989, 16.650087,-27.529070, -0.000001, 11.253528, 24.661994
 24.787046, 16.720202,-27.638481, -0.000001, 11.291289, 24.637623
 24.759226, 16.790130,-27.747944, -0.000001, 11.328926, 24.613054
 24.730574, 16.859843,-27.857435, -0.000001, 11.366453, 24.588316
 24.701137, 16.929318,-27.966933, -0.000001, 11.403884, 24.563440
 24.670963, 16.998530,-28.076412, -0.000001, 11.441234, 24.538454
 24.640106, 17.067454,-28.185851, -0.000001, 11.478516, 24.513389
 24.608620, 17.136069,-28.295225, -0.000001, 11.515742, 24.488272
 24.576563, 17.204352,-28.404510, -0.000001, 11.552927, 24.463131
 24.543991, 17.272283,-28.513684, -0.000001, 11.590081, 24.437991
 24.510965, 17.339843,-28.622721, -0.000001, 11.627216, 24.412878
 24.477546, 17.407014,-28.731600, -0.000001, 11.664343, 24.387813
 24.443794, 17.473779,-28.840296, -0.000001, 11.701470, 24.362820
 24.409773, 17.540122,-28.948787, -0.000001, 11.738607, 24.337916
 24.375543, 17.606029,-29.057050, -0.000001, 11.775761, 24.313121
 24.341166, 17.671488,-29.165063, -0.000001, 11.812939, 24.288448
 24.306703, 17.736488,-29.272805, -0.000001, 11.850146, 24.263912
 24.272215, 17.801019,-29.380254, -0.000001, 11.887385, 24.239523
 24.237760, 17.865074,-29.487390, -0.000001, 11.924661, 24.215291
 24.203397, 17.928646,-29.594193, -0.000001, 11.961975, 24.191222
 24.169180, 17.991729,-29.700644, -0.000001, 11.999327, 24.167321
 24.135165, 18.054322,-29.806724, -0.000001, 12.036718, 24.143589
 24.101402, 18.116422,-29.912416, -0.000001, 12.074145, 24.120027
 24.067941, 18.178030,-30.017703, -0.000001, 12.111606, 24.096631
 24.034829, 18.239146,-30.122568, -0.000001, 12.149097, 24.073399
 24.002109, 18.299775,-30.226998, -0.000001, 12.186612, 24.050322
 23.969822, 18.359920,-30.330977, -0.000001, 12.224148, 24.027394
 23.938006, 18.419588,-30.434492, -0.000001, 12.261695, 24.004603
 23.906694, 18.478787,-30.537532, -0.000001, 12.299247, 23.981938
 23.875917, 18.537525,-30.640085, -0.000001, 12.336796, 23.959386
 23.845702, 18.595813,-30.742141, -0.000001, 12.374331, 23.936931
 23.816072, 18.653664,-30.843690, -0.000001, 12.411844, 23.914557
 23.787047, 18.711089,-30.944726, -0.000001, 12.449325, 23.892248
 23.758643, 18.768103,-31.045240, -0.000001, 12.486761, 23.869984
 23.730871, 18.824722,-31.145226, -0.000001, 12.524143, 23.847748
 23.703739, 18.880962,-31.244681, -0.000001, 12.561459, 23.825519
 23.677252, 18.936841,-31.343600, -0.000001, 12.598697, 23.803277
 23.651409, 18.992376,-31.441980, -0.000001, 12.635846, 23.781003
 23.626207, 19.047588,-31.539819, -0.000001, 12.672895, 23.758675
 23.601639, 19.102497,-31.637118, -0.000001, 12.709831, 23.736274
 23.577694, 19.157122,-31.733876, -0.000001, 12.746644, 23.713778
 23.554358, 19.211486,-31.830095, -0.000001, 12.783323, 23.691170
 23.531613, 19.265610,-31.925777, -0.000001, 12.819858, 23.668429
 23.509437, 19.319517,-32.020926, -0.000001, 12.856237, 23.645537
 23.487807, 19.373229,-32.115545, -0.000001, 12.892452, 23.622476
 23.466696, 19.426769,-32.209641, -0.000001, 12.928494, 23.599229
 23.446073, 19.480159,-32.303219, -0.000001, 12.964354, 23.575781
 23.425906, 19.533424,-32.396287, -0.000001, 13.000026, 23.552117
 23.406159, 19.586585,-32.488851, -0.000001, 13.035502, 23.528224
 23.386797, 19.639667,-32.580922, -0.000001, 13.070776, 23.504090
 23.367779, 19.692690,-32.672508, -0.000001, 13.105843, 23.479704
 23.349065, 19.745678,-32.763619, -0.000001, 13.140699, 23.455057
 23.330613, 19.798653,-32.854267, -0.000001, 13.175341, 23.430140
 23.312377, 19.851635,-32.944462, -0.000001, 13.209767, 23.404949
 23.294315, 19.904646,-33.034217, -0.000001, 13.243974, 23.379478
 23.276379, 19.957707,-33.123544, -0.000001, 13.277963, 23.353724
 23.258525, 20.010836,-33.212456, -0.000001, 13.311734, 23.327685
 23.240705, 20.064052,-33.300967, -0.000001, 13.345287, 23.301362
 23.222872, 20.117373,-33.389091, -0.000001, 13.378626, 23.274755
 23.204981, 20.170817,-33.476841, -0.000001, 13.411752, 23.247868
 23.186984, 20.224398,-33.564233, -0.000001, 13.444671, 23.220703
 23.168837, 20.278133,-33.651282, -0.000001, 13.477385, 23.193268
 23.150495, 20.332034,-33.738002, -0.000001, 13.509902, 23.165567
 23.131914, 20.386115,-33.824408, -0.000001, 13.542225, 23.137610
 23.113051, 20.440387,-33.910517, -0.000001, 13.574362, 23.109404
 23.093866, 20.494861,-33.996342, -0.000001, 13.606319, 23.080960
 23.074319, 20.549545,-34.081900, -0.000001, 13.638105, 23.052288
 23.054373, 20.604448,-34.167206, -0.000001, 13.669726, 23.023399
 23.033991, 20.659575,-34.252275, -0.000001, 13.701191, 22.994306
 23.013141, 20.714932,-34.337123, -0.000001, 13.732508, 22.965021
 22.991792, 20.770523,-34.421764, -0.000001, 13.763686, 22.935556
 22.969913, 20.826350,-34.506212, -0.000001, 13.794733, 22.905926
 22.947480, 20.882415,-34.590484, -0.000001, 13.825658, 22.876143
 22.924467, 20.938717,-34.674592, -0.000001, 13.856469, 22.846221
 22.900856, 20.995255,-34.758550, -0.000001, 13.887175, 22.816173
 22.876626, 21.052027,-34.842373, -0.000001, 13.917784, 22.786014
 22.851763, 21.109027,-34.926072, -0.000001, 13.948305, 22.755754
 22.826253, 21.166251,-35.009662, -0.000001, 13.978744, 22.725409
 22.800088, 21.223692,-35.093152, -0.000001, 14.009109, 22.694988
 22.773261, 21.281342,-35.176557, -0.000001, 14.039407, 22.664505
 22.745767, 21.339193,-35.259885, -0.000001, 14.069645, 22.633971
 22.717606, 21.397234,-35.343149, -0.000001, 14.099827, 22.603395
 22.688779, 21.455455,-35.426357, -0.000001, 14.129960, 22.572788
 22.659291, 21.513842,-35.509520, -0.000001, 14.160048, 22.542157
 22.629150, 21.572384,-35.592645, -0.000001, 14.190094, 22.511512
 22.598365, 21.631066,-35.675741, -0.000001, 14.220103, 22.480858
 22.566949, 21.689872,-35.758815, -0.000001, 14.250077, 22.450203
 22.534917, 21.748789,-35.841874, -0.000001, 14.280017, 22.419550
 22.502287, 21.807798,-35.924923, -0.000001, 14.309925, 22.388905
 22.469078, 21.866883,-36.007968, -0.000001, 14.339802, 22.358269
 22.435312, 21.926027,-36.091014, -0.000001, 14.369647, 22.327645
 22.401013, 21.985211,-36.174063, -0.000001, 14.399459, 22.297033
 22.366207, 22.044417,-36.257120, -0.000001, 14.429237, 22.266435
 22.330920, 22.103625,-36.340186, -0.000001, 14.458978, 22.235848
 22.295182, 22.162817,-36.423263, -0.000001, 14.488680, 22.205270
 22.259024, 22.221974,-36.506352, -0.000001, 14.518339, 22.174699
 22.222475, 22.281075,-36.589454, -0.000001, 14.547951, 22.144131
 22.185569, 22.340101,-36.672567, -0.000001, 14.577512, 22.113561
 22.148340, 22.399033,-36.755691, -0.000001, 14.607016, 22.082984
 22.110820, 22.457851,-36.838823, -0.000001, 14.636457, 22.052394
 22.073044, 22.516536,-36.921961, -0.000001, 14.665831, 22.021783
 22.035048, 22.575068,-37.005102, -0.000001, 14.695131, 21.991145
 21.996865, 22.633430,-37.088242, -0.000001, 14.724350, 21.960472
 21.958530, 22.691602,-37.171377, -0.000001, 14.753482, 21.929755
 21.920079, 22.749568,-37.254500, -0.000001, 14.782520, 21.898986
 21.881544, 22.807308,-37.337608, -0.000001, 14.811456, 21.868156
 21.842959, 22.864808,-37.420693, -0.000001, 14.840285, 21.837256
 21.804358, 22.922050,-37.503749, -0.000001, 14.868999, 21.806277
 21.765772, 22.979020,-37.586769, -0.000001, 14.897590, 21.775208
 21.727231, 23.035702,-37.669745, -0.000001, 14.926053, 21.744042
 21.688766, 23.092084,-37.752669, -0.000001, 14.954380, 21.712769
 21.650404, 23.148151,-37.835532, -0.000001, 14.982566, 21.681379
 21.612172, 23.203892,-37.918325, -0.000001, 15.010604, 21.649865
 21.574096, 23.259296,-38.001039, -0.000001, 15.038488, 21.618217
 21.536199, 23.314352,-38.083665, -0.000001, 15.066212, 21.586427
 21.498503, 23.369052,-38.166193, -0.000001, 15.093773, 21.554489
 21.461028, 23.423388,-38.248612, -0.000001, 15.121164, 21.522394
 21.423791, 23.477353,-38.330913, -0.000001, 15.148383, 21.490135
 21.386809, 23.530940,-38.413084, -0.000001, 15.175425, 21.457708
 21.350096, 23.584145,-38.495115, -0.000001, 15.202287, 21.425105
 21.313662, 23.636964,-38.576995, -0.000001, 15.228967, 21.392323
 21.277519, 23.689395,-38.658713, -0.000001, 15.255462, 21.359357
 21.241673, 23.741436,-38.740259, -0.000001, 15.281771, 21.326203
 21.206130, 23.793087,-38.821620, -0.000001, 15.307894, 21.292858
 21.170893, 23.844348,-38.902787, -0.000001, 15.333828, 21.259321
 21.135962, 23.895222,-38.983749, -0.000001, 15.359576, 21.225588
 21.101337, 23.945712,-39.064493, -0.000001, 15.385137, 21.191661
 21.067014, 23.995821,-39.145011, -0.000001, 15.410513, 21.157538
 21.032988, 24.045555,-39.225290, -0.000001, 15.435705, 21.123219
 20.999252, 24.094919,-39.305321, -0.000001, 15.460716, 21.088707
 20.965795, 24.143921,-39.385093, -0.000001, 15.485548, 21.054002
 20.932608, 24.192569,-39.464597, -0.000001, 15.510204, 21.019107
 20.899676, 24.240871,-39.543822, -0.000001, 15.534688, 20.984024
 20.866986, 24.288838,-39.622759, -0.000001, 15.559003, 20.948758
 20.834520, 24.336480,-39.701399, -0.000001, 15.583154, 20.913312
 20.802262, 24.383808,-39.779732, -0.000001, 15.607145, 20.877689
 20.770191, 24.430834,-39.857751, -0.000001, 15.630981, 20.841896
 20.738288, 24.477572,-39.935446, -0.000001, 15.654666, 20.805936
 20.706530, 24.524034,-40.012811, -0.000001, 15.678207, 20.769816
 20.674895, 24.570234,-40.089837, -0.000001, 15.701607, 20.733540
 20.643359, 24.616188,-40.166518, -0.000001, 15.724872, 20.697114
 20.611898, 24.661909,-40.242847, -0.000001, 15.748007, 20.660544
 20.580486, 24.707413,-40.318818, -0.000001, 15.771017, 20.623837
 20.549099, 24.752715,-40.394425, -0.000001, 15.793908, 20.586998
 20.517709, 24.797831,-40.469663, -0.000001, 15.816685, 20.550032
 20.486291, 24.842778,-40.544527, -0.000001, 15.839351, 20.512947
 20.454818, 24.887571,-40.619013, -0.000001, 15.861913, 20.475748
 20.423264, 24.932226,-40.693117, -0.000001, 15.884374, 20.438440
 20.391603, 24.976760,-40.766836, -0.000001, 15.906739, 20.401028
 20.359809, 25.021188,-40.840167, -0.000001, 15.929011, 20.363519
 20.327857, 25.065527,-40.913108, -0.000001, 15.951194, 20.325917
 20.295720, 25.109792,-40.985657, -0.000001, 15.973292, 20.288226
 20.263376, 25.153999,-41.057812, -0.000001, 15.995307, 20.250451
 20.230800, 25.198162,-41.129573, -0.000001, 16.017241, 20.212595
 20.197971, 25.242297,-41.200939, -0.000001, 16.039096, 20.174663
 20.164865, 25.286418,-41.271910, -0.000001, 16.060876, 20.136656
 20.131463, 25.330539,-41.342488, -0.000001, 16.082579, 20.098579
 20.097746, 25.374672,-41.412672, -0.000001, 16.104208, 20.060433
 20.063694, 25.418832,-41.482466, -0.000001, 16.125762, 20.022219
 20.029291, 25.463029,-41.551869, -0.000001, 16.147242, 19.983939
 19.994521, 25.507276,-41.620886, -0.000001, 16.168647, 19.945595
 19.959371, 25.551582,-41.689518, -0.000001, 16.189976, 19.907185
 19.923828, 25.595959,-41.757770, -0.000001, 16.211228, 19.868710
 19.887881, 25.640414,-41.825644, -0.000001, 16.232401, 19.830170
 19.851520, 25.684957,-41.893144, -0.000001, 16.253493, 19.791563
 19.814737, 25.729595,-41.960275, -0.000001, 16.274502, 19.752888
 19.777527, 25.774335,-42.027041, -0.000001, 16.295425, 19.714144
 19.739885, 25.819181,-42.093448, -0.000001, 16.316259, 19.675328
 19.701807, 25.864140,-42.159500, -0.000001, 16.337001, 19.636437
 19.663293, 25.909215,-42.225203, -0.000001, 16.357647, 19.597469
 19.624343, 25.954409,-42.290563, -0.000001, 16.378193, 19.558421
 19.584958, 25.999725,-42.355586, -0.000001, 16.398636, 19.519289
 19.545142, 26.045162,-42.420277, -0.000001, 16.418972, 19.480070
 19.504901, 26.090722,-42.484645, -0.000001, 16.439196, 19.440759
 19.464239, 26.136403,-42.548694, -0.000001, 16.459304, 19.401353
 19.423166, 26.182204,-42.612431, -0.000001, 16.479293, 19.361848
 19.381691, 26.228123,-42.675865, -0.000001, 16.499157, 19.322240
 19.339823, 26.274156,-42.739000, -0.000001, 16.518894, 19.282523
 19.297575, 26.320298,-42.801845, -0.000001, 16.538497, 19.242695
 19.254959, 26.366544,-42.864407, -0.000001, 16.557965, 19.202750
 19.211990, 26.412889,-42.926691, -0.000001, 16.577292, 19.162684
 19.168683, 26.459326,-42.988707, -0.000001, 16.596475, 19.122494
 19.125052, 26.505846,-43.050460, -0.000001, 16.615510, 19.082175
 19.081116, 26.552442,-43.111958, -0.000001, 16.634395, 19.041723
 19.036890, 26.599105,-43.173207, -0.000001, 16.653126, 19.001135
 18.992394, 26.645824,-43.234215, -0.000001, 16.671700, 18.960406
 18.947646, 26.692591,-43.294989, -0.000001, 16.690114, 18.919534
 18.902663, 26.739393,-43.355534, -0.000001, 16.708368, 18.878515
 18.857467, 26.786220,-43.415858, -0.000001, 16.726458, 18.837346
 18.812075, 26.833060,-43.475967, -0.000001, 16.744382, 18.796026
 18.766508, 26.879900,-43.535867, -0.000001, 16.762141, 18.754550
 18.720785, 26.926729,-43.595565, -0.000001, 16.779732, 18.712919
 18.674926, 26.973532,-43.655065, -0.000001, 16.797155, 18.671128
 18.628949, 27.020297,-43.714374, -0.000001, 16.814411, 18.629178
 18.582873, 27.067011,-43.773497, -0.000001, 16.831498, 18.587067
 18.536718, 27.113659,-43.832439, -0.000001, 16.848417, 18.544794
 18.490500, 27.160229,-43.891204, -0.000001, 16.865169, 18.502358
 18.444238, 27.206706,-43.949799, -0.000001, 16.881756, 18.459761
 18.397949, 27.253076,-44.008226, -0.000001, 16.898177, 18.417000
 18.351648, 27.299327,-44.066490, -0.000001, 16.914436, 18.374077
 18.305351, 27.345444,-44.124594, -0.000001, 16.930533, 18.330993
 18.259072, 27.391414,-44.182543, -0.000001, 16.946471, 18.287748
 18.212825, 27.437224,-44.240338, -0.000001, 16.962252, 18.244344
 18.166623, 27.482861,-44.297982, -0.000001, 16.977879, 18.200782
 18.120477, 27.528312,-44.355479, -0.000001, 16.993353, 18.157063
 18.074398, 27.573565,-44.412830, -0.000001, 17.008679, 18.113190
 18.028394, 27.618608,-44.470037, -0.000001, 17.023859, 18.069164
 17.982475, 27.663430,-44.527102, -0.000001, 17.038896, 18.024987
 17.936647, 27.708019,-44.584024, -0.000001, 17.053793, 17.980662
 17.890916, 27.752366,-44.640806, -0.000001, 17.068553, 17.936191
 17.845286, 27.796460,-44.697447, -0.000001, 17.083180, 17.891577
 17.799762, 27.840292,-44.753949, -0.000001, 17.097676, 17.846822
 17.754344, 27.883853,-44.810309, -0.000001, 17.112045, 17.801929
 17.709035, 27.927136,-44.866528, -0.000001, 17.126290, 17.756900
 17.663834, 27.970133,-44.922606, -0.000001, 17.140414, 17.711737
 17.618739, 28.012838,-44.978540, -0.000001, 17.154419, 17.666445
 17.573748, 28.055244,-45.034329, -0.000001, 17.168308, 17.621024
 17.528857, 28.097346,-45.089972, -0.000001, 17.182085, 17.575478
 17.484060, 28.139141,-45.145467, -0.000001, 17.195750, 17.529808
 17.439353, 28.180624,-45.200810, -0.000001, 17.209307, 17.484017
 17.394728, 28.221793,-45.256000, -0.000001, 17.222758, 17.438108
 17.350177, 28.262646,-45.311034, -0.000001, 17.236103, 17.392081
 17.305692, 28.303180,-45.365909, -0.000001, 17.249346, 17.345939
 17.261261, 28.343397,-45.420620, -0.000001, 17.262486, 17.299684
 17.216875, 28.383295,-45.475165, -0.000001, 17.275526, 17.253317
 17.172523, 28.422877,-45.529540, -0.000001, 17.288465, 17.206840
 17.128192, 28.462144,-45.583741, -0.000001, 17.301305, 17.160253
 17.083870, 28.501098,-45.637764, -0.000001, 17.314046, 17.113557
 17.039543, 28.539743,-45.691605, -0.000001, 17.326687, 17.066753
 16.995197, 28.578084,-45.745258, -0.000001, 17.339229, 17.019841
 16.950820, 28.616123,-45.798720, -0.000001, 17.351671, 16.972823
 16.906395, 28.653868,-45.851985, -0.000001, 17.364011, 16.925697
 16.861909, 28.691323,-45.905050, -0.000001, 17.376251, 16.878464
 16.817347, 28.728497,-45.957909, -0.000001, 17.388387, 16.831123
 16.772694, 28.765395,-46.010557, -0.000001, 17.400419, 16.783674
 16.727935, 28.802026,-46.062989, -0.000001, 17.412345, 16.736116
 16.683054, 28.838397,-46.115200, -0.000001, 17.424163, 16.688448
 16.638038, 28.874519,-46.167184, -0.000001, 17.435872, 16.640670
 16.592871, 28.910399,-46.218938, -0.000001, 17.447469, 16.592779
 16.547540, 28.946048,-46.270456, -0.000001, 17.458953, 16.544775
 16.502030, 28.981475,-46.321732, -0.000001, 17.470320, 16.496656
 16.456328, 29.016691,-46.372761, -0.000001, 17.481568, 16.448420
 16.410421, 29.051706,-46.423540, -0.000001, 17.492696, 16.400066
 16.364297, 29.086531,-46.474062, -0.000001, 17.503700, 16.351591
 16.317942, 29.121178,-46.524323, -0.000001, 17.514578, 16.302995
 16.271347, 29.155657,-46.574317, -0.000001, 17.525327, 16.254275
 16.224500, 29.189979,-46.624041, -0.000001, 17.535945, 16.205428
 16.177391, 29.224155,-46.673490, -0.000001, 17.546430, 16.156454
 16.130012, 29.258198,-46.722659, -0.000001, 17.556779, 16.107349
 16.082354, 29.292118,-46.771545, -0.000001, 17.566989, 16.058113
 16.034409, 29.325926,-46.820141, -0.000001, 17.577059, 16.008742
 15.986171, 29.359634,-46.868446, -0.000001, 17.586987, 15.959235
 15.937634, 29.393252,-46.916455, -0.000001, 17.596770, 15.909590
 15.888793, 29.426791,-46.964164, -0.000001, 17.606406, 15.859805
 15.839644, 29.460261,-47.011570, -0.000001, 17.615894, 15.809878
 15.790185, 29.493673,-47.058670, -0.000001, 17.625233, 15.759808
 15.740412, 29.527035,-47.105460, -0.000001, 17.634420, 15.709593
 15.690325, 29.560358,-47.151937, -0.000001, 17.643456, 15.659231
 15.639924, 29.593651,-47.198100, -0.000001, 17.652338, 15.608721
 15.589209, 29.626922,-47.243945, -0.000001, 17.661066, 15.558061
 15.538181, 29.660179,-47.289470, -0.000001, 17.669640, 15.507252
 15.486844, 29.693430,-47.334673, -0.000001, 17.678059, 15.456290
 15.435199, 29.726682,-47.379552, -0.000001, 17.686323, 15.405176
 15.383252, 29.759942,-47.424107, -0.000001, 17.694432, 15.353909
 15.331007, 29.793215,-47.468335, -0.000001, 17.702386, 15.302488
 15.278469, 29.826506,-47.512235, -0.000001, 17.710186, 15.250913
 15.225645, 29.859822,-47.555806, -0.000001, 17.717832, 15.199183
 15.172542, 29.893165,-47.599048, -0.000001, 17.725326, 15.147298
 15.119166, 29.926540,-47.641961, -0.000001, 17.732667, 15.095258
 15.065527, 29.959949,-47.684543, -0.000001, 17.739857, 15.043063
 15.011634, 29.993394,-47.726796, -0.000001, 17.746898, 14.990714
 14.957494, 30.026877,-47.768719, -0.000001, 17.753791, 14.938210
 14.903117, 30.060400,-47.810313, -0.000001, 17.760537, 14.885552
 14.848514, 30.093961,-47.851578, -0.000001, 17.767139, 14.832740
 14.793695, 30.127562,-47.892515, -0.000001, 17.773596, 14.779776
 14.738670, 30.161200,-47.933126, -0.000001, 17.779913, 14.726659
 14.683450, 30.194875,-47.973411, -0.000001, 17.786090, 14.673391
 14.628045, 30.228583,-48.013372, -0.000001, 17.792129, 14.619973
 14.572467, 30.262322,-48.053011, -0.000001, 17.798032, 14.566405
 14.516727, 30.296089,-48.092329, -0.000001, 17.803802, 14.512689
 14.460834, 30.329879,-48.131328, -0.000001, 17.809440, 14.458825
 14.404801, 30.363688,-48.170010, -0.000001, 17.814947, 14.404814
 14.348637, 30.397510,-48.208379, -0.000001, 17.820327, 14.350658
 14.292353, 30.431340,-48.246435, -0.000001, 17.825581, 14.296357
 14.235960, 30.465171,-48.284181, -0.000001, 17.830710, 14.241914
 14.179467, 30.498997,-48.321621, -0.000001, 17.835716, 14.187328
 14.122884, 30.532811,-48.358757, -0.000001, 17.840601, 14.132600
 14.066221, 30.566605,-48.395591, -0.000001, 17.845366, 14.077733
 14.009484, 30.600371,-48.432126, -0.000001, 17.850013, 14.022726
 13.952684, 30.634101,-48.468366, -0.000001, 17.854544, 13.967581
 13.895828, 30.667787,-48.504314, -0.000001, 17.858958, 13.912299
 13.838923, 30.701419,-48.539972, -0.000001, 17.863257, 13.856880
 13.781976, 30.734988,-48.575344, -0.000001, 17.867442, 13.801325
 13.724993, 30.768486,-48.610434, -0.000001, 17.871514, 13.745635
 13.667979, 30.801903,-48.645243, -0.000001, 17.875473, 13.689810
 13.610940, 30.835229,-48.679776, -0.000001, 17.879319, 13.633852
 13.553879, 30.868454,-48.714035, -0.000001, 17.883054, 13.577759
 13.496799, 30.901569,-48.748024, -0.000001, 17.886676, 13.521533
 13.439705, 30.934565,-48.781746, -0.000001, 17.890186, 13.465174
 13.382597, 30.967431,-48.815205, -0.000001, 17.893583, 13.408682
 13.325477, 31.000158,-48.848403, -0.000001, 17.896868, 13.352056
 13.268347, 31.032737,-48.881343, -0.000001, 17.900039, 13.295298
 13.211205, 31.065157,-48.914029, -0.000001, 17.903096, 13.238407
 13.154052, 31.097411,-48.946464, -0.000001, 17.906038, 13.181382
 13.096886, 31.129488,-48.978650, -0.000001, 17.908864, 13.124223
 13.039705, 31.161380,-49.010590, -0.000001, 17.911574, 13.066930
 12.982507, 31.193079,-49.042287, -0.000001, 17.914166, 13.009503
 12.925288, 31.224576,-49.073744, -0.000001, 17.916639, 12.951940
 12.868045, 31.255863,-49.104963, -0.000001, 17.918991, 12.894242
 12.810773, 31.286934,-49.135947, -0.000001, 17.921222, 12.836407
 12.753468, 31.317780,-49.166697, -0.000001, 17.923330, 12.778435
 12.696123, 31.348395,-49.197217, -0.000001, 17.925313, 12.720325
 12.638734, 31.378774,-49.227508, -0.000001, 17.927171, 12.662075
 12.581294, 31.408909,-49.257572, -0.000001, 17.928901, 12.603686
 12.523796, 31.438796,-49.287411, -0.000001, 17.930502, 12.545156
 12.466233, 31.468429,-49.317026, -0.000001, 17.931972, 12.486484
 12.408598, 31.497805,-49.346420, -0.000001, 17.933311, 12.427670
 12.350883, 31.526920,-49.375593, -0.000001, 17.934517, 12.368712
 12.293080, 31.555769,-49.404547, -0.000001, 17.935588, 12.309609
 12.235181, 31.584352,-49.433283, -0.000001, 17.936523, 12.250361
 12.177178, 31.612664,-49.461802, -0.000001, 17.937321, 12.190965
 12.119063, 31.640705,-49.490103, -0.000001, 17.937980, 12.131422
 12.060826, 31.668473,-49.518190, -0.000001, 17.938500, 12.071731
 12.002460, 31.695968,-49.546060, -0.000001, 17.938880, 12.011890
 11.943956, 31.723189,-49.573716, -0.000001, 17.939119, 11.951898
 11.885305, 31.750138,-49.601156, -0.000001, 17.939215, 11.891755
 11.826500, 31.776815,-49.628381, -0.000001, 17.939169, 11.831460
 11.767533, 31.803221,-49.655392, -0.000001, 17.938980, 11.771012
 11.708394, 31.829359,-49.682186, -0.000001, 17.938647, 11.710411
 11.649077, 31.855232,-49.708765, -0.000001, 17.938170, 11.649655
 11.589573, 31.880842,-49.735128, -0.000001, 17.937549, 11.588745
 11.529876, 31.906193,-49.761273, -0.000001, 17.936783, 11.527679
 11.469979, 31.931289,-49.787200, -0.000001, 17.935873, 11.466457
 11.409875, 31.956134,-49.812907, -0.000001, 17.934820, 11.405079
 11.349558, 31.980734,-49.838395, -0.000001, 17.933622, 11.343544
 11.289023, 32.005093,-49.863661, -0.000001, 17.932282, 11.281852
 11.228263, 32.029217,-49.888704, -0.000001, 17.930798, 11.220003
 11.167273, 32.053112,-49.913523, -0.000001, 17.929173, 11.157997
 11.106050, 32.076784,-49.938115, -0.000001, 17.927406, 11.095833
 11.044590, 32.100240,-49.962480, -0.000001, 17.925498, 11.033512
 10.982888, 32.123486,-49.986616, -0.000001, 17.923451, 10.971034
 10.920942, 32.146531,-50.010520, -0.000001, 17.921265, 10.908398
 10.858750, 32.169380,-50.034190, -0.000001, 17.918941, 10.845604
 10.796309, 32.192041,-50.057626, -0.000001, 17.916481, 10.782654
 10.733618, 32.214522,-50.080824, -0.000001, 17.913885, 10.719547
 10.670675, 32.236830,-50.103782, -0.000001, 17.911155, 10.656283
 10.607482, 32.258974,-50.126498, -0.000001, 17.908291, 10.592863
 10.544037, 32.280961,-50.148970, -0.000001, 17.905296, 10.529286
 10.480342, 32.302799,-50.171195, -0.000001, 17.902170, 10.465555
 10.416397, 32.324495,-50.193172, -0.000001, 17.898915, 10.401667
 10.352204, 32.346057,-50.214897, -0.000001, 17.895532, 10.337625
 10.287764, 32.367494,-50.236368, -0.000001, 17.892022, 10.273429
 10.223082, 32.388811,-50.257584, -0.000001, 17.888386, 10.209079
 10.158159, 32.410018,-50.278541, -0.000001, 17.884625, 10.144575
 10.092998, 32.431121,-50.299237, -0.000001, 17.880741, 10.079917
 10.027604, 32.452127,-50.319669, -0.000001, 17.876734, 10.015107
  9.961981, 32.473043,-50.339836, -0.000001, 17.872606,  9.950145
  9.896132, 32.493875,-50.359734, -0.000001, 17.868357,  9.885031
  9.830064, 32.514630,-50.379362, -0.000001, 17.863988,  9.819766
  9.763779, 32.535314,-50.398717, -0.000001, 17.859500,  9.754349
  9.697285, 32.555932,-50.417797, -0.000001, 17.854894,  9.688781
  9.630586, 32.576490,-50.436600, -0.000001, 17.850170,  9.623063
  9.563689, 32.596992,-50.455123, -0.000001, 17.845329,  9.557195
  9.496598, 32.617444,-50.473364, -0.000001, 17.840371,  9.491177
  9.429320, 32.637850,-50.491321, -0.000001, 17.835296,  9.425009
  9.361860, 32.658212,-50.508993, -0.000000, 17.830105,  9.358692
  9.294226, 32.678535,-50.526377, -0.000000, 17.824797,  9.292226
  9.226423, 32.698822,-50.543471, -0.000000, 17.819374,  9.225610
  9.158456, 32.719074,-50.560274, -0.000000, 17.813834,  9.158845
  9.090334, 32.739295,-50.576784, -0.000000, 17.808178,  9.091930
  9.022060, 32.759485,-50.592999, -0.000000, 17.802405,  9.024867
  8.953642, 32.779646,-50.608918, -0.000000, 17.796515,  8.957654
  8.885084, 32.799778,-50.624539, -0.000000, 17.790508,  8.890292
  8.816393, 32.819881,-50.639862, -0.000000, 17.784383,  8.822781
  8.747575, 32.839956,-50.654884, -0.000000, 17.778140,  8.755119
  8.678634, 32.860002,-50.669605, -0.000000, 17.771778,  8.687308
  8.609575, 32.880017,-50.684024, -0.000000, 17.765296,  8.619347
  8.540403, 32.899999,-50.698139, -0.000000, 17.758694,  8.551236
  8.471123, 32.919948,-50.711951, -0.000000, 17.751971,  8.482974
  8.401739, 32.939859,-50.725458, -0.000000, 17.745126,  8.414560
  8.332255, 32.959731,-50.738659, -0.000000, 17.738159,  8.345996
  8.262674, 32.979560,-50.751554, -0.000000, 17.731068,  8.277279
  8.193000, 32.999342,-50.764144, -0.000000, 17.723853,  8.208411
  8.123235, 33.019074,-50.776426, -0.000000, 17.716513,  8.139389
  8.053382, 33.038750,-50.788402, -0.000000, 17.709047,  8.070215
  7.983443, 33.058367,-50.800071, -0.000000, 17.701455,  8.000887
  7.913419, 33.077918,-50.811433, -0.000000, 17.693735,  7.931405
  7.843313, 33.097400,-50.822489, -0.000000, 17.685887,  7.861769
  7.773125, 33.116805,-50.833238, -0.000000, 17.677911,  7.791978
  7.702856, 33.136129,-50.843681, -0.000000, 17.669805,  7.722031
  7.632506, 33.155365,-50.853818, -0.000000, 17.661568,  7.651928
  7.562075, 33.174507,-50.863649, -0.000000, 17.653201,  7.581669
  7.491561, 33.193548,-50.873176, -0.000000, 17.644703,  7.511254
  7.420965, 33.212482,-50.882399, -0.000000, 17.636073,  7.440681
  7.350285, 33.231302,-50.891318, -0.000000, 17.627311,  7.369951
  7.279519, 33.250002,-50.899935, -0.000000, 17.618417,  7.299062
  7.208665, 33.268573,-50.908250, -0.000000, 17.609389,  7.228016
  7.137722, 33.287011,-50.916264, -0.000000, 17.600229,  7.156810
  7.066686, 33.305306,-50.923978, -0.000000, 17.590937,  7.085446
  6.995554, 33.323453,-50.931394, -0.000000, 17.581511,  7.013922
  6.924324, 33.341445,-50.938512, -0.000000, 17.571952,  6.942238
  6.852992, 33.359274,-50.945333, -0.000000, 17.562260,  6.870395
  6.781553, 33.376934,-50.951859, -0.000000, 17.552435,  6.798392
  6.710006, 33.394419,-50.958091, -0.000000, 17.542479,  6.726228
  6.638344, 33.411721,-50.964031, -0.000000, 17.532390,  6.653904
  6.566565, 33.428835,-50.969679, -0.000000, 17.522169,  6.581419
  6.494664, 33.445754,-50.975037, -0.000000, 17.511817,  6.508774
  6.422635, 33.462472,-50.980106, -0.000000, 17.501335,  6.435967
  6.350476, 33.478983,-50.984888, -0.000000, 17.490722,  6.363001
  6.278180, 33.495283,-50.989384, -0.000000, 17.479980,  6.289873
  6.205743, 33.511365,-50.993596, -0.000000, 17.469109,  6.216584
  6.133161, 33.527225,-50.997524, -0.000000, 17.458110,  6.143135
  6.060429, 33.542858,-51.001170, -0.000000, 17.446983,  6.069525
  5.987542, 33.558260,-51.004536, -0.000000, 17.435730,  5.995755
  5.914496, 33.573426,-51.007624, -0.000000, 17.424351,  5.921824
  5.841285, 33.588354,-51.010433, -0.000000, 17.412847,  5.847733
  5.767905, 33.603039,-51.012966, -0.000000, 17.401219,  5.773482
  5.694353, 33.617478,-51.015224, -0.000000, 17.389468,  5.699071
  5.620623, 33.631670,-51.017209, -0.000000, 17.377595,  5.624500
  5.546712, 33.645612,-51.018921, -0.000000, 17.365599,  5.549769
  5.472615, 33.659301,-51.020362, -0.000000, 17.353484,  5.474879
  5.398330, 33.672737,-51.021532, -0.000000, 17.341248,  5.399830
  5.323851, 33.685918,-51.022434, -0.000000, 17.328893,  5.324622
  5.249177, 33.698844,-51.023068, -0.000000, 17.316419,  5.249255
  5.174304, 33.711514,-51.023435, -0.000000, 17.303828,  5.173729
  5.099229, 33.723928,-51.023536, -0.000000, 17.291120,  5.098046
  5.023950, 33.736087,-51.023372, -0.000000, 17.278296,  5.022204
  4.948464, 33.747991,-51.022944, -0.000000, 17.265356,  4.946205
  4.872770, 33.759643,-51.022252, -0.000000, 17.252300,  4.870048
  4.796864, 33.771042,-51.021299, -0.000000, 17.239131,  4.793733
  4.720748, 33.782191,-51.020083, -0.000000, 17.225847,  4.717261
  4.644418, 33.793093,-51.018606, -0.000000, 17.212449,  4.640633
  4.567874, 33.803749,-51.016868, -0.000000, 17.198938,  4.563847
  4.491115, 33.814163,-51.014870, -0.000000, 17.185314,  4.486905
  4.414142, 33.824338,-51.012612, -0.000000, 17.171578,  4.409807
  4.336955, 33.834276,-51.010095, -0.000000, 17.157728,  4.332552
  4.259552, 33.843983,-51.007318, -0.000000, 17.143766,  4.255141
  4.181936, 33.853461,-51.004282, -0.000000, 17.129692,  4.177573
  4.104107, 33.862714,-51.000987, -0.000000, 17.115505,  4.099850
  4.026066, 33.871748,-50.997433, -0.000000, 17.101206,  4.021971
  3.947815, 33.880566,-50.993620, -0.000000, 17.086795,  3.943936
  3.869355, 33.889174,-50.989548, -0.000000, 17.072271,  3.865745
  3.790688, 33.897576,-50.985217, -0.000000, 17.057634,  3.787398
  3.711816, 33.905777,-50.980627, -0.000000, 17.042885,  3.708895
  3.632741, 33.913782,-50.975776, -0.000000, 17.028022,  3.630237
  3.553466, 33.921596,-50.970665, -0.000000, 17.013045,  3.551423
  3.473994, 33.929225,-50.965294, -0.000000, 16.997955,  3.472452
  3.394328, 33.936674,-50.959662, -0.000000, 16.982751,  3.393326
  3.314470, 33.943948,-50.953767, -0.000000, 16.967433,  3.314044
  3.234423, 33.951052,-50.947611, -0.000000, 16.952000,  3.234606
  3.154192, 33.957991,-50.941191, -0.000000, 16.936452,  3.155012
  3.073778, 33.964771,-50.934508, -0.000000, 16.920788,  3.075261
  2.993187, 33.971397,-50.927560, -0.000000, 16.905008,  2.995354
  2.912420, 33.977874,-50.920347, -0.000000, 16.889113,  2.915291
  2.831483, 33.984207,-50.912867, -0.000000, 16.873100,  2.835071
  2.750377, 33.990400,-50.905121, -0.000000, 16.856971,  2.754694
  2.669107, 33.996458,-50.897106, -0.000000, 16.840724,  2.674161
  2.587677, 34.002385,-50.888822, -0.000000, 16.824360,  2.593471
  2.506090, 34.008186,-50.880267, -0.000000, 16.807879,  2.512623
  2.424349, 34.013865,-50.871442, -0.000000, 16.791279,  2.431619
  2.342458, 34.019426,-50.862344, -0.000000, 16.774560,  2.350458
  2.260420, 34.024872,-50.852972, -0.000000, 16.757723,  2.269139
  2.178238, 34.030206,-50.843325, -0.000000, 16.740768,  2.187663
  2.095916, 34.035432,-50.833403, -0.000000, 16.723694,  2.106029
  2.013457, 34.040553,-50.823204, -0.000000, 16.706501,  2.024238
  1.930863, 34.045570,-50.812726, -0.000000, 16.689189,  1.942289
  1.848137, 34.050487,-50.801968, -0.000000, 16.671758,  1.860183
  1.765283, 34.055305,-50.790930, -0.000000, 16.654208,  1.777919
  1.682301, 34.060025,-50.779610, -0.000000, 16.636540,  1.695497
  1.599195, 34.064650,-50.768006, -0.000000, 16.618753,  1.612917
  1.515967, 34.069179,-50.756118, -0.000000, 16.600848,  1.530180
  1.432617, 34.073614,-50.743945, -0.000000, 16.582825,  1.447285
  1.349149, 34.077956,-50.731484, -0.000000, 16.564684,  1.364232
  1.265564, 34.082203,-50.718735, -0.000000, 16.546426,  1.281022
  1.181862, 34.086356,-50.705697, -0.000000, 16.528050,  1.197654
  1.098044, 34.090414,-50.692369, -0.000000, 16.509558,  1.114128
  1.014113, 34.094376,-50.678749, -0.000000, 16.490950,  1.030446
  0.930067, 34.098240,-50.664836, -0.000000, 16.472226,  0.946605
  0.845908, 34.102007,-50.650629, -0.000000, 16.453386,  0.862608
  0.761635, 34.105672,-50.636128, -0.000000, 16.434432,  0.778454
  0.677249, 34.109235,-50.621330, -0.000000, 16.415364,  0.694143
  0.592750, 34.112692,-50.606236, -0.000000, 16.396182,  0.609675
  0.508136, 34.116042,-50.590844, -0.000000, 16.376888,  0.525051
  0.423407, 34.119280,-50.575152, -0.000000, 16.357481,  0.440271
  0.338563, 34.122405,-50.559161, -0.000000, 16.337963,  0.355334
  0.253602, 34.125411,-50.542870, -0.000000, 16.318334,  0.270242
  0.168523, 34.128296,-50.526277, -0.000000, 16.298594,  0.184994
  0.083325, 34.131056,-50.509382, -0.000000, 16.278745,  0.099591
 -0.001994, 34.133687,-50.492184, -0.000000, 16.258787,  0.014033
 -0.087435, 34.136183,-50.474682, -0.000000, 16.238720, -0.071681
 -0.173001, 34.138542,-50.456876, -0.000000, 16.218546, -0.157548
 -0.258693, 34.140757,-50.438766, -0.000000, 16.198265, -0.243570
 -0.344513, 34.142825,-50.420350, -0.000000, 16.177877, -0.329746
 -0.430464, 34.144741,-50.401628, -0.000000, 16.157384, -0.416076
 -0.516547, 34.146499,-50.382600, -0.000000, 16.136785, -0.502559
 -0.602765, 34.148096,-50.363265, -0.000000, 16.116082, -0.589195
 -0.689120, 34.149524,-50.343624, -0.000000, 16.095275, -0.675984
 -0.775615, 34.150780,-50.323675, -0.000000, 16.074364, -0.762925
 -0.862252, 34.151859,-50.303418, -0.000000, 16.053350, -0.850019
 -0.949033, 34.152755,-50.282854, -0.000000, 16.032233, -0.937264
 -1.035962, 34.153463,-50.261982, -0.000000, 16.011014, -1.024661
 -1.123040, 34.153978,-50.240801, -0.000000, 15.989693, -1.112209
 -1.210269, 34.154295,-50.219313, -0.000000, 15.968270, -1.199909
 -1.297653, 34.154409,-50.197517, -0.000000, 15.946747, -1.287759
 -1.385193, 34.154316,-50.175412, -0.000000, 15.925122, -1.375759
 -1.472891, 34.154010,-50.153000, -0.000000, 15.903397, -1.463910
 -1.560751, 34.153487,-50.130279, -0.000000, 15.881571, -1.552210
 -1.648773, 34.152743,-50.107251, -0.000000, 15.859645, -1.640660
 -1.736961, 34.151773,-50.083916, -0.000000, 15.837619, -1.729260
 -1.825315, 34.150572,-50.060273, -0.000000, 15.815493, -1.818008
 -1.913838, 34.149138,-50.036323, -0.000000, 15.793267, -1.906905
 -2.002532, 34.147466,-50.012066, -0.000000, 15.770941, -1.995950
 -2.091397, 34.145552,-49.987503, -0.000000, 15.748515, -2.085144
 -2.180435, 34.143394,-49.962634, -0.000000, 15.725990, -2.174486
 -2.269648, 34.140987,-49.937459, -0.000000, 15.703365, -2.263975
 -2.359036, 34.138330,-49.911978, -0.000000, 15.680641, -2.353612
 -2.448600, 34.135419,-49.886193, -0.000000, 15.657817, -2.443397
 -2.538342, 34.132253,-49.860104, -0.000000, 15.634893, -2.533328
 -2.628261, 34.128828,-49.833710, -0.000000, 15.611869, -2.623406
 -2.718359, 34.125143,-49.807014, -0.000000, 15.588746, -2.713631
 -2.808635, 34.121197,-49.780014, -0.000000, 15.565523, -2.804001
 -2.899090, 34.116987,-49.752711, -0.000000, 15.542200, -2.894518
 -2.989723, 34.112514,-49.725107, -0.000000, 15.518777, -2.985181
 -3.080535, 34.107775,-49.697202, -0.000000, 15.495254, -3.075989
 -3.171524, 34.102771,-49.668996, -0.000000, 15.471631, -3.166943
 -3.262691, 34.097501,-49.640489, -0.000000, 15.447908, -3.258042
 -3.354034, 34.091965,-49.611683, -0.000000, 15.424085, -3.349285
 -3.445553, 34.086163,-49.582577, -0.000000, 15.400162, -3.440674
 -3.537246, 34.080096,-49.553173, -0.000000, 15.376140, -3.532206
 -3.629113, 34.073765,-49.523471, -0.000000, 15.352017, -3.623883
 -3.721151, 34.067170,-49.493471, -0.000000, 15.327795, -3.715704
 -3.813361, 34.060312,-49.463174, -0.000000, 15.303473, -3.807668
 -3.905739, 34.053194,-49.432580, -0.000000, 15.279051, -3.899776
 -3.998285, 34.045817,-49.401691, -0.000000, 15.254530, -3.992027
 -4.090997, 34.038182,-49.370505,  0.000000, 15.229909, -4.084420
 -4.183872, 34.030292,-49.339025,  0.000000, 15.205190, -4.176956
 -4.276908, 34.022149,-49.307250,  0.000000, 15.180371, -4.269634
 -4.370104, 34.013755,-49.275181,  0.000000, 15.155454, -4.362454
 -4.463458, 34.005114,-49.242818,  0.000000, 15.130439, -4.455415
 -4.556966, 33.996226,-49.210161,  0.000000, 15.105326, -4.548518
 -4.650628, 33.987097,-49.177211,  0.000000, 15.080115, -4.641761
 -4.744440, 33.977728,-49.143969,  0.000000, 15.054807, -4.735145
 -4.838400, 33.968123,-49.110434,  0.000000, 15.029402, -4.828670
 -4.932506, 33.958284,-49.076607,  0.000000, 15.003901, -4.922333
 -5.026755, 33.948216,-49.042488,  0.000000, 14.978303, -5.016137
 -5.121146, 33.937921,-49.008077,  0.000000, 14.952610, -5.110079
 -5.215675, 33.927403,-48.973375,  0.000000, 14.926822, -5.204160
 -5.310340, 33.916666,-48.938381,  0.000000, 14.900940, -5.298379
 -5.405139, 33.905711,-48.903096,  0.000000, 14.874964, -5.392735
 -5.500070, 33.894544,-48.867520,  0.000000, 14.848894, -5.487229
 -5.595131, 33.883168,-48.831653,  0.000000, 14.822731, -5.581860
 -5.690318, 33.871585,-48.795495,  0.000000, 14.796476, -5.676627
 -5.785631, 33.859800,-48.759046,  0.000000, 14.770130, -5.771530
 -5.881066, 33.847815,-48.722306,  0.000000, 14.743692, -5.866569
 -5.976623, 33.835634,-48.685274,  0.000000, 14.717164, -5.961742
 -6.072298, 33.823259,-48.647952,  0.000000, 14.690546, -6.057050
 -6.168091, 33.810695,-48.610338,  0.000000, 14.663839, -6.152492
 -6.264000, 33.797943,-48.572432,  0.000000, 14.637043, -6.248067
 -6.360022, 33.785006,-48.534235,  0.000000, 14.610159, -6.343774
 -6.456157, 33.771888,-48.495746,  0.000000, 14.583188, -6.439615
 -6.552402, 33.758590,-48.456965,  0.000000, 14.556130, -6.535587
 -6.648758, 33.745115,-48.417891,  0.000000, 14.528985, -6.631690
 -6.745221, 33.731464,-48.378524,  0.000000, 14.501755, -6.727924
 -6.841793, 33.717641,-48.338864,  0.000000, 14.474440, -6.824288
 -6.938470, 33.703646,-48.298911,  0.000000, 14.447041, -6.920781
 -7.035253, 33.689482,-48.258664,  0.000000, 14.419558, -7.017403
 -7.132142, 33.675149,-48.218123,  0.000000, 14.391991, -7.114154
 -7.229134, 33.660649,-48.177287,  0.000000, 14.364341, -7.211033
 -7.326230, 33.645982,-48.136155,  0.000000, 14.336609, -7.308038
 -7.423430, 33.631150,-48.094728,  0.000000, 14.308795, -7.405171
 -7.520733, 33.616153,-48.053005,  0.000000, 14.280900, -7.502429
 -7.618139, 33.600991,-48.010985,  0.000000, 14.252923, -7.599813
 -7.715647, 33.585664,-47.968668,  0.000000, 14.224866, -7.697321
 -7.813259, 33.570173,-47.926053,  0.000000, 14.196729, -7.794954
 -7.910974, 33.554515,-47.883140,  0.000000, 14.168512, -7.892710
 -8.008792, 33.538692,-47.839928,  0.000000, 14.140216, -7.990590
 -8.106714, 33.522702,-47.796416,  0.000000, 14.111840, -8.088591
 -8.204741, 33.506544,-47.752604,  0.000000, 14.083386, -8.186714
 -8.302871, 33.490216,-47.708492,  0.000000, 14.054853, -8.284959
 -8.401107, 33.473718,-47.664078,  0.000000, 14.026243, -8.383324
 -8.499449, 33.457047,-47.619362,  0.000000, 13.997554, -8.481808
 -8.597897, 33.440202,-47.574343,  0.000000, 13.968788, -8.580412
 -8.696452, 33.423181,-47.529022,  0.000000, 13.939944, -8.679135
 -8.795115, 33.405980,-47.483396,  0.000000, 13.911024, -8.777975
 -8.893886, 33.388598,-47.437466,  0.000000, 13.882026, -8.876933
 -8.992767, 33.371032,-47.391231,  0.000000, 13.852952, -8.976008
 -9.091758, 33.353279,-47.344690,  0.000000, 13.823802, -9.075198
 -9.190860, 33.335336,-47.297842,  0.000000, 13.794575, -9.174504
 -9.290074, 33.317201,-47.250688,  0.000000, 13.765273, -9.273925
 -9.389401, 33.298869,-47.203226,  0.000000, 13.735895, -9.373459
 -9.488841, 33.280338,-47.155456,  0.000000, 13.706441, -9.473107
 -9.588396, 33.261604,-47.107378,  0.000000, 13.676912, -9.572868
 -9.688065, 33.242664,-47.058990,  0.000000, 13.647308, -9.672741
 -9.787850, 33.223514,-47.010292,  0.000000, 13.617629, -9.772725
 -9.887751, 33.204149,-46.961284,  0.000000, 13.587876, -9.872821
 -9.987769, 33.184568,-46.911964,  0.000000, 13.558048, -9.973026
-10.087905, 33.164764,-46.862334,  0.000000, 13.528146,-10.073340
-10.188159, 33.144736,-46.812391,  0.000000, 13.498171,-10.173763
-10.288531, 33.124479,-46.762136,  0.000000, 13.468122,-10.274294
-10.389022, 33.103989,-46.711569,  0.000000, 13.437999,-10.374933
-10.489632, 33.083262,-46.660688,  0.000000, 13.407804,-10.475678
-10.590361, 33.062295,-46.609493,  0.000000, 13.377536,-10.576528
-10.691210, 33.041083,-46.557984,  0.000000, 13.347195,-10.677484
-10.792178, 33.019624,-46.506161,  0.000000, 13.316783,-10.778544
-10.893265, 32.997913,-46.454023,  0.000000, 13.286299,-10.879708
-10.994472, 32.975947,-46.401570,  0.000000, 13.255744,-10.980975
-11.095797, 32.953721,-46.348801,  0.000000, 13.225119,-11.082343
-11.197241, 32.931234,-46.295717,  0.000000, 13.194422,-11.183813
-11.298803, 32.908482,-46.242316,  0.000000, 13.163656,-11.285383
-11.400483, 32.885460,-46.188600,  0.000000, 13.132821,-11.387054
-11.502279, 32.862167,-46.134567,  0.000000, 13.101917,-11.488823
-11.604191, 32.838599,-46.080218,  0.000000, 13.070944,-11.590690
-11.706219, 32.814754,-46.025551,  0.000000, 13.039903,-11.692654
-11.808361, 32.790628,-45.970568,  0.000000, 13.008795,-11.794715
-11.910616, 32.766220,-45.915268,  0.000000, 12.977620,-11.896871
-12.012983, 32.741527,-45.859651,  0.000000, 12.946378,-11.999122
-12.115461, 32.716547,-45.803717,  0.000000, 12.915071,-12.101467
-12.218049, 32.691278,-45.747465,  0.000000, 12.883699,-12.203905
-12.320744, 32.665718,-45.690897,  0.000000, 12.852262,-12.306435
-12.423547, 32.639865,-45.634011,  0.000000, 12.820761,-12.409057
-12.526454, 32.613718,-45.576808,  0.000000, 12.789197,-12.511768
-12.629465, 32.587276,-45.519287,  0.000000, 12.757570,-12.614569
-12.732577, 32.560538,-45.461450,  0.000000, 12.725881,-12.717459
-12.835789, 32.533502,-45.403296,  0.000000, 12.694131,-12.820436
-12.939099, 32.506169,-45.344825,  0.000000, 12.662319,-12.923500
-13.042506, 32.478537,-45.286037,  0.000000, 12.630448,-13.026649
-13.146007, 32.450607,-45.226933,  0.000000, 12.598516,-13.129883
-13.249600, 32.422378,-45.167512,  0.000000, 12.566526,-13.233201
-13.353283, 32.393850,-45.107774,  0.000000, 12.534478,-13.336601
-13.457054, 32.365023,-45.047721,  0.000000, 12.502372,-13.440084
-13.560912, 32.335899,-44.987352,  0.000000, 12.470209,-13.543647
-13.664854, 32.306477,-44.926667,  0.000000, 12.437989,-13.647289
-13.768877, 32.276758,-44.865666,  0.000000, 12.405714,-13.751011
-13.872981, 32.246744,-44.804350,  0.000000, 12.373383,-13.854810
-13.977162, 32.216434,-44.742720,  0.000000, 12.340998,-13.958686
-14.081419, 32.185831,-44.680774,  0.000000, 12.308559,-14.062638
-14.185749, 32.154936,-44.618514,  0.000000, 12.276066,-14.166664
-14.290151, 32.123750,-44.555940,  0.000000, 12.243521,-14.270764
-14.394622, 32.092274,-44.493052,  0.000000, 12.210923,-14.374936
-14.499160, 32.060511,-44.429850,  0.000000, 12.178273,-14.479179
-14.603763, 32.028463,-44.366335,  0.000000, 12.145573,-14.583493
-14.708430, 31.996130,-44.302507,  0.000000, 12.112821,-14.687877
-14.813158, 31.963515,-44.238365,  0.000000, 12.080020,-14.792328
-14.917946, 31.930621,-44.173912,  0.000000, 12.047169,-14.896847
-15.022791, 31.897448,-44.109146,  0.000000, 12.014268,-15.001431
-15.127691, 31.864000,-44.044068,  0.000001, 11.981319,-15.106081
-15.232646, 31.830278,-43.978678,  0.000001, 11.948322,-15.210794
-15.337653, 31.796285,-43.912977,  0.000001, 11.915277,-15.315570
-15.442710, 31.762023,-43.846965,  0.000001, 11.882185,-15.420407
-15.547816, 31.727494,-43.780642,  0.000001, 11.849046,-15.525305
-15.652970, 31.692700,-43.714009,  0.000001, 11.815860,-15.630262
-15.758170, 31.657644,-43.647065,  0.000001, 11.782629,-15.735277
-15.863414, 31.622328,-43.579811,  0.000001, 11.749352,-15.840349
-15.968701, 31.586753,-43.512247,  0.000001, 11.716030,-15.945477
-16.074030, 31.550922,-43.444373,  0.000001, 11.682663,-16.050659
-16.179399, 31.514837,-43.376191,  0.000001, 11.649252,-16.155895
-16.284808, 31.478499,-43.307699,  0.000001, 11.615797,-16.261184
-16.390255, 31.441912,-43.238898,  0.000001, 11.582299,-16.366523
-16.495739, 31.405076,-43.169788,  0.000001, 11.548757,-16.471912
-16.601260, 31.367993,-43.100370,  0.000001, 11.515173,-16.577350
-16.706816, 31.330665,-43.030643,  0.000001, 11.481546,-16.682835
-16.812406, 31.293093,-42.960609,  0.000001, 11.447878,-16.788367
-16.918029, 31.255279,-42.890266,  0.000001, 11.414168,-16.893943
-17.023685, 31.217224,-42.819615,  0.000001, 11.380417,-16.999564
-17.129373, 31.178930,-42.748657,  0.000001, 11.346626,-17.105227
-17.235092, 31.140396,-42.677391,  0.000001, 11.312794,-17.210931
-17.340842, 31.101624,-42.605817,  0.000001, 11.278923,-17.316675
-17.446621, 31.062615,-42.533936,  0.000001, 11.245012,-17.422459
-17.552430, 31.023369,-42.461747,  0.000001, 11.211063,-17.528279
-17.658268, 30.983886,-42.389251,  0.000001, 11.177075,-17.634136
-17.764133, 30.944168,-42.316448,  0.000001, 11.143049,-17.740028
-17.870026, 30.904213,-42.243338,  0.000001, 11.108985,-17.845954
-17.975946, 30.864022,-42.169921,  0.000001, 11.074885,-17.951912
-18.081893, 30.823595,-42.096196,  0.000001, 11.040748,-18.057901
-18.187865, 30.782932,-42.022164,  0.000001, 11.006575,-18.163920
-18.293863, 30.742031,-41.947825,  0.000001, 10.972367,-18.269967
-18.399886, 30.700892,-41.873179,  0.000001, 10.938124,-18.376041
-18.505933, 30.659515,-41.798226,  0.000001, 10.903846,-18.482141
-18.612004, 30.617898,-41.722965,  0.000001, 10.869535,-18.588265
-18.718098, 30.576040,-41.647398,  0.000001, 10.835190,-18.694412
-18.824216, 30.533940,-41.571522,  0.000001, 10.800812,-18.800581
-18.930355, 30.491597,-41.495340,  0.000001, 10.766403,-18.906770
-19.036516, 30.449008,-41.418850,  0.000001, 10.731961,-19.012978
-19.142697, 30.406173,-41.342052,  0.000001, 10.697489,-19.119203
-19.248899, 30.363090,-41.264947,  0.000001, 10.662987,-19.225444
-19.355120, 30.319756,-41.187535,  0.000001, 10.628454,-19.331700
-19.461360, 30.276169,-41.109814,  0.000001, 10.593893,-19.437969
-19.567617, 30.232329,-41.031785,  0.000001, 10.559303,-19.544249
-19.673892, 30.188231,-40.953449,  0.000001, 10.524685,-19.650540
-19.780183, 30.143874,-40.874804,  0.000001, 10.490040,-19.756839
-19.886488, 30.099256,-40.795851,  0.000001, 10.455369,-19.863146
-19.992808, 30.054374,-40.716590,  0.000001, 10.420671,-19.969458
-20.099141, 30.009225,-40.637020,  0.000001, 10.385948,-20.075775
-20.205485, 29.963807,-40.557142,  0.000001, 10.351201,-20.182094
-20.311841, 29.918118,-40.476955,  0.000001, 10.316429,-20.288414
-20.418206, 29.872154,-40.396459,  0.000001, 10.281634,-20.394735
-20.524578, 29.825913,-40.315654,  0.000001, 10.246817,-20.501053
-20.630958, 29.779392,-40.234540,  0.000001, 10.211977,-20.607368
-20.737343, 29.732589,-40.153117,  0.000001, 10.177116,-20.713679
-20.843731, 29.685500,-40.071385,  0.000001, 10.142234,-20.819982
-20.950122, 29.638123,-39.989343,  0.000001, 10.107332,-20.926278
-21.056514, 29.590456,-39.906992,  0.000001, 10.072410,-21.032564
-21.162904, 29.542495,-39.824331,  0.000001, 10.037470,-21.138839
-21.269292, 29.494238,-39.741361,  0.000001, 10.002511,-21.245101
-21.375675, 29.445682,-39.658081,  0.000001,  9.967535,-21.351348
-21.482052, 29.396825,-39.574491,  0.000001,  9.932541,-21.457580
-21.588420, 29.347665,-39.490591,  0.000001,  9.897531,-21.563793
-21.694778, 29.298198,-39.406382,  0.000001,  9.862506,-21.669988
-21.801124, 29.248423,-39.321862,  0.000001,  9.827464,-21.776162
-21.907456, 29.198337,-39.237032,  0.000001,  9.792409,-21.882313
-22.013771, 29.147938,-39.151893,  0.000001,  9.757339,-21.988439
-22.120068, 29.097224,-39.066443,  0.000001,  9.722255,-22.094540
-22.226344, 29.046192,-38.980683,  0.000001,  9.687159,-22.200613
-22.332597, 28.994842,-38.894613,  0.000001,  9.652050,-22.306657
-22.438825, 28.943172,-38.808233,  0.000001,  9.616929,-22.412670
-22.545026, 28.891179,-38.721544,  0.000001,  9.581797,-22.518651
-22.651197, 28.838862,-38.634544,  0.000001,  9.546654,-22.624597
-22.757337, 28.786220,-38.547234,  0.000001,  9.511501,-22.730507
-22.863441, 28.733251,-38.459615,  0.000001,  9.476338,-22.836379
-22.969510, 28.679955,-38.371686,  0.000001,  9.441165,-22.942212
-23.075539, 28.626330,-38.283447,  0.000001,  9.405984,-23.048004
-23.181527, 28.572376,-38.194899,  0.000001,  9.370794,-23.153752
-23.287471, 28.518091,-38.106041,  0.000001,  9.335597,-23.259456
-23.393369, 28.463475,-38.016874,  0.000001,  9.300392,-23.365113
-23.499218, 28.408529,-37.927398,  0.000001,  9.265181,-23.470722
-23.605017, 28.353250,-37.837613,  0.000001,  9.229963,-23.576281
-23.710762, 28.297640,-37.747520,  0.000001,  9.194739,-23.681789
-23.816452, 28.241698,-37.657118,  0.000001,  9.159509,-23.787243
-23.922083, 28.185424,-37.566407,  0.000001,  9.124275,-23.892641
-24.027655, 28.128818,-37.475389,  0.000001,  9.089036,-23.997982
-24.133163, 28.071882,-37.384063,  0.000001,  9.053794,-24.103264
-24.238607, 28.014614,-37.292429,  0.000001,  9.018547,-24.208486
-24.343984, 27.957017,-37.200488,  0.000001,  8.983298,-24.313645
-24.449290, 27.899089,-37.108240,  0.000001,  8.948046,-24.418739
-24.554526, 27.840834,-37.015685,  0.000001,  8.912792,-24.523767
-24.659687, 27.782250,-36.922824,  0.000001,  8.877536,-24.628727
-24.764772, 27.723340,-36.829657,  0.000001,  8.842280,-24.733617
-24.869779, 27.664105,-36.736184,  0.000001,  8.807022,-24.838435
-24.974705, 27.604545,-36.642406,  0.000001,  8.771765,-24.943180
-25.079549, 27.544662,-36.548322,  0.000001,  8.736507,-25.047849
-25.184308, 27.484457,-36.453935,  0.000001,  8.701251,-25.152440
-25.288980, 27.423932,-36.359243,  0.000001,  8.665996,-25.256952
-25.393564, 27.363088,-36.264247,  0.000001,  8.630743,-25.361383
-25.498057, 27.301928,-36.168948,  0.000001,  8.595492,-25.465730
-25.602458, 27.240451,-36.073345,  0.000001,  8.560244,-25.569993
-25.706764, 27.178661,-35.977441,  0.000001,  8.524999,-25.674168
-25.810974, 27.116558,-35.881234,  0.000001,  8.489758,-25.778255
-25.915085, 27.054145,-35.784726,  0.000001,  8.454522,-25.882250
-26.019097, 26.991424,-35.687916,  0.000001,  8.419291,-25.986153
-26.123007, 26.928395,-35.590806,  0.000001,  8.384065,-26.089961
-26.226813, 26.865061,-35.493395,  0.000001,  8.348845,-26.193672
-26.330514, 26.801423,-35.395685,  0.000001,  8.313632,-26.297285
-26.434107, 26.737484,-35.297676,  0.000001,  8.278426,-26.400796
-26.537592, 26.673245,-35.199367,  0.000001,  8.243228,-26.504205
-26.640967, 26.608707,-35.100761,  0.000001,  8.208038,-26.607510
-26.744229, 26.543873,-35.001857,  0.000001,  8.172857,-26.710708
-26.847378, 26.478743,-34.902655,  0.000001,  8.137685,-26.813797
-26.950411, 26.413320,-34.803157,  0.000001,  8.102524,-26.916775
-27.053328, 26.347605,-34.703363,  0.000001,  8.067372,-27.019640
-27.156125, 26.281600,-34.603273,  0.000001,  8.032232,-27.122391
-27.258803, 26.215305,-34.502889,  0.000001,  7.997103,-27.225025
-27.361358, 26.148723,-34.402209,  0.000001,  7.961987,-27.327540
-27.463791, 26.081854,-34.301236,  0.000001,  7.926883,-27.429934
-27.566098, 26.014699,-34.199969,  0.000001,  7.891793,-27.532206
-27.668278, 25.947261,-34.098409,  0.000001,  7.856716,-27.634352
-27.770331, 25.879539,-33.996557,  0.000001,  7.821654,-27.736371
-27.872253, 25.811534,-33.894413,  0.000001,  7.786607,-27.838261
-27.974044, 25.743249,-33.791978,  0.000001,  7.751575,-27.940019
-28.075702, 25.674682,-33.689252,  0.000001,  7.716559,-28.041644
-28.177226, 25.605836,-33.586235,  0.000001,  7.681560,-28.143134
-28.278613, 25.536709,-33.482930,  0.000001,  7.646578,-28.244486
-28.379861, 25.467304,-33.379335,  0.000001,  7.611614,-28.345699
-28.480970, 25.397620,-33.275451,  0.000001,  7.576668,-28.446769
-28.581938, 25.327657,-33.171280,  0.000001,  7.541740,-28.547696
-28.682762, 25.257415,-33.066821,  0.000001,  7.506832,-28.648476
-28.783441, 25.186895,-32.962076,  0.000001,  7.471944,-28.749109
-28.883974, 25.116097,-32.857044,  0.000001,  7.437075,-28.849590
-28.984358, 25.045020,-32.751726,  0.000001,  7.402227,-28.949920
-29.084591, 24.973663,-32.646123,  0.000001,  7.367401,-29.050095
-29.184672, 24.902027,-32.540235,  0.000001,  7.332596,-29.150113
-29.284598, 24.830112,-32.434063,  0.000001,  7.297813,-29.249971
-29.384368, 24.757915,-32.327608,  0.000001,  7.263053,-29.349669
-29.483980, 24.685438,-32.220869,  0.000001,  7.228315,-29.449204
-29.583432, 24.612679,-32.113848,  0.000001,  7.193601,-29.548572
-29.682721, 24.539637,-32.006545,  0.000001,  7.158911,-29.647774
-29.781846, 24.466311,-31.898960,  0.000001,  7.124246,-29.746805
-29.880804, 24.392701,-31.791095,  0.000001,  7.089605,-29.845664
-29.979593, 24.318805,-31.682949,  0.000001,  7.054989,-29.944349
-30.078212, 24.244622,-31.574523,  0.000001,  7.020399,-30.042857
-30.176657, 24.170152,-31.465818,  0.000001,  6.985834,-30.141186
-30.274927, 24.095392,-31.356834,  0.000001,  6.951296,-30.239335
-30.373019, 24.020342,-31.247571,  0.000001,  6.916785,-30.337301
-30.470932, 23.945000,-31.138031,  0.000001,  6.882301,-30.435081
-30.568661, 23.869365,-31.028214,  0.000001,  6.847844,-30.532673
-30.666206, 23.793436,-30.918120,  0.000001,  6.813416,-30.630076
-30.763564, 23.717211,-30.807750,  0.000001,  6.779016,-30.727286
-30.860732, 23.640689,-30.697104,  0.000001,  6.744644,-30.824303
-30.957708, 23.563868,-30.586183,  0.000001,  6.710301,-30.921122
-31.054490, 23.486747,-30.474987,  0.000001,  6.675988,-31.017743
-31.151074, 23.409325,-30.363518,  0.000001,  6.641704,-31.114163
-31.247459, 23.331600,-30.251774,  0.000001,  6.607451,-31.210379
-31.343641, 23.253571,-30.139758,  0.000001,  6.573227,-31.306390
-31.439619, 23.175236,-30.027469,  0.000001,  6.539035,-31.402193
-31.535389, 23.096594,-29.914908,  0.000001,  6.504874,-31.497786
-31.630950, 23.017644,-29.802076,  0.000001,  6.470744,-31.593167
-31.726297, 22.938385,-29.688973,  0.000001,  6.436646,-31.688333
-31.821430, 22.858815,-29.575600,  0.000001,  6.402580,-31.783282
-31.916344, 22.778933,-29.461957,  0.000001,  6.368547,-31.878012
-32.011038, 22.698738,-29.348045,  0.000001,  6.334547,-31.972520
-32.105509, 22.618230,-29.233864,  0.000001,  6.300579,-32.066805
-32.199754, 22.537406,-29.119415,  0.000001,  6.266646,-32.160864
-32.293770, 22.456267,-29.004698,  0.000001,  6.232746,-32.254694
-32.387556, 22.374811,-28.889714,  0.000001,  6.198880,-32.348294
-32.481107, 22.293038,-28.774464,  0.000001,  6.165049,-32.441660
-32.574422, 22.210947,-28.658949,  0.000001,  6.131253,-32.534792
-32.667499, 22.128538,-28.543168,  0.000001,  6.097492,-32.627686
-32.760333, 22.045809,-28.427122,  0.000001,  6.063766,-32.720340
-32.852923, 21.962761,-28.310812,  0.000001,  6.030077,-32.812752
-32.945266, 21.879394,-28.194239,  0.000001,  5.996424,-32.904920
-33.037359, 21.795706,-28.077404,  0.000001,  5.962807,-32.996840
-33.129201, 21.711699,-27.960306,  0.000001,  5.929227,-33.088512
-33.220788, 21.627372,-27.842946,  0.000001,  5.895684,-33.179933
-33.312117, 21.542725,-27.725326,  0.000001,  5.862179,-33.271099
-33.403187, 21.457759,-27.607445,  0.000001,  5.828712,-33.362010
-33.493994, 21.372473,-27.489305,  0.000001,  5.795283,-33.452662
-33.584537, 21.286869,-27.370906,  0.000001,  5.761893,-33.543054
-33.674812, 21.200947,-27.252249,  0.000001,  5.728541,-33.633183
-33.764818, 21.114707,-27.133334,  0.000001,  5.695229,-33.723046
-33.854551, 21.028151,-27.014162,  0.000001,  5.661956,-33.812642
-33.944010, 20.941278,-26.894734,  0.000001,  5.628723,-33.901968
-34.033191, 20.854091,-26.775051,  0.000001,  5.595530,-33.991021
-34.122094, 20.766589,-26.655113,  0.000001,  5.562378,-34.079800
-34.210715, 20.678775,-26.534921,  0.000001,  5.529266,-34.168302
-34.299051, 20.590649,-26.414476,  0.000001,  5.496195,-34.256525
-34.387101, 20.502213,-26.293779,  0.000001,  5.463166,-34.344466
-34.474863, 20.413468,-26.172830,  0.000001,  5.430178,-34.432124
-34.562334, 20.324416,-26.051630,  0.000001,  5.397232,-34.519495
-34.649511, 20.235058,-25.930179,  0.000001,  5.364329,-34.606577
-34.736393, 20.145395,-25.808480,  0.000001,  5.331467,-34.693369
-34.822978, 20.055430,-25.686532,  0.000001,  5.298649,-34.779867
-34.909262, 19.965164,-25.564336,  0.000001,  5.265873,-34.866070
-34.995245, 19.874599,-25.441894,  0.000001,  5.233141,-34.951974
-35.080924, 19.783737,-25.319206,  0.000001,  5.200452,-35.037579
-35.166296, 19.692580,-25.196272,  0.000001,  5.167806,-35.122881
-35.251360, 19.601129,-25.073094,  0.000001,  5.135205,-35.207878
-35.336113, 19.509387,-24.949673,  0.000001,  5.102648,-35.292568
-35.420553, 19.417356,-24.826009,  0.000001,  5.070135,-35.376949
-35.504679, 19.325037,-24.702104,  0.000001,  5.037666,-35.461017
-35.588488, 19.232434,-24.577958,  0.000001,  5.005242,-35.544772
-35.671978, 19.139547,-24.453573,  0.000001,  4.972864,-35.628210
-35.755148, 19.046379,-24.328948,  0.000001,  4.940530,-35.711329
-35.837994, 18.952933,-24.204086,  0.000001,  4.908241,-35.794127
-35.920515, 18.859209,-24.078987,  0.000001,  4.875998,-35.876602
-36.002709, 18.765211,-23.953651,  0.000002,  4.843801,-35.958750
-36.084574, 18.670941,-23.828081,  0.000002,  4.811649,-36.040571
-36.166107, 18.576399,-23.702277,  0.000002,  4.779543,-36.122062
-36.247308, 18.481590,-23.576240,  0.000002,  4.747483,-36.203220
-36.328173, 18.386514,-23.449971,  0.000002,  4.715469,-36.284043
-36.408700, 18.291173,-23.323470,  0.000002,  4.683501,-36.364528
-36.488888, 18.195570,-23.196740,  0.000002,  4.651580,-36.444674
-36.568735, 18.099707,-23.069781,  0.000002,  4.619705,-36.524479
-36.648238, 18.003585,-22.942594,  0.000002,  4.587877,-36.603939
-36.727396, 17.907206,-22.815180,  0.000002,  4.556095,-36.683053
-36.806205, 17.810572,-22.687540,  0.000002,  4.524361,-36.761818
-36.884665, 17.713685,-22.559675,  0.000002,  4.492672,-36.840232
-36.962774, 17.616547,-22.431587,  0.000002,  4.461031,-36.918293
-37.040528, 17.519158,-22.303276,  0.000002,  4.429437,-36.995999
-37.117926, 17.421521,-22.174744,  0.000002,  4.397889,-37.073346
-37.194966, 17.323638,-22.045991,  0.000002,  4.366389,-37.150334
-37.271645, 17.225509,-21.917019,  0.000002,  4.334936,-37.226960
-37.347962, 17.127136,-21.787828,  0.000002,  4.303530,-37.303221
-37.423915, 17.028521,-21.658421,  0.000002,  4.272171,-37.379115
-37.499501, 16.929663,-21.528796,  0.000002,  4.240858,-37.454642
-37.574721, 16.830559,-21.398950,  0.000002,  4.209590,-37.529801
-37.649575, 16.731203,-21.268879,  0.000002,  4.178363,-37.604596
-37.724066, 16.631587,-21.138573,  0.000002,  4.147171,-37.679030
-37.798196, 16.531700,-21.008023,  0.000002,  4.116008,-37.753111
-37.871970, 16.431527,-20.877216,  0.000002,  4.084868,-37.826844
-37.945391, 16.331053,-20.746137,  0.000002,  4.053741,-37.900238
-38.018466, 16.230259,-20.614769,  0.000002,  4.022620,-37.973302
-38.091200, 16.129127,-20.483095,  0.000002,  3.991494,-38.046046
-38.163599, 16.027633,-20.351093,  0.000002,  3.960352,-38.118479
-38.235670, 15.925755,-20.218743,  0.000002,  3.929184,-38.190613
-38.307421, 15.823467,-20.086022,  0.000002,  3.897978,-38.262458
-38.378857, 15.720744,-19.952905,  0.000002,  3.866724,-38.334024
-38.449985, 15.617557,-19.819368,  0.000002,  3.835410,-38.405320
-38.520814, 15.513880,-19.685385,  0.000002,  3.804025,-38.476357
-38.591350, 15.409682,-19.550930,  0.000002,  3.772557,-38.547144
-38.661598, 15.304936,-19.415974,  0.000002,  3.740996,-38.617688
-38.731566, 15.199610,-19.280493,  0.000002,  3.709333,-38.687996
-38.801259, 15.093675,-19.144456,  0.000002,  3.677556,-38.758075
-38.870683, 14.987102,-19.007839,  0.000002,  3.645658,-38.827928
-38.939841, 14.879862,-18.870612,  0.000002,  3.613631,-38.897560
-39.008738, 14.771924,-18.732749,  0.000002,  3.581468,-38.966973
-39.077377, 14.663262,-18.594223,  0.000002,  3.549161,-39.036166
-39.145761, 14.553847,-18.455009,  0.000002,  3.516708,-39.105139
-39.213890, 14.443654,-18.315081,  0.000002,  3.484102,-39.173889
-39.281766, 14.332657,-18.174415,  0.000002,  3.451343,-39.242411
-39.349387, 14.220832,-18.032987,  0.000002,  3.418429,-39.310701
-39.416754, 14.108157,-17.890775,  0.000002,  3.385359,-39.378750
-39.483862, 13.994612,-17.747759,  0.000002,  3.352134,-39.446549
-39.550710, 13.880178,-17.603918,  0.000002,  3.318758,-39.514088
-39.617292, 13.764838,-17.459235,  0.000002,  3.285233,-39.581354
-39.683603, 13.648578,-17.313694,  0.000002,  3.251565,-39.648334
-39.749636, 13.531385,-17.167279,  0.000002,  3.217760,-39.715012
-39.815383, 13.413248,-17.019978,  0.000002,  3.183826,-39.781372
-39.880837, 13.294161,-16.871780,  0.000002,  3.149770,-39.847397
-39.945986, 13.174118,-16.722675,  0.000002,  3.115604,-39.913068
-40.010821, 13.053116,-16.572657,  0.000002,  3.081338,-39.978365
-40.075329, 12.931156,-16.421720,  0.000002,  3.046984,-40.043267
-40.139498, 12.808241,-16.269862,  0.000002,  3.012553,-40.107754
-40.203314, 12.684375,-16.117083,  0.000002,  2.978061,-40.171802
-40.266763, 12.559568,-15.963384,  0.000002,  2.943522,-40.235391
-40.329829, 12.433831,-15.808769,  0.000002,  2.908949,-40.298497
-40.392496, 12.307178,-15.653244,  0.000002,  2.874359,-40.361097
-40.454748, 12.179625,-15.496819,  0.000002,  2.839768,-40.423169
-40.516568, 12.051192,-15.339503,  0.000002,  2.805191,-40.484689
-40.577936, 11.921902,-15.181310,  0.000002,  2.770645,-40.545634
-40.638836, 11.791781,-15.022256,  0.000002,  2.736147,-40.605983
-40.699247, 11.660855,-14.862359,  0.000002,  2.701713,-40.665714
-40.759152, 11.529155,-14.701638,  0.000002,  2.667359,-40.724805
-40.818530, 11.396715,-14.540117,  0.000002,  2.633102,-40.783236
-40.877362, 11.263570,-14.377820,  0.000002,  2.598957,-40.840987
-40.935628, 11.129759,-14.214774,  0.000002,  2.564940,-40.898040
-40.993309, 10.995321,-14.051007,  0.000002,  2.531065,-40.954377
-41.050385, 10.860300,-13.886551,  0.000002,  2.497347,-41.009981
-41.106836, 10.724739,-13.721440,  0.000002,  2.463799,-41.064838
-41.162643, 10.588685,-13.555707,  0.000002,  2.430434,-41.118934
-41.217788, 10.452187,-13.389391,  0.000002,  2.397263,-41.172256
-41.272251, 10.315296,-13.222529,  0.000002,  2.364298,-41.224793
-41.326015, 10.178061,-13.055163,  0.000002,  2.331549,-41.276535
-41.379061, 10.040538,-12.887333,  0.000002,  2.299024,-41.327474
-41.431374,  9.902779,-12.719085,  0.000002,  2.266732,-41.377604
-41.482937,  9.764840,-12.550462,  0.000002,  2.234679,-41.426919
-41.533735,  9.626777,-12.381511,  0.000002,  2.202871,-41.475415
-41.583752,  9.488647,-12.212280,  0.000002,  2.171313,-41.523091
-41.632975,  9.350509,-12.042817,  0.000002,  2.140008,-41.569945
-41.681391,  9.212418,-11.873172,  0.000002,  2.108957,-41.615979
-41.728988,  9.074435,-11.703395,  0.000002,  2.078164,-41.661194
-41.775756,  8.936616,-11.533538,  0.000002,  2.047627,-41.705595
-41.821684,  8.799020,-11.363652,  0.000002,  2.017346,-41.749184
-41.866763,  8.661704,-11.193791,  0.000002,  1.987318,-41.791970
-41.910988,  8.524726,-11.024006,  0.000002,  1.957542,-41.833958
-41.954349,  8.388141,-10.854351,  0.000002,  1.928012,-41.875157
-41.996844,  8.252007,-10.684879,  0.000002,  1.898724,-41.915576
-42.038467,  8.116376,-10.515644,  0.000002,  1.869674,-41.955225
-42.079216,  7.981303,-10.346698,  0.000002,  1.840854,-41.994115
-42.119089,  7.846840,-10.178095,  0.000002,  1.812257,-42.032257
-42.158086,  7.713037,-10.009887,  0.000002,  1.783876,-42.069664
-42.196207,  7.579944, -9.842126,  0.000002,  1.755704,-42.106348
-42.233455,  7.447607, -9.674865,  0.000002,  1.727731,-42.142322
-42.269833,  7.316072, -9.508153,  0.000002,  1.699948,-42.177600
-42.305345,  7.185382, -9.342042,  0.000002,  1.672348,-42.212195
-42.339997,  7.055578, -9.176579,  0.000002,  1.644920,-42.246121
-42.373795,  6.926700, -9.011814,  0.000002,  1.617655,-42.279392
-42.406747,  6.798783, -8.847794,  0.000002,  1.590544,-42.312022
-42.438862,  6.671862, -8.684563,  0.000002,  1.563578,-42.344023
-42.470149,  6.545968, -8.522168,  0.000002,  1.536748,-42.375410
-42.500619,  6.421129, -8.360650,  0.000002,  1.510044,-42.406195
-42.530284,  6.297372, -8.200051,  0.000002,  1.483458,-42.436392
-42.559156,  6.174721, -8.040411,  0.000002,  1.456982,-42.466011
-42.587249,  6.053195, -7.881768,  0.000002,  1.430609,-42.495066
-42.614575,  5.932811, -7.724159,  0.000002,  1.404330,-42.523566
-42.641151,  5.813586, -7.567618,  0.000002,  1.378140,-42.551523
-42.666990,  5.695530, -7.412179,  0.000002,  1.352032,-42.578947
-42.692109,  5.578653, -7.257871,  0.000002,  1.326000,-42.605846
-42.716524,  5.462959, -7.104723,  0.000002,  1.300039,-42.632230
-42.740252,  5.348453, -6.952763,  0.000002,  1.274146,-42.658105
-42.763309,  5.235135, -6.802014,  0.000002,  1.248318,-42.683479
-42.785713,  5.123001, -6.652498,  0.000002,  1.222550,-42.708359
-42.807481,  5.012045, -6.504237,  0.000002,  1.196841,-42.732749
-42.828631,  4.902260, -6.357247,  0.000002,  1.171190,-42.756655
-42.849181,  4.793634, -6.211545,  0.000002,  1.145596,-42.780081
-42.869147,  4.686154, -6.067144,  0.000002,  1.120059,-42.803030
-42.888549,  4.579802, -5.924054,  0.000002,  1.094581,-42.825505
-42.907402,  4.474560, -5.782284,  0.000002,  1.069161,-42.847508
-42.925725,  4.370407, -5.641841,  0.000002,  1.043803,-42.869040
-42.943534,  4.267318, -5.502729,  0.000002,  1.018509,-42.890102
-42.960846,  4.165267, -5.364949,  0.000002,  0.993282,-42.910695
-42.977678,  4.064226, -5.228501,  0.000002,  0.968125,-42.930819
-42.994045,  3.964165, -5.093382,  0.000002,  0.943043,-42.950473
-43.009962,  3.865052, -4.959587,  0.000002,  0.918040,-42.969655
-43.025446,  3.766852, -4.827109,  0.000002,  0.893122,-42.988366
-43.040509,  3.669530, -4.695937,  0.000002,  0.868291,-43.006603
-43.055166,  3.573048, -4.566061,  0.000002,  0.843555,-43.024365
-43.069429,  3.477369, -4.437466,  0.000002,  0.818919,-43.041650
-43.083312,  3.382451, -4.310136,  0.000002,  0.794387,-43.058456
-43.096825,  3.288254, -4.184054,  0.000002,  0.769965,-43.074781
-43.109981,  3.194736, -4.059198,  0.000002,  0.745659,-43.090622
-43.122788,  3.101853, -3.935548,  0.000002,  0.721473,-43.105979
-43.135257,  3.009563, -3.813079,  0.000002,  0.697413,-43.120848
-43.147395,  2.917819, -3.691765,  0.000002,  0.673483,-43.135230
-43.159211,  2.826578, -3.571578,  0.000002,  0.649688,-43.149121
-43.170712,  2.735795, -3.452490,  0.000002,  0.626031,-43.162521
-43.181904,  2.645424, -3.334470,  0.000002,  0.602517,-43.175429
-43.192793,  2.555419, -3.217484,  0.000002,  0.579148,-43.187845
-43.203382,  2.465735, -3.101500,  0.000002,  0.555926,-43.199767
-43.213675,  2.376327, -2.986480,  0.000002,  0.532855,-43.211197
-43.223676,  2.287150, -2.872389,  0.000002,  0.509934,-43.222134
-43.233386,  2.198160, -2.759188,  0.000002,  0.487164,-43.232580
-43.242808,  2.109312, -2.646838,  0.000002,  0.464546,-43.242536
-43.251940,  2.020563, -2.535297,  0.000002,  0.442079,-43.252003
-43.260785,  1.931871, -2.424525,  0.000002,  0.419760,-43.260984
-43.269339,  1.843193, -2.314478,  0.000002,  0.397589,-43.269481
-43.277603,  1.754490, -2.205114,  0.000002,  0.375561,-43.277497
-43.285573,  1.665720, -2.096386,  0.000002,  0.353673,-43.285036
-43.293247,  1.576845, -1.988251,  0.000002,  0.331920,-43.292101
-43.300622,  1.487828, -1.880661,  0.000002,  0.310298,-43.298696
-43.307693,  1.398631, -1.773571,  0.000002,  0.288799,-43.304826
-43.314457,  1.309220, -1.666932,  0.000002,  0.267418,-43.310495
-43.320907,  1.219561, -1.560697,  0.000002,  0.246145,-43.315709
-43.327040,  1.129620, -1.454818,  0.000002,  0.224975,-43.320472
-43.332848,  1.039367, -1.349245,  0.000002,  0.203896,-43.324790
-43.338326,  0.948771, -1.243931,  0.000002,  0.182901,-43.328668
-43.343467,  0.857804, -1.138825,  0.000002,  0.161978,-43.332112
-43.348265,  0.766439, -1.033878,  0.000002,  0.141117,-43.335128
-43.352712,  0.674650, -0.929040,  0.000002,  0.120308,-43.337721
-43.356801,  0.582412, -0.824262,  0.000002,  0.099538,-43.339896
-43.360524,  0.489703, -0.719493,  0.000002,  0.078795,-43.341660
-43.363874,  0.396499, -0.614684,  0.000002,  0.058067,-43.343017
-43.366843,  0.302782, -0.509785,  0.000002,  0.037341,-43.343972
-43.369422,  0.208530, -0.404746,  0.000002,  0.016605,-43.344531
-43.371605,  0.113728, -0.299518,  0.000002, -0.004154,-43.344698
-43.373383,  0.018362, -0.194055,  0.000002, -0.024949,-43.344477
-43.374747, -0.077580, -0.088312,  0.000002, -0.045791,-43.343871
-43.375691, -0.174106,  0.017754,  0.000002, -0.066688,-43.342885
-43.376206, -0.271219,  0.124182,  0.000002, -0.087652,-43.341521
-43.376285, -0.368923,  0.231012,  0.000002, -0.108690,-43.339782
-43.375920, -0.467216,  0.338279,  0.000002, -0.129811,-43.337670
-43.375104, -0.566096,  0.446018,  0.000002, -0.151020,-43.335188
-43.373830, -0.665556,  0.554262,  0.000002, -0.172323,-43.332335
-43.372091, -0.765590,  0.663039,  0.000002, -0.193727,-43.329114
-43.369882, -0.866185,  0.772380,  0.000002, -0.215234,-43.325526
-43.367195, -0.967331,  0.882309,  0.000002, -0.236848,-43.321569
-43.364027, -1.069014,  0.992852,  0.000002, -0.258572,-43.317245
-43.360370, -1.171217,  1.104031,  0.000002, -0.280408,-43.312553
-43.356221, -1.273924,  1.215867,  0.000002, -0.302357,-43.307490
-43.351575, -1.377115,  1.328379,  0.000002, -0.324419,-43.302057
-43.346429, -1.480771,  1.441584,  0.000002, -0.346595,-43.296251
-43.340778, -1.584871,  1.555497,  0.000002, -0.368883,-43.290070
-43.334619, -1.689393,  1.670133,  0.000002, -0.391283,-43.283511
-43.327950, -1.794314,  1.785504,  0.000002, -0.413793,-43.276571
-43.320769, -1.899611,  1.901619,  0.000002, -0.436411,-43.269247
-43.313073, -2.005261,  2.018490,  0.000002, -0.459134,-43.261535
-43.304861, -2.111239,  2.136122,  0.000002, -0.481961,-43.253431
-43.296133, -2.217521,  2.254523,  0.000002, -0.504888,-43.244930
-43.286886, -2.324084,  2.373697,  0.000002, -0.527913,-43.236028
-43.277121, -2.430903,  2.493648,  0.000002, -0.551032,-43.226719
-43.266838, -2.537956,  2.614379,  0.000002, -0.574243,-43.216999
-43.256036, -2.645219,  2.735891,  0.000002, -0.597541,-43.206861
-43.244717, -2.752670,  2.858185,  0.000002, -0.620926,-43.196300
-43.232881, -2.860288,  2.981258,  0.000002, -0.644393,-43.185309
-43.220529, -2.968051,  3.105110,  0.000002, -0.667939,-43.173883
-43.207662, -3.075940,  3.229738,  0.000002, -0.691564,-43.162015
-43.194281, -3.183937,  3.355137,  0.000002, -0.715264,-43.149698
-43.180388, -3.292023,  3.481305,  0.000002, -0.739037,-43.136925
-43.165985, -3.400184,  3.608235,  0.000002, -0.762882,-43.123690
-43.151072, -3.508404,  3.735922,  0.000002, -0.786798,-43.109986
-43.135652, -3.616669,  3.864359,  0.000002, -0.810785,-43.095804
-43.119726, -3.724969,  3.993540,  0.000002, -0.834841,-43.081140
-43.103296, -3.833293,  4.123456,  0.000002, -0.858967,-43.065984
-43.086363, -3.941632,  4.254100,  0.000002, -0.883163,-43.050330
-43.068929, -4.049980,  4.385463,  0.000002, -0.907431,-43.034171
-43.050995, -4.158332,  4.517537,  0.000002, -0.931772,-43.017500
-43.032562, -4.266684,  4.650312,  0.000002, -0.956188,-43.000309
-43.013632, -4.375035,  4.783780,  0.000002, -0.980681,-42.982592
-42.994204, -4.483385,  4.917930,  0.000002, -1.005254,-42.964341
-42.974279, -4.591735,  5.052753,  0.000002, -1.029910,-42.945550
-42.953859, -4.700091,  5.188239,  0.000002, -1.054653,-42.926212
-42.932942, -4.808457,  5.324378,  0.000002, -1.079486,-42.906320
-42.911528, -4.916840,  5.461161,  0.000002, -1.104415,-42.885868
-42.889618, -5.025249,  5.598577,  0.000002, -1.129443,-42.864850
-42.867209, -5.133695,  5.736616,  0.000002, -1.154576,-42.843258
-42.844301, -5.242189,  5.875269,  0.000002, -1.179819,-42.821088
-42.820892, -5.350746,  6.014526,  0.000002, -1.205177,-42.798334
-42.796980, -5.459380,  6.154377,  0.000002, -1.230656,-42.774989
-42.772562, -5.568108,  6.294813,  0.000002, -1.256261,-42.751049
-42.747636, -5.676947,  6.435824,  0.000002, -1.281998,-42.726507
-42.722199, -5.785916,  6.577401,  0.000002, -1.307873,-42.701360
-42.696247, -5.895035,  6.719536,  0.000002, -1.333891,-42.675601
-42.669777, -6.004326,  6.862219,  0.000002, -1.360060,-42.649228
-42.642783, -6.113809,  7.005442,  0.000002, -1.386383,-42.622234
-42.615262, -6.223508,  7.149197,  0.000002, -1.412867,-42.594617
-42.587208, -6.333446,  7.293475,  0.000002, -1.439516,-42.566371
-42.558616, -6.443646,  7.438269,  0.000002, -1.466337,-42.537493
-42.529480, -6.554134,  7.583572,  0.000002, -1.493334,-42.507980
-42.499795, -6.664933,  7.729376,  0.000002, -1.520510,-42.477828
-42.469553, -6.776069,  7.875673,  0.000002, -1.547872,-42.447034
-42.438750, -6.887566,  8.022458,  0.000002, -1.575421,-42.415595
-42.407377, -6.999448,  8.169724,  0.000002, -1.603163,-42.383508
-42.375428, -7.111742,  8.317464,  0.000002, -1.631099,-42.350771
-42.342895, -7.224471,  8.465672,  0.000002, -1.659232,-42.317381
-42.309771, -7.337658,  8.614343,  0.000002, -1.687565,-42.283337
-42.276049, -7.451327,  8.763470,  0.000002, -1.716098,-42.248635
-42.241721, -7.565501,  8.913048,  0.000002, -1.744834,-42.213274
-42.206779, -7.680201,  9.063071,  0.000002, -1.773772,-42.177253
-42.171215, -7.795449,  9.213536,  0.000002, -1.802912,-42.140570
-42.135022, -7.911263,  9.364435,  0.000002, -1.832255,-42.103223
-42.098192, -8.027662,  9.515764,  0.000002, -1.861799,-42.065212
-42.060716, -8.144665,  9.667519,  0.000002, -1.891542,-42.026535
-42.022588, -8.262286,  9.819693,  0.000002, -1.921483,-41.987192
-41.983799, -8.380540,  9.972283,  0.000002, -1.951619,-41.947182
-41.944343, -8.499440, 10.125284,  0.000002, -1.981947,-41.906504
-41.904212, -8.618997, 10.278689,  0.000002, -2.012464,-41.865158
-41.863398, -8.739220, 10.432495,  0.000002, -2.043166,-41.823143
-41.821896, -8.860118, 10.586697,  0.000002, -2.074047,-41.780460
-41.779698, -8.981696, 10.741288,  0.000002, -2.105105,-41.737108
-41.736799, -9.103958, 10.896263,  0.000002, -2.136333,-41.693088
-41.693193, -9.226905, 11.051618,  0.000002, -2.167727,-41.648400
