SHIH-XIAN-YANG/Robotic-vitual-system/run/exp1/log/joint_pos_error.txt
# Joint1, Joint2, Joint3, Joint4, Joint5, Joint6
  0.000000,  0.000000,  0.000000,  0.000000,  0.000000,  0.000000
  0.000000,  0.000000,  0.000000,  0.000000,  0.000000,  0.000000
  0.000000,  0.000000,  0.000000,  0.000000,  0.000000,  0.000000
  0.000000,  0.000000,  0.000000,  0.000000,  0.000000,  0.000000
  0.000000,  0.000000,  0.000000,  0.000000,  0.000000,  0.000000
  0.000000,  0.000000,  0.000000,  0.000000,  0.000000,  0.000000
  0.000000,  0.000000,  0.000000,  0.000000,  0.000000,  0.000000
  0.000000,  0.000000,  0.000000,  0.000000,  0.000000,  0.000000
  0.000000,  0.000000,  0.000000,  0.000000,  0.000000,  0.000000
  0.000000,  0.000000,  0.000000,  0.000000,  0.000000,  0.000000
  0.000000,  0.000000,  0.000000,  0.000000,  0.000000,  0.000000
  0.000000,  0.000000,  0.000000,  0.000000,  0.000000,  0.000000
  0.000000,  0.000000,  0.000000,  0.000000,  0.000000,  0.000000
  0.000000,  0.000000,  0.000000,  0.000000,  0.000000,  0.000000
  0.000000,  0.000000,  0.000000,  0.000000,  0.000000,  0.000000
  0.000000,  0.000000,  0.000000,  0.000000,  0.000000,  0.000000
  0.000000,  0.000000,  0.000000,  0.000000,  0.000000,  0.000000
  0.000000,  0.000000,  0.000000,  0.000000,  0.000000,  0.000000
  0.000000,  0.000000,  0.000000,  0.000000,  0.000000,  0.000000
  0.000001,  0.000000,  0.000000,  0.000000,  0.000000,  0.000001
  0.000005,  0.000000,  0.000000,  0.000000,  0.000000,  0.000005
  0.000012,  0.000000,  0.000000,  0.000000,  0.000000,  0.000012
  0.000024,  0.000000,  0.000000,  0.000000,  0.000000,  0.000024
  0.000042,  0.000000,  0.000000,  0.000000,  0.000000,  0.000042
  0.000067,  0.000000,  0.000000,  0.000000,  0.000000,  0.000067
  0.000100,  0.000000, -0.000000,  0.000000,  0.000000,  0.000100
  0.000143,  0.000000, -0.000000,  0.000000,  0.000000,  0.000142
  0.000195,  0.000000, -0.000000,  0.000000,  0.000000,  0.000194
  0.000259,  0.000000, -0.000000,  0.000000,  0.000000,  0.000257
  0.000336,  0.000000, -0.000000,  0.000000,  0.000000,  0.000331
  0.000425,  0.000000, -0.000000,  0.000000,  0.000000,  0.000419
  0.000529,  0.000000, -0.000000,  0.000000,  0.000000,  0.000519
  0.000647,  0.000000, -0.000000,  0.000000,  0.000000,  0.000633
  0.000781,  0.000000, -0.000000,  0.000000,  0.000000,  0.000761
  0.000930,  0.000000, -0.000000,  0.000000,  0.000000,  0.000904
  0.001097,  0.000000, -0.000000,  0.000000,  0.000000,  0.001061
  0.001281,  0.000000, -0.000000,  0.000000,  0.000000,  0.001234
  0.001482,  0.000000, -0.000000,  0.000000,  0.000000,  0.001422
  0.001702,  0.000000, -0.000000,  0.000000,  0.000000,  0.001625
  0.001939,  0.000000, -0.000000,  0.000000,  0.000000,  0.001844
  0.002196,  0.000000, -0.000000,  0.000000,  0.000000,  0.002078
  0.002470,  0.000000, -0.000001,  0.000000,  0.000000,  0.002326
  0.002764,  0.000000, -0.000001,  0.000000,  0.000000,  0.002589
  0.003076,  0.000001, -0.000001,  0.000000,  0.000000,  0.002866
  0.003407,  0.000001, -0.000001,  0.000000,  0.000001,  0.003157
  0.003757,  0.000001, -0.000002,  0.000000,  0.000001,  0.003462
  0.004125,  0.000001, -0.000002,  0.000000,  0.000001,  0.003779
  0.004510,  0.000001, -0.000002,  0.000000,  0.000001,  0.004108
  0.004914,  0.000002, -0.000003,  0.000000,  0.000001,  0.004448
  0.005334,  0.000002, -0.000004,  0.000000,  0.000001,  0.004800
  0.005771,  0.000002, -0.000004,  0.000000,  0.000002,  0.005161
  0.006225,  0.000003, -0.000005,  0.000000,  0.000002,  0.005532
  0.006694,  0.000003, -0.000006,  0.000000,  0.000002,  0.005911
  0.007178,  0.000004, -0.000007,  0.000000,  0.000003,  0.006297
  0.007676,  0.000005, -0.000008,  0.000000,  0.000003,  0.006691
  0.008188,  0.000006, -0.000010,  0.000000,  0.000004,  0.007090
  0.008713,  0.000007, -0.000011,  0.000000,  0.000004,  0.007495
  0.009249,  0.000008, -0.000013,  0.000000,  0.000005,  0.007904
  0.009797,  0.000009, -0.000015,  0.000000,  0.000006,  0.008317
  0.010355,  0.000010, -0.000018, -0.000000,  0.000006,  0.008733
  0.010923,  0.000012, -0.000020, -0.000000,  0.000007,  0.009151
  0.011499,  0.000013, -0.000023, -0.000000,  0.000008,  0.009571
  0.012083,  0.000015, -0.000026, -0.000000,  0.000009,  0.009991
  0.012673,  0.000017, -0.000030, -0.000000,  0.000011,  0.010412
  0.013270,  0.000019, -0.000034, -0.000000,  0.000012,  0.010833
  0.013871,  0.000022, -0.000038, -0.000000,  0.000013,  0.011253
  0.014476,  0.000025, -0.000043, -0.000000,  0.000015,  0.011671
  0.015085,  0.000028, -0.000049, -0.000000,  0.000017,  0.012089
  0.015696,  0.000031, -0.000054, -0.000000,  0.000019,  0.012504
  0.016308,  0.000035, -0.000061, -0.000000,  0.000021,  0.012917
  0.016922,  0.000038, -0.000068, -0.000000,  0.000023,  0.013328
  0.017535,  0.000043, -0.000076, -0.000000,  0.000026,  0.013736
  0.018147,  0.000047, -0.000084, -0.000000,  0.000028,  0.014141
  0.018757,  0.000053, -0.000093, -0.000000,  0.000031,  0.014544
  0.019366,  0.000058, -0.000103, -0.000000,  0.000034,  0.014945
  0.019971,  0.000064, -0.000114, -0.000000,  0.000038,  0.015343
  0.020573,  0.000070, -0.000126, -0.000000,  0.000041,  0.015738
  0.021171,  0.000077, -0.000138, -0.000000,  0.000045,  0.016131
  0.021765,  0.000085, -0.000152, -0.000000,  0.000049,  0.016523
  0.022353,  0.000093, -0.000167, -0.000000,  0.000054,  0.016913
  0.022937,  0.000102, -0.000183, -0.000000,  0.000058,  0.017301
  0.023514,  0.000111, -0.000200, -0.000000,  0.000063,  0.017688
  0.024085,  0.000121, -0.000218, -0.000000,  0.000068,  0.018075
  0.024651,  0.000132, -0.000238, -0.000000,  0.000074,  0.018462
  0.025209,  0.000143, -0.000259, -0.000000,  0.000080,  0.018850
  0.025762,  0.000155, -0.000281, -0.000000,  0.000086,  0.019238
  0.026308,  0.000168, -0.000305, -0.000000,  0.000093,  0.019627
  0.026847,  0.000182, -0.000331, -0.000000,  0.000100,  0.020019
  0.027379,  0.000196, -0.000359, -0.000000,  0.000108,  0.020413
  0.027906,  0.000212, -0.000388, -0.000000,  0.000116,  0.020810
  0.028426,  0.000228, -0.000419, -0.000000,  0.000124,  0.021211
  0.028940,  0.000246, -0.000452, -0.000000,  0.000133,  0.021615
  0.029448,  0.000264, -0.000487, -0.000000,  0.000142,  0.022024
  0.029950,  0.000284, -0.000524, -0.000000,  0.000152,  0.022439
  0.030448,  0.000305, -0.000563, -0.000000,  0.000162,  0.022859
  0.030940,  0.000326, -0.000605, -0.000000,  0.000173,  0.023285
  0.031429,  0.000350, -0.000649, -0.000000,  0.000185,  0.023718
  0.031913,  0.000374, -0.000696, -0.000000,  0.000196,  0.024157
  0.032394,  0.000399, -0.000745, -0.000000,  0.000209,  0.024604
  0.032873,  0.000426, -0.000797, -0.000000,  0.000222,  0.025059
  0.033349,  0.000455, -0.000851, -0.000000,  0.000236,  0.025522
  0.033823,  0.000484, -0.000909, -0.000000,  0.000250,  0.025994
  0.034297,  0.000515, -0.000970, -0.000000,  0.000265,  0.026474
  0.034770,  0.000548, -0.001033, -0.000000,  0.000280,  0.026962
  0.035243,  0.000582, -0.001101, -0.000000,  0.000297,  0.027460
  0.035717,  0.000618, -0.001171, -0.000000,  0.000314,  0.027968
  0.036193,  0.000656, -0.001245, -0.000000,  0.000331,  0.028484
  0.036671,  0.000695, -0.001322, -0.000000,  0.000350,  0.029010
  0.037152,  0.000736, -0.001404, -0.000000,  0.000369,  0.029545
  0.037637,  0.000779, -0.001489, -0.000000,  0.000389,  0.030090
  0.038126,  0.000824, -0.001578, -0.000000,  0.000409,  0.030643
  0.038619,  0.000870, -0.001671, -0.000000,  0.000431,  0.031207
  0.039119,  0.000919, -0.001769, -0.000000,  0.000453,  0.031779
  0.039624,  0.000969, -0.001871, -0.000000,  0.000477,  0.032360
  0.040137,  0.001022, -0.001977, -0.000000,  0.000501,  0.032950
  0.040656,  0.001077, -0.002088, -0.000000,  0.000526,  0.033548
  0.041184,  0.001134, -0.002204, -0.000000,  0.000552,  0.034154
  0.041721,  0.001193, -0.002324, -0.000000,  0.000579,  0.034769
  0.042266,  0.001255, -0.002450, -0.000000,  0.000607,  0.035391
  0.042821,  0.001319, -0.002581, -0.000000,  0.000636,  0.036021
  0.043386,  0.001385, -0.002718, -0.000000,  0.000666,  0.036657
  0.043961,  0.001454, -0.002859, -0.000000,  0.000697,  0.037300
  0.044547,  0.001526, -0.003007, -0.000000,  0.000729,  0.037950
  0.045144,  0.001600, -0.003160, -0.000000,  0.000762,  0.038605
  0.045753,  0.001676, -0.003320, -0.000000,  0.000797,  0.039266
  0.046373,  0.001756, -0.003485, -0.000000,  0.000832,  0.039932
  0.047005,  0.001838, -0.003657, -0.000000,  0.000869,  0.040604
  0.047649,  0.001923, -0.003835, -0.000000,  0.000907,  0.041279
  0.048306,  0.002010, -0.004020, -0.000000,  0.000946,  0.041959
  0.048974,  0.002101, -0.004211, -0.000000,  0.000987,  0.042642
  0.049655,  0.002195, -0.004409, -0.000000,  0.001029,  0.043330
  0.050349,  0.002292, -0.004615, -0.000000,  0.001072,  0.044020
  0.051055,  0.002392, -0.004828, -0.000000,  0.001117,  0.044713
  0.051773,  0.002495, -0.005048, -0.000000,  0.001163,  0.045409
  0.052503,  0.002602, -0.005276, -0.000000,  0.001210,  0.046107
  0.053245,  0.002712, -0.005511, -0.000000,  0.001259,  0.046807
  0.053999,  0.002825, -0.005755, -0.000000,  0.001309,  0.047509
  0.054765,  0.002942, -0.006007, -0.000000,  0.001361,  0.048213
  0.055542,  0.003062, -0.006267, -0.000000,  0.001415,  0.048919
  0.056330,  0.003186, -0.006535, -0.000000,  0.001470,  0.049626
  0.057128,  0.003314, -0.006812, -0.000000,  0.001527,  0.050334
  0.057937,  0.003445, -0.007098, -0.000000,  0.001585,  0.051044
  0.058756,  0.003580, -0.007393, -0.000000,  0.001645,  0.051755
  0.059585,  0.003719, -0.007698, -0.000000,  0.001707,  0.052467
  0.060423,  0.003862, -0.008012, -0.000000,  0.001771,  0.053180
  0.061269,  0.004009, -0.008335, -0.000000,  0.001837,  0.053895
  0.062124,  0.004161, -0.008669, -0.000000,  0.001904,  0.054611
  0.062986,  0.004316, -0.009012, -0.000000,  0.001973,  0.055328
  0.063856,  0.004476, -0.009366, -0.000000,  0.002045,  0.056047
  0.064732,  0.004640, -0.009730, -0.000000,  0.002118,  0.056768
  0.065615,  0.004808, -0.010104, -0.000000,  0.002193,  0.057490
  0.066503,  0.004981, -0.010490, -0.000000,  0.002271,  0.058215
  0.067397,  0.005158, -0.010887, -0.000000,  0.002350,  0.058941
  0.068295,  0.005341, -0.011295, -0.000000,  0.002432,  0.059670
  0.069198,  0.005527, -0.011714, -0.000000,  0.002515,  0.060402
  0.070104,  0.005719, -0.012145, -0.000000,  0.002601,  0.061136
  0.071014,  0.005916, -0.012588, -0.000000,  0.002690,  0.061873
  0.071926,  0.006117, -0.013044, -0.000000,  0.002780,  0.062613
  0.072841,  0.006324, -0.013511, -0.000000,  0.002873,  0.063357
  0.073757,  0.006536, -0.013991, -0.000000,  0.002968,  0.064104
  0.074675,  0.006753, -0.014484, -0.000000,  0.003066,  0.064856
  0.075593,  0.006975, -0.014991, -0.000000,  0.003166,  0.065611
  0.076512,  0.007203, -0.015510, -0.000000,  0.003269,  0.066371
  0.077432,  0.007436, -0.016043, -0.000000,  0.003374,  0.067136
  0.078351,  0.007675, -0.016590, -0.000000,  0.003482,  0.067905
  0.079269,  0.007920, -0.017150, -0.000000,  0.003593,  0.068680
  0.080187,  0.008170, -0.017725, -0.000000,  0.003706,  0.069459
  0.081103,  0.008426, -0.018315, -0.000000,  0.003822,  0.070245
  0.082019,  0.008688, -0.018919, -0.000000,  0.003941,  0.071035
  0.082930,  0.008957, -0.019538, -0.000000,  0.004062,  0.071829
  0.083835,  0.009231, -0.020172, -0.000000,  0.004186,  0.072625
  0.084730,  0.009510, -0.020820, -0.000000,  0.004313,  0.073419
  0.085614,  0.009795, -0.021482, -0.000000,  0.004442,  0.074209
  0.086484,  0.010086, -0.022159, -0.000000,  0.004574,  0.074994
  0.087338,  0.010382, -0.022851, -0.000000,  0.004708,  0.075772
  0.088173,  0.010684, -0.023556, -0.000000,  0.004844,  0.076539
  0.088988,  0.010990, -0.024275, -0.000000,  0.004982,  0.077295
  0.089780,  0.011301, -0.025008, -0.000000,  0.005122,  0.078038
  0.090547,  0.011617, -0.025754, -0.000000,  0.005263,  0.078765
  0.091287,  0.011938, -0.026513, -0.000000,  0.005406,  0.079475
  0.092000,  0.012263, -0.027286, -0.000000,  0.005551,  0.080166
  0.092682,  0.012592, -0.028071, -0.000000,  0.005697,  0.080837
  0.093334,  0.012925, -0.028868, -0.000000,  0.005845,  0.081488
  0.093954,  0.013261, -0.029678, -0.000000,  0.005993,  0.082116
  0.094540,  0.013601, -0.030499, -0.000000,  0.006143,  0.082721
  0.095092,  0.013945, -0.031332, -0.000000,  0.006294,  0.083303
  0.095609,  0.014291, -0.032177, -0.000000,  0.006445,  0.083860
  0.096090,  0.014641, -0.033032, -0.000000,  0.006597,  0.084393
  0.096536,  0.014993, -0.033897, -0.000000,  0.006750,  0.084900
  0.096945,  0.015347, -0.034773, -0.000000,  0.006903,  0.085383
  0.097318,  0.015703, -0.035658, -0.000000,  0.007056,  0.085841
  0.097654,  0.016061, -0.036552, -0.000000,  0.007210,  0.086274
  0.097955,  0.016421, -0.037456, -0.000000,  0.007364,  0.086683
  0.098220,  0.016783, -0.038368, -0.000000,  0.007518,  0.087069
  0.098449,  0.017145, -0.039288, -0.000000,  0.007673,  0.087431
  0.098645,  0.017508, -0.040217, -0.000000,  0.007827,  0.087772
  0.098806,  0.017873, -0.041152, -0.000000,  0.007982,  0.088091
  0.098935,  0.018237, -0.042094, -0.000000,  0.008136,  0.088391
  0.099032,  0.018602, -0.043043, -0.000000,  0.008291,  0.088672
  0.099099,  0.018967, -0.043998, -0.000000,  0.008445,  0.088935
  0.099137,  0.019331, -0.044959, -0.000000,  0.008600,  0.089182
  0.099148,  0.019696, -0.045924, -0.000000,  0.008754,  0.089414
  0.099132,  0.020059, -0.046895, -0.000000,  0.008909,  0.089632
  0.099092,  0.020422, -0.047870, -0.000000,  0.009064,  0.089839
  0.099029,  0.020784, -0.048849, -0.000000,  0.009218,  0.090035
  0.098944,  0.021145, -0.049832, -0.000000,  0.009373,  0.090222
  0.098841,  0.021505, -0.050818, -0.000000,  0.009528,  0.090402
  0.098720,  0.021863, -0.051807, -0.000000,  0.009683,  0.090576
  0.098584,  0.022219, -0.052798, -0.000000,  0.009838,  0.090745
  0.098435,  0.022574, -0.053791, -0.000000,  0.009993,  0.090911
  0.098274,  0.022926, -0.054786, -0.000000,  0.010149,  0.091075
  0.098103,  0.023277, -0.055782, -0.000000,  0.010305,  0.091239
  0.097925,  0.023626, -0.056780, -0.000000,  0.010461,  0.091404
  0.097741,  0.023972, -0.057777, -0.000000,  0.010618,  0.091571
  0.097553,  0.024316, -0.058776, -0.000000,  0.010776,  0.091741
  0.097364,  0.024658, -0.059774, -0.000000,  0.010934,  0.091915
  0.097174,  0.024997, -0.060771, -0.000000,  0.011093,  0.092094
  0.096987,  0.025334, -0.061768, -0.000000,  0.011252,  0.092279
  0.096803,  0.025668, -0.062764, -0.000000,  0.011413,  0.092471
  0.096625,  0.025999, -0.063759, -0.000000,  0.011574,  0.092670
  0.096453,  0.026328, -0.064752, -0.000000,  0.011736,  0.092876
  0.096290,  0.026654, -0.065743, -0.000000,  0.011899,  0.093091
  0.096137,  0.026978, -0.066732, -0.000000,  0.012063,  0.093314
  0.095996,  0.027299, -0.067719, -0.000000,  0.012227,  0.093545
  0.095867,  0.027617, -0.068704, -0.000000,  0.012393,  0.093785
  0.095751,  0.027932, -0.069686, -0.000000,  0.012560,  0.094033
  0.095651,  0.028245, -0.070664, -0.000000,  0.012728,  0.094289
  0.095566,  0.028556, -0.071640, -0.000000,  0.012897,  0.094553
  0.095498,  0.028863, -0.072612, -0.000000,  0.013067,  0.094825
  0.095447,  0.029169, -0.073581, -0.000000,  0.013239,  0.095103
  0.095413,  0.029472, -0.074547, -0.000000,  0.013411,  0.095388
  0.095398,  0.029772, -0.075508, -0.000000,  0.013584,  0.095679
  0.095402,  0.030070, -0.076466, -0.000000,  0.013758,  0.095975
  0.095425,  0.030366, -0.077420, -0.000000,  0.013934,  0.096276
  0.095466,  0.030660, -0.078369, -0.000000,  0.014110,  0.096579
  0.095527,  0.030952, -0.079315, -0.000000,  0.014287,  0.096886
  0.095606,  0.031242, -0.080256, -0.000000,  0.014465,  0.097194
  0.095704,  0.031530, -0.081193, -0.000000,  0.014644,  0.097503
  0.095819,  0.031816, -0.082125, -0.000000,  0.014823,  0.097811
  0.095953,  0.032101, -0.083053, -0.000000,  0.015004,  0.098118
  0.096103,  0.032384, -0.083977, -0.000000,  0.015184,  0.098423
  0.096270,  0.032665, -0.084896, -0.000000,  0.015366,  0.098725
  0.096452,  0.032946, -0.085810, -0.000000,  0.015547,  0.099022
  0.096649,  0.033224, -0.086720, -0.000000,  0.015729,  0.099314
  0.096860,  0.033502, -0.087625, -0.000000,  0.015912,  0.099599
  0.097083,  0.033778, -0.088526, -0.000000,  0.016094,  0.099878
  0.097318,  0.034054, -0.089422, -0.000000,  0.016276,  0.100148
  0.097563,  0.034328, -0.090314, -0.000000,  0.016459,  0.100409
  0.097817,  0.034602, -0.091201, -0.000000,  0.016641,  0.100661
  0.098079,  0.034875, -0.092084, -0.000000,  0.016823,  0.100902
  0.098347,  0.035147, -0.092962, -0.000000,  0.017005,  0.101132
  0.098620,  0.035419, -0.093835, -0.000000,  0.017187,  0.101350
  0.098897,  0.035690, -0.094704, -0.000000,  0.017367,  0.101556
  0.099175,  0.035960, -0.095569, -0.000000,  0.017548,  0.101749
  0.099455,  0.036230, -0.096429, -0.000000,  0.017727,  0.101929
  0.099733,  0.036500, -0.097285, -0.000000,  0.017906,  0.102095
  0.100009,  0.036769, -0.098137, -0.000000,  0.018084,  0.102248
  0.100282,  0.037038, -0.098984, -0.000000,  0.018261,  0.102386
  0.100549,  0.037307, -0.099827, -0.000000,  0.018437,  0.102511
  0.100809,  0.037575, -0.100666, -0.000000,  0.018612,  0.102621
  0.101061,  0.037843, -0.101501, -0.000000,  0.018786,  0.102718
  0.101304,  0.038111, -0.102331, -0.000000,  0.018959,  0.102801
  0.101536,  0.038379, -0.103157, -0.000000,  0.019130,  0.102869
  0.101756,  0.038646, -0.103980, -0.000000,  0.019300,  0.102925
  0.101963,  0.038913, -0.104798, -0.000000,  0.019469,  0.102967
  0.102155,  0.039180, -0.105612, -0.000000,  0.019636,  0.102997
  0.102331,  0.039446, -0.106421, -0.000000,  0.019802,  0.103014
  0.102492,  0.039712, -0.107227, -0.000000,  0.019966,  0.103020
  0.102634,  0.039977, -0.108029, -0.000000,  0.020129,  0.103014
  0.102758,  0.040241, -0.108827, -0.000000,  0.020291,  0.102997
  0.102863,  0.040506, -0.109620, -0.000000,  0.020451,  0.102971
  0.102948,  0.040769, -0.110410, -0.000000,  0.020609,  0.102935
  0.103012,  0.041031, -0.111195, -0.000000,  0.020766,  0.102890
  0.103056,  0.041293, -0.111976, -0.000000,  0.020921,  0.102836
  0.103078,  0.041554, -0.112753, -0.000000,  0.021075,  0.102776
  0.103077,  0.041813, -0.113526, -0.000000,  0.021227,  0.102708
  0.103055,  0.042071, -0.114294, -0.000000,  0.021378,  0.102635
  0.103011,  0.042328, -0.115058, -0.000000,  0.021527,  0.102556
  0.102944,  0.042583, -0.115817, -0.000000,  0.021675,  0.102472
  0.102854,  0.042837, -0.116572, -0.000000,  0.021821,  0.102384
  0.102743,  0.043089, -0.117323, -0.000000,  0.021966,  0.102293
  0.102609,  0.043339, -0.118068, -0.000000,  0.022110,  0.102199
  0.102453,  0.043586, -0.118809, -0.000000,  0.022252,  0.102102
  0.102276,  0.043832, -0.119545, -0.000000,  0.022393,  0.102004
  0.102078,  0.044075, -0.120276, -0.000000,  0.022532,  0.101905
  0.101860,  0.044316, -0.121002, -0.000000,  0.022670,  0.101805
  0.101621,  0.044553, -0.121722, -0.000000,  0.022807,  0.101704
  0.101363,  0.044788, -0.122437, -0.000000,  0.022943,  0.101603
  0.101087,  0.045020, -0.123147, -0.000000,  0.023077,  0.101503
  0.100793,  0.045249, -0.123850, -0.000000,  0.023210,  0.101404
  0.100483,  0.045474, -0.124548, -0.000000,  0.023342,  0.101305
  0.100156,  0.045695, -0.125240, -0.000000,  0.023472,  0.101207
  0.099814,  0.045913, -0.125925, -0.000000,  0.023602,  0.101111
  0.099459,  0.046127, -0.126604, -0.000000,  0.023730,  0.101016
  0.099090,  0.046337, -0.127277, -0.000000,  0.023857,  0.100922
  0.098709,  0.046542, -0.127942, -0.000000,  0.023983,  0.100829
  0.098318,  0.046743, -0.128601, -0.000000,  0.024108,  0.100738
  0.097917,  0.046939, -0.129252, -0.000000,  0.024231,  0.100647
  0.097507,  0.047131, -0.129896, -0.000000,  0.024354,  0.100558
  0.097090,  0.047318, -0.130532, -0.000000,  0.024475,  0.100469
  0.096666,  0.047499, -0.131160, -0.000000,  0.024595,  0.100381
  0.096238,  0.047676, -0.131780, -0.000000,  0.024713,  0.100293
  0.095805,  0.047847, -0.132392, -0.000000,  0.024831,  0.100205
  0.095369,  0.048012, -0.132995, -0.000000,  0.024947,  0.100116
  0.094931,  0.048172, -0.133590, -0.000000,  0.025062,  0.100027
  0.094492,  0.048327, -0.134175, -0.000000,  0.025175,  0.099936
  0.094053,  0.048475, -0.134751, -0.000000,  0.025287,  0.099844
  0.093615,  0.048617, -0.135318, -0.000000,  0.025397,  0.099749
  0.093180,  0.048754, -0.135874, -0.000000,  0.025506,  0.099653
  0.092747,  0.048884, -0.136421, -0.000000,  0.025614,  0.099553
  0.092318,  0.049008, -0.136957, -0.000000,  0.025719,  0.099450
  0.091894,  0.049125, -0.137483, -0.000000,  0.025823,  0.099343
  0.091475,  0.049237, -0.137998, -0.000000,  0.025926,  0.099232
  0.091062,  0.049341, -0.138502, -0.000000,  0.026026,  0.099116
  0.090655,  0.049439, -0.138995, -0.000000,  0.026125,  0.098995
  0.090256,  0.049531, -0.139476, -0.000000,  0.026222,  0.098869
  0.089865,  0.049616, -0.139946, -0.000000,  0.026317,  0.098737
  0.089482,  0.049694, -0.140403, -0.000000,  0.026410,  0.098598
  0.089108,  0.049766, -0.140849, -0.000000,  0.026500,  0.098453
  0.088743,  0.049831, -0.141282, -0.000000,  0.026589,  0.098302
  0.088390,  0.049891, -0.141705, -0.000000,  0.026677,  0.098146
  0.088050,  0.049945, -0.142118, -0.000000,  0.026763,  0.097986
  0.087724,  0.049995, -0.142520, -0.000000,  0.026848,  0.097823
  0.087412,  0.050041, -0.142914, -0.000000,  0.026933,  0.097657
  0.087117,  0.050083, -0.143299, -0.000000,  0.027017,  0.097491
  0.086839,  0.050122, -0.143677, -0.000000,  0.027101,  0.097323
  0.086579,  0.050158, -0.144048, -0.000000,  0.027186,  0.097156
  0.086338,  0.050193, -0.144413, -0.000000,  0.027271,  0.096990
  0.086116,  0.050226, -0.144772, -0.000000,  0.027357,  0.096827
  0.085913,  0.050259, -0.145127, -0.000000,  0.027444,  0.096665
  0.085731,  0.050291, -0.145477, -0.000000,  0.027532,  0.096508
  0.085570,  0.050324, -0.145825, -0.000000,  0.027621,  0.096354
  0.085429,  0.050358, -0.146170, -0.000000,  0.027713,  0.096205
  0.085310,  0.050393, -0.146513, -0.000000,  0.027806,  0.096062
  0.085211,  0.050430, -0.146855, -0.000000,  0.027901,  0.095924
  0.085133,  0.050470, -0.147197, -0.000000,  0.027999,  0.095792
  0.085076,  0.050513, -0.147539, -0.000000,  0.028098,  0.095667
  0.085038,  0.050559, -0.147882, -0.000000,  0.028201,  0.095550
  0.085021,  0.050610, -0.148227, -0.000000,  0.028306,  0.095439
  0.085023,  0.050665, -0.148575, -0.000000,  0.028413,  0.095336
  0.085043,  0.050724, -0.148925, -0.000000,  0.028523,  0.095240
  0.085081,  0.050790, -0.149279, -0.000000,  0.028636,  0.095152
  0.085137,  0.050861, -0.149637, -0.000000,  0.028751,  0.095071
  0.085209,  0.050938, -0.150001, -0.000000,  0.028869,  0.094998
  0.085296,  0.051022, -0.150369, -0.000000,  0.028989,  0.094932
  0.085397,  0.051112, -0.150743, -0.000000,  0.029112,  0.094873
  0.085512,  0.051209, -0.151124, -0.000000,  0.029237,  0.094821
  0.085639,  0.051314, -0.151511, -0.000000,  0.029364,  0.094776
  0.085776,  0.051426, -0.151906, -0.000000,  0.029493,  0.094737
  0.085924,  0.051546, -0.152308, -0.000000,  0.029624,  0.094704
  0.086080,  0.051674, -0.152719, -0.000000,  0.029757,  0.094676
  0.086243,  0.051809, -0.153137, -0.000000,  0.029891,  0.094653
  0.086412,  0.051953, -0.153565, -0.000000,  0.030026,  0.094635
  0.086586,  0.052104, -0.154001, -0.000000,  0.030163,  0.094620
  0.086763,  0.052264, -0.154446, -0.000000,  0.030300,  0.094609
  0.086942,  0.052432, -0.154901, -0.000000,  0.030439,  0.094601
  0.087122,  0.052607, -0.155365, -0.000000,  0.030577,  0.094594
  0.087301,  0.052791, -0.155839, -0.000000,  0.030716,  0.094590
  0.087478,  0.052983, -0.156323, -0.000000,  0.030855,  0.094586
  0.087652,  0.053182, -0.156817, -0.000000,  0.030993,  0.094582
  0.087821,  0.053389, -0.157320, -0.000000,  0.031131,  0.094578
  0.087985,  0.053603, -0.157834, -0.000000,  0.031268,  0.094574
  0.088142,  0.053824, -0.158357, -0.000000,  0.031404,  0.094568
  0.088291,  0.054051, -0.158890, -0.000000,  0.031539,  0.094560
  0.088431,  0.054286, -0.159433, -0.000000,  0.031673,  0.094550
  0.088561,  0.054527, -0.159985, -0.000000,  0.031805,  0.094537
  0.088681,  0.054773, -0.160547, -0.000000,  0.031935,  0.094520
  0.088788,  0.055025, -0.161118, -0.000000,  0.032064,  0.094500
  0.088883,  0.055282, -0.161698, -0.000000,  0.032191,  0.094476
  0.088965,  0.055544, -0.162287, -0.000000,  0.032315,  0.094447
  0.089032,  0.055811, -0.162884, -0.000000,  0.032437,  0.094413
  0.089086,  0.056081, -0.163489, -0.000000,  0.032557,  0.094375
  0.089124,  0.056355, -0.164103, -0.000000,  0.032675,  0.094331
  0.089146,  0.056632, -0.164724, -0.000000,  0.032790,  0.094281
  0.089153,  0.056911, -0.165352, -0.000000,  0.032902,  0.094226
  0.089144,  0.057192, -0.165987, -0.000000,  0.033012,  0.094165
  0.089119,  0.057476, -0.166628, -0.000000,  0.033120,  0.094099
  0.089078,  0.057760, -0.167275, -0.000000,  0.033225,  0.094027
  0.089020,  0.058045, -0.167928, -0.000000,  0.033327,  0.093949
  0.088946,  0.058330, -0.168586, -0.000000,  0.033428,  0.093866
  0.088856,  0.058615, -0.169248, -0.000000,  0.033526,  0.093777
  0.088750,  0.058899, -0.169915, -0.000000,  0.033621,  0.093683
  0.088628,  0.059182, -0.170585, -0.000000,  0.033715,  0.093584
  0.088492,  0.059463, -0.171259, -0.000000,  0.033806,  0.093481
  0.088340,  0.059743, -0.171935, -0.000000,  0.033896,  0.093372
  0.088175,  0.060019, -0.172614, -0.000000,  0.033984,  0.093260
  0.087996,  0.060292, -0.173294, -0.000000,  0.034070,  0.093143
  0.087803,  0.060563, -0.173976, -0.000000,  0.034155,  0.093023
  0.087599,  0.060829, -0.174658, -0.000000,  0.034239,  0.092900
  0.087383,  0.061091, -0.175340, -0.000000,  0.034321,  0.092774
  0.087157,  0.061348, -0.176022, -0.000000,  0.034403,  0.092645
  0.086920,  0.061600, -0.176703, -0.000000,  0.034484,  0.092515
  0.086675,  0.061847, -0.177383, -0.000000,  0.034564,  0.092382
  0.086421,  0.062089, -0.178061, -0.000000,  0.034644,  0.092249
  0.086160,  0.062325, -0.178737, -0.000000,  0.034724,  0.092114
  0.085893,  0.062554, -0.179410, -0.000000,  0.034804,  0.091979
  0.085620,  0.062777, -0.180080, -0.000000,  0.034883,  0.091844
  0.085344,  0.062994, -0.180746, -0.000000,  0.034964,  0.091709
  0.085064,  0.063204, -0.181408, -0.000000,  0.035044,  0.091575
  0.084782,  0.063406, -0.182066, -0.000000,  0.035125,  0.091442
  0.084498,  0.063602, -0.182719, -0.000000,  0.035207,  0.091310
  0.084214,  0.063791, -0.183366, -0.000000,  0.035290,  0.091180
  0.083931,  0.063972, -0.184008, -0.000000,  0.035374,  0.091051
  0.083649,  0.064147, -0.184644, -0.000000,  0.035459,  0.090925
  0.083370,  0.064313, -0.185274, -0.000000,  0.035545,  0.090801
  0.083094,  0.064473, -0.185897, -0.000000,  0.035632,  0.090680
  0.082823,  0.064625, -0.186513, -0.000000,  0.035721,  0.090561
  0.082557,  0.064771, -0.187122, -0.000000,  0.035811,  0.090446
  0.082296,  0.064909, -0.187724, -0.000000,  0.035903,  0.090333
  0.082042,  0.065040, -0.188317, -0.000000,  0.035996,  0.090224
  0.081796,  0.065164, -0.188904, -0.000000,  0.036090,  0.090118
  0.081558,  0.065281, -0.189482, -0.000000,  0.036186,  0.090015
  0.081329,  0.065393, -0.190052, -0.000000,  0.036283,  0.089915
  0.081108,  0.065497, -0.190613, -0.000000,  0.036381,  0.089818
  0.080898,  0.065596, -0.191166, -0.000000,  0.036481,  0.089724
  0.080697,  0.065689, -0.191711, -0.000000,  0.036582,  0.089634
  0.080507,  0.065777, -0.192247, -0.000000,  0.036684,  0.089546
  0.080329,  0.065859, -0.192775, -0.000000,  0.036788,  0.089461
  0.080161,  0.065936, -0.193294, -0.000000,  0.036892,  0.089378
  0.080004,  0.066009, -0.193804, -0.000000,  0.036997,  0.089298
  0.079859,  0.066077, -0.194306, -0.000000,  0.037103,  0.089221
  0.079726,  0.066142, -0.194799, -0.000000,  0.037210,  0.089145
  0.079604,  0.066203, -0.195284, -0.000000,  0.037317,  0.089071
  0.079494,  0.066261, -0.195760, -0.000000,  0.037424,  0.088998
  0.079395,  0.066316, -0.196229, -0.000000,  0.037532,  0.088927
  0.079308,  0.066369, -0.196689, -0.000000,  0.037640,  0.088857
  0.079232,  0.066420, -0.197141, -0.000000,  0.037748,  0.088788
  0.079166,  0.066469, -0.197585, -0.000000,  0.037855,  0.088719
  0.079111,  0.066517, -0.198022, -0.000000,  0.037963,  0.088650
  0.079066,  0.066564, -0.198451, -0.000000,  0.038070,  0.088581
  0.079030,  0.066611, -0.198873, -0.000000,  0.038176,  0.088512
  0.079004,  0.066658, -0.199288, -0.000000,  0.038282,  0.088443
  0.078986,  0.066705, -0.199696, -0.000000,  0.038387,  0.088372
  0.078977,  0.066753, -0.200098, -0.000000,  0.038490,  0.088301
  0.078975,  0.066803, -0.200494, -0.000000,  0.038593,  0.088228
  0.078980,  0.066853, -0.200884, -0.000000,  0.038695,  0.088153
  0.078991,  0.066906, -0.201268, -0.000000,  0.038795,  0.088077
  0.079008,  0.066961, -0.201647, -0.000000,  0.038894,  0.087999
  0.079030,  0.067019, -0.202021, -0.000000,  0.038992,  0.087919
  0.079056,  0.067080, -0.202391, -0.000000,  0.039088,  0.087837
  0.079085,  0.067143, -0.202756, -0.000000,  0.039183,  0.087752
  0.079117,  0.067211, -0.203117, -0.000000,  0.039276,  0.087665
  0.079151,  0.067282, -0.203474, -0.000000,  0.039367,  0.087575
  0.079187,  0.067357, -0.203828, -0.000000,  0.039456,  0.087483
  0.079222,  0.067437, -0.204179, -0.000000,  0.039544,  0.087387
  0.079258,  0.067521, -0.204528, -0.000000,  0.039631,  0.087289
  0.079292,  0.067610, -0.204874, -0.000000,  0.039715,  0.087188
  0.079325,  0.067704, -0.205218, -0.000000,  0.039799,  0.087085
  0.079355,  0.067803, -0.205561, -0.000000,  0.039880,  0.086978
  0.079383,  0.067907, -0.205902, -0.000000,  0.039960,  0.086869
  0.079406,  0.068017, -0.206242, -0.000000,  0.040038,  0.086757
  0.079425,  0.068131, -0.206582, -0.000000,  0.040115,  0.086643
  0.079439,  0.068252, -0.206921, -0.000000,  0.040191,  0.086526
  0.079448,  0.068378, -0.207261, -0.000000,  0.040265,  0.086406
  0.079450,  0.068509, -0.207600, -0.000000,  0.040338,  0.086284
  0.079446,  0.068646, -0.207941, -0.000000,  0.040410,  0.086161
  0.079435,  0.068788, -0.208282, -0.000000,  0.040481,  0.086035
  0.079416,  0.068936, -0.208624, -0.000000,  0.040551,  0.085907
  0.079389,  0.069090, -0.208968, -0.000000,  0.040620,  0.085777
  0.079354,  0.069248, -0.209313, -0.000000,  0.040688,  0.085646
  0.079311,  0.069412, -0.209660, -0.000000,  0.040756,  0.085514
  0.079259,  0.069581, -0.210009, -0.000000,  0.040823,  0.085380
  0.079197,  0.069754, -0.210361, -0.000000,  0.040890,  0.085246
  0.079127,  0.069933, -0.210715, -0.000000,  0.040957,  0.085110
  0.079047,  0.070116, -0.211072, -0.000000,  0.041023,  0.084974
  0.078958,  0.070303, -0.211432, -0.000000,  0.041090,  0.084838
  0.078859,  0.070494, -0.211795, -0.000000,  0.041156,  0.084701
  0.078751,  0.070689, -0.212161, -0.000000,  0.041222,  0.084564
  0.078634,  0.070888, -0.212531, -0.000000,  0.041289,  0.084427
  0.078508,  0.071090, -0.212903, -0.000000,  0.041356,  0.084290
  0.078372,  0.071295, -0.213280, -0.000000,  0.041423,  0.084154
  0.078228,  0.071503, -0.213660, -0.000000,  0.041491,  0.084018
  0.078076,  0.071713, -0.214044, -0.000000,  0.041559,  0.083883
  0.077914,  0.071925, -0.214431, -0.000000,  0.041628,  0.083748
  0.077745,  0.072139, -0.214822, -0.000000,  0.041698,  0.083614
  0.077569,  0.072355, -0.215217, -0.000000,  0.041768,  0.083482
  0.077384,  0.072571, -0.215616, -0.000000,  0.041838,  0.083350
  0.077194,  0.072789, -0.216018, -0.000000,  0.041910,  0.083219
  0.076996,  0.073007, -0.216425, -0.000000,  0.041982,  0.083089
  0.076793,  0.073225, -0.216835, -0.000000,  0.042055,  0.082961
  0.076584,  0.073443, -0.217248, -0.000000,  0.042128,  0.082833
  0.076370,  0.073660, -0.217665, -0.000000,  0.042202,  0.082707
  0.076152,  0.073876, -0.218086, -0.000000,  0.042277,  0.082582
  0.075930,  0.074091, -0.218510, -0.000000,  0.042353,  0.082458
  0.075704,  0.074305, -0.218937, -0.000000,  0.042429,  0.082336
  0.075476,  0.074517, -0.219368, -0.000000,  0.042506,  0.082214
  0.075245,  0.074726, -0.219801, -0.000000,  0.042583,  0.082094
  0.075012,  0.074934, -0.220237, -0.000000,  0.042660,  0.081974
  0.074779,  0.075138, -0.220676, -0.000000,  0.042738,  0.081856
  0.074544,  0.075339, -0.221118, -0.000000,  0.042817,  0.081738
  0.074310,  0.075538, -0.221561, -0.000000,  0.042895,  0.081621
  0.074076,  0.075732, -0.222008, -0.000000,  0.042974,  0.081505
  0.073843,  0.075923, -0.222456, -0.000000,  0.043053,  0.081389
  0.073612,  0.076110, -0.222905, -0.000000,  0.043132,  0.081274
  0.073383,  0.076293, -0.223357, -0.000000,  0.043211,  0.081159
  0.073156,  0.076471, -0.223810, -0.000000,  0.043289,  0.081044
  0.072932,  0.076645, -0.224263, -0.000000,  0.043368,  0.080929
  0.072711,  0.076814, -0.224718, -0.000000,  0.043446,  0.080815
  0.072495,  0.076978, -0.225174, -0.000000,  0.043524,  0.080700
  0.072282,  0.077138, -0.225630, -0.000000,  0.043601,  0.080585
  0.072074,  0.077292, -0.226086, -0.000000,  0.043677,  0.080469
  0.071871,  0.077441, -0.226542, -0.000000,  0.043753,  0.080353
  0.071673,  0.077585, -0.226998, -0.000000,  0.043829,  0.080237
  0.071481,  0.077724, -0.227454, -0.000000,  0.043903,  0.080119
  0.071294,  0.077858, -0.227909, -0.000000,  0.043977,  0.080001
  0.071113,  0.077986, -0.228363, -0.000000,  0.044049,  0.079882
  0.070938,  0.078109, -0.228816, -0.000000,  0.044121,  0.079762
  0.070769,  0.078227, -0.229267, -0.000000,  0.044192,  0.079641
  0.070606,  0.078340, -0.229717, -0.000000,  0.044262,  0.079518
  0.070450,  0.078448, -0.230165, -0.000000,  0.044330,  0.079394
  0.070300,  0.078551, -0.230611, -0.000000,  0.044398,  0.079269
  0.070156,  0.078649, -0.231055, -0.000000,  0.044464,  0.079143
  0.070019,  0.078742, -0.231496, -0.000000,  0.044529,  0.079015
  0.069888,  0.078831, -0.231934, -0.000000,  0.044593,  0.078886
  0.069763,  0.078915, -0.232370, -0.000000,  0.044656,  0.078755
  0.069643,  0.078995, -0.232803, -0.000000,  0.044718,  0.078622
  0.069530,  0.079071, -0.233232, -0.000000,  0.044778,  0.078489
  0.069422,  0.079143, -0.233659, -0.000000,  0.044838,  0.078353
  0.069319,  0.079212, -0.234081, -0.000000,  0.044896,  0.078216
  0.069222,  0.079277, -0.234500, -0.000000,  0.044953,  0.078078
  0.069129,  0.079339, -0.234915, -0.000000,  0.045009,  0.077938
  0.069041,  0.079398, -0.235326, -0.000000,  0.045065,  0.077797
  0.068957,  0.079454, -0.235733, -0.000000,  0.045119,  0.077654
  0.068877,  0.079508, -0.236136, -0.000000,  0.045172,  0.077510
  0.068800,  0.079560, -0.236534, -0.000000,  0.045225,  0.077364
  0.068726,  0.079610, -0.236928, -0.000000,  0.045277,  0.077218
  0.068655,  0.079658, -0.237318, -0.000000,  0.045328,  0.077070
  0.068586,  0.079705, -0.237703, -0.000000,  0.045378,  0.076921
  0.068520,  0.079751, -0.238083, -0.000000,  0.045428,  0.076771
  0.068454,  0.079797, -0.238459, -0.000000,  0.045477,  0.076620
  0.068390,  0.079841, -0.238830, -0.000000,  0.045526,  0.076468
  0.068326,  0.079886, -0.239196, -0.000000,  0.045574,  0.076316
  0.068263,  0.079931, -0.239557, -0.000000,  0.045623,  0.076162
  0.068199,  0.079976, -0.239914, -0.000000,  0.045670,  0.076008
  0.068135,  0.080021, -0.240266, -0.000000,  0.045718,  0.075854
  0.068070,  0.080068, -0.240613, -0.000000,  0.045765,  0.075698
  0.068003,  0.080116, -0.240956, -0.000000,  0.045813,  0.075543
  0.067935,  0.080165, -0.241293, -0.000000,  0.045860,  0.075387
  0.067864,  0.080216, -0.241626, -0.000000,  0.045907,  0.075231
  0.067791,  0.080268, -0.241955, -0.000000,  0.045955,  0.075075
  0.067715,  0.080323, -0.242279, -0.000000,  0.046002,  0.074918
  0.067636,  0.080380, -0.242598, -0.000000,  0.046050,  0.074762
  0.067553,  0.080440, -0.242913, -0.000000,  0.046097,  0.074606
  0.067466,  0.080502, -0.243223, -0.000000,  0.046145,  0.074449
  0.067375,  0.080567, -0.243530, -0.000000,  0.046194,  0.074293
  0.067280,  0.080635, -0.243832, -0.000000,  0.046242,  0.074137
  0.067180,  0.080706, -0.244130, -0.000000,  0.046291,  0.073981
  0.067076,  0.080781, -0.244425, -0.000000,  0.046340,  0.073825
  0.066966,  0.080859, -0.244715, -0.000000,  0.046389,  0.073669
  0.066851,  0.080940, -0.245002, -0.000000,  0.046439,  0.073514
  0.066731,  0.081025, -0.245286, -0.000000,  0.046489,  0.073359
  0.066606,  0.081114, -0.245566, -0.000000,  0.046539,  0.073204
  0.066475,  0.081206, -0.245843, -0.000000,  0.046589,  0.073050
  0.066339,  0.081303, -0.246116, -0.000000,  0.046640,  0.072895
  0.066197,  0.081402, -0.246387, -0.000000,  0.046690,  0.072741
  0.066050,  0.081506, -0.246655, -0.000000,  0.046741,  0.072588
  0.065898,  0.081614, -0.246920, -0.000000,  0.046792,  0.072434
  0.065739,  0.081725, -0.247183, -0.000000,  0.046843,  0.072281
  0.065576,  0.081839, -0.247443, -0.000000,  0.046894,  0.072127
  0.065407,  0.081958, -0.247701, -0.000000,  0.046946,  0.071974
  0.065233,  0.082080, -0.247958, -0.000000,  0.046997,  0.071821
  0.065054,  0.082205, -0.248212, -0.000000,  0.047048,  0.071668
  0.064871,  0.082334, -0.248465, -0.000000,  0.047099,  0.071515
  0.064682,  0.082466, -0.248716, -0.000000,  0.047149,  0.071362
  0.064490,  0.082601, -0.248965, -0.000000,  0.047200,  0.071208
  0.064293,  0.082739, -0.249214, -0.000000,  0.047250,  0.071055
  0.064092,  0.082880, -0.249461, -0.000000,  0.047300,  0.070901
  0.063887,  0.083023, -0.249707, -0.000000,  0.047349,  0.070747
  0.063679,  0.083169, -0.249953, -0.000000,  0.047398,  0.070593
  0.063468,  0.083317, -0.250198, -0.000000,  0.047447,  0.070438
  0.063254,  0.083467, -0.250442, -0.000000,  0.047494,  0.070283
  0.063038,  0.083619, -0.250686, -0.000000,  0.047542,  0.070127
  0.062819,  0.083773, -0.250929, -0.000000,  0.047589,  0.069971
  0.062598,  0.083928, -0.251173, -0.000000,  0.047635,  0.069814
  0.062375,  0.084084, -0.251416, -0.000000,  0.047680,  0.069656
  0.062152,  0.084241, -0.251660, -0.000000,  0.047725,  0.069498
  0.061927,  0.084399, -0.251904, -0.000000,  0.047769,  0.069339
  0.061701,  0.084557, -0.252148, -0.000000,  0.047812,  0.069179
  0.061475,  0.084716, -0.252392, -0.000000,  0.047854,  0.069019
  0.061249,  0.084875, -0.252637, -0.000000,  0.047896,  0.068857
  0.061023,  0.085033, -0.252882, -0.000000,  0.047936,  0.068695
  0.060798,  0.085192, -0.253128, -0.000000,  0.047976,  0.068532
  0.060573,  0.085349, -0.253375, -0.000000,  0.048015,  0.068368
  0.060350,  0.085506, -0.253622, -0.000000,  0.048053,  0.068202
  0.060128,  0.085661, -0.253870, -0.000000,  0.048090,  0.068036
  0.059907,  0.085815, -0.254119, -0.000000,  0.048127,  0.067869
  0.059688,  0.085967, -0.254369, -0.000000,  0.048162,  0.067701
  0.059471,  0.086118, -0.254620, -0.000000,  0.048197,  0.067532
  0.059257,  0.086267, -0.254871, -0.000000,  0.048231,  0.067362
  0.059045,  0.086413, -0.255124, -0.000000,  0.048264,  0.067191
  0.058835,  0.086558, -0.255378, -0.000000,  0.048297,  0.067019
  0.058628,  0.086699, -0.255632, -0.000000,  0.048328,  0.066846
  0.058425,  0.086838, -0.255887, -0.000000,  0.048359,  0.066673
  0.058224,  0.086974, -0.256144, -0.000000,  0.048390,  0.066498
  0.058026,  0.087107, -0.256401, -0.000000,  0.048419,  0.066322
  0.057832,  0.087237, -0.256659, -0.000000,  0.048448,  0.066146
  0.057640,  0.087364, -0.256918, -0.000000,  0.048477,  0.065969
  0.057452,  0.087487, -0.257178, -0.000000,  0.048505,  0.065791
  0.057268,  0.087607, -0.257439, -0.000000,  0.048533,  0.065612
  0.057086,  0.087723, -0.257700, -0.000000,  0.048560,  0.065432
  0.056908,  0.087835, -0.257962, -0.000000,  0.048587,  0.065252
  0.056734,  0.087944, -0.258224, -0.000000,  0.048613,  0.065071
  0.056562,  0.088049, -0.258488, -0.000000,  0.048639,  0.064890
  0.056394,  0.088151, -0.258751, -0.000000,  0.048665,  0.064707
  0.056228,  0.088248, -0.259015, -0.000000,  0.048690,  0.064525
  0.056066,  0.088342, -0.259279, -0.000000,  0.048716,  0.064342
  0.055906,  0.088432, -0.259544, -0.000000,  0.048741,  0.064158
  0.055749,  0.088518, -0.259808, -0.000000,  0.048766,  0.063974
  0.055595,  0.088601, -0.260073, -0.000000,  0.048791,  0.063789
  0.055443,  0.088679, -0.260337, -0.000000,  0.048815,  0.063604
  0.055293,  0.088754, -0.260602, -0.000000,  0.048840,  0.063419
  0.055145,  0.088826, -0.260866, -0.000000,  0.048865,  0.063233
  0.054999,  0.088894, -0.261129, -0.000000,  0.048889,  0.063047
  0.054854,  0.088959, -0.261393, -0.000000,  0.048914,  0.062861
  0.054711,  0.089021, -0.261655, -0.000000,  0.048939,  0.062675
  0.054569,  0.089079, -0.261917, -0.000000,  0.048963,  0.062488
  0.054428,  0.089134, -0.262178, -0.000000,  0.048988,  0.062301
  0.054287,  0.089187, -0.262439, -0.000000,  0.049013,  0.062114
  0.054147,  0.089237, -0.262698, -0.000000,  0.049037,  0.061927
  0.054007,  0.089284, -0.262956, -0.000000,  0.049062,  0.061739
  0.053868,  0.089329, -0.263213, -0.000000,  0.049087,  0.061551
  0.053727,  0.089371, -0.263469, -0.000000,  0.049112,  0.061364
  0.053587,  0.089412, -0.263723, -0.000000,  0.049136,  0.061176
  0.053446,  0.089450, -0.263976, -0.000000,  0.049161,  0.060987
  0.053303,  0.089487, -0.264227, -0.000000,  0.049186,  0.060799
  0.053160,  0.089523, -0.264476, -0.000000,  0.049210,  0.060610
  0.053015,  0.089557, -0.264724, -0.000000,  0.049235,  0.060421
  0.052869,  0.089590, -0.264969, -0.000000,  0.049259,  0.060232
  0.052720,  0.089622, -0.265213, -0.000000,  0.049283,  0.060043
  0.052570,  0.089654, -0.265454, -0.000000,  0.049307,  0.059853
  0.052418,  0.089685, -0.265693, -0.000000,  0.049331,  0.059663
  0.052263,  0.089715, -0.265930, -0.000000,  0.049355,  0.059473
  0.052106,  0.089746, -0.266165, -0.000000,  0.049378,  0.059283
  0.051946,  0.089776, -0.266397, -0.000000,  0.049401,  0.059092
  0.051783,  0.089807, -0.266626, -0.000000,  0.049424,  0.058901
  0.051617,  0.089838, -0.266853, -0.000000,  0.049446,  0.058709
  0.051449,  0.089870, -0.267078, -0.000000,  0.049468,  0.058517
  0.051277,  0.089902, -0.267299, -0.000000,  0.049490,  0.058325
  0.051102,  0.089936, -0.267518, -0.000000,  0.049511,  0.058132
  0.050924,  0.089971, -0.267734, -0.000000,  0.049532,  0.057939
  0.050742,  0.090007, -0.267948, -0.000000,  0.049552,  0.057745
  0.050557,  0.090044, -0.268158, -0.000000,  0.049571,  0.057550
  0.050369,  0.090083, -0.268366, -0.000000,  0.049591,  0.057355
  0.050178,  0.090124, -0.268570, -0.000000,  0.049609,  0.057160
  0.049983,  0.090166, -0.268772, -0.000000,  0.049627,  0.056964
  0.049784,  0.090211, -0.268970, -0.000000,  0.049644,  0.056767
  0.049583,  0.090258, -0.269166, -0.000000,  0.049661,  0.056569
  0.049378,  0.090306, -0.269359, -0.000000,  0.049677,  0.056371
  0.049170,  0.090357, -0.269548, -0.000000,  0.049693,  0.056172
  0.048959,  0.090410, -0.269735, -0.000000,  0.049708,  0.055973
  0.048745,  0.090466, -0.269918, -0.000000,  0.049722,  0.055773
  0.048528,  0.090524, -0.270099, -0.000000,  0.049735,  0.055572
  0.048309,  0.090584, -0.270277, -0.000000,  0.049748,  0.055370
  0.048086,  0.090647, -0.270451, -0.000000,  0.049760,  0.055168
  0.047861,  0.090713, -0.270623, -0.000000,  0.049772,  0.054965
  0.047634,  0.090781, -0.270792, -0.000000,  0.049783,  0.054761
  0.047404,  0.090851, -0.270958, -0.000000,  0.049793,  0.054556
  0.047173,  0.090924, -0.271121, -0.000000,  0.049803,  0.054351
  0.046939,  0.090999, -0.271281, -0.000000,  0.049812,  0.054144
  0.046703,  0.091077, -0.271438, -0.000000,  0.049820,  0.053938
  0.046466,  0.091157, -0.271593, -0.000000,  0.049828,  0.053730
  0.046228,  0.091240, -0.271745, -0.000000,  0.049835,  0.053521
  0.045988,  0.091324, -0.271895, -0.000000,  0.049842,  0.053312
  0.045747,  0.091411, -0.272041, -0.000000,  0.049848,  0.053102
  0.045505,  0.091500, -0.272186, -0.000000,  0.049854,  0.052892
  0.045263,  0.091591, -0.272328, -0.000000,  0.049859,  0.052680
  0.045020,  0.091683, -0.272467, -0.000000,  0.049864,  0.052468
  0.044777,  0.091778, -0.272604, -0.000000,  0.049868,  0.052256
  0.044533,  0.091874, -0.272739, -0.000000,  0.049872,  0.052042
  0.044289,  0.091971, -0.272872, -0.000000,  0.049875,  0.051828
  0.044046,  0.092070, -0.273003, -0.000000,  0.049878,  0.051614
  0.043802,  0.092170, -0.273132, -0.000000,  0.049881,  0.051399
  0.043559,  0.092271, -0.273258, -0.000000,  0.049884,  0.051183
  0.043317,  0.092373, -0.273383, -0.000000,  0.049886,  0.050966
  0.043076,  0.092475, -0.273506, -0.000000,  0.049888,  0.050749
  0.042835,  0.092579, -0.273627, -0.000000,  0.049889,  0.050532
  0.042595,  0.092682, -0.273747, -0.000000,  0.049891,  0.050313
  0.042356,  0.092786, -0.273864, -0.000000,  0.049892,  0.050095
  0.042119,  0.092890, -0.273981, -0.000000,  0.049893,  0.049876
  0.041882,  0.092994, -0.274096, -0.000000,  0.049894,  0.049656
  0.041647,  0.093098, -0.274209, -0.000000,  0.049895,  0.049436
  0.041414,  0.093201, -0.274321, -0.000000,  0.049895,  0.049215
  0.041182,  0.093304, -0.274432, -0.000000,  0.049895,  0.048994
  0.040951,  0.093406, -0.274542, -0.000000,  0.049896,  0.048773
  0.040722,  0.093507, -0.274650, -0.000000,  0.049896,  0.048551
  0.040494,  0.093607, -0.274758, -0.000000,  0.049896,  0.048328
  0.040269,  0.093706, -0.274864, -0.000000,  0.049895,  0.048105
  0.040044,  0.093804, -0.274970, -0.000000,  0.049895,  0.047882
  0.039822,  0.093900, -0.275074, -0.000000,  0.049895,  0.047658
  0.039601,  0.093994, -0.275178, -0.000000,  0.049894,  0.047434
  0.039381,  0.094087, -0.275281, -0.000000,  0.049893,  0.047210
  0.039163,  0.094178, -0.275383, -0.000000,  0.049892,  0.046985
  0.038947,  0.094266, -0.275485, -0.000000,  0.049891,  0.046760
  0.038731,  0.094353, -0.275586, -0.000000,  0.049890,  0.046534
  0.038518,  0.094437, -0.275686, -0.000000,  0.049889,  0.046308
  0.038305,  0.094519, -0.275786, -0.000000,  0.049887,  0.046081
  0.038094,  0.094599, -0.275885, -0.000000,  0.049885,  0.045854
  0.037884,  0.094676, -0.275984, -0.000000,  0.049883,  0.045627
  0.037674,  0.094751, -0.276082, -0.000000,  0.049881,  0.045399
  0.037466,  0.094823, -0.276179, -0.000000,  0.049878,  0.045171
  0.037259,  0.094892, -0.276277, -0.000000,  0.049876,  0.044942
  0.037052,  0.094958, -0.276374, -0.000000,  0.049872,  0.044713
  0.036845,  0.095022, -0.276470, -0.000000,  0.049869,  0.044483
  0.036639,  0.095083, -0.276566, -0.000000,  0.049865,  0.044253
  0.036434,  0.095141, -0.276662, -0.000000,  0.049861,  0.044022
  0.036229,  0.095196, -0.276757, -0.000000,  0.049857,  0.043791
  0.036023,  0.095249, -0.276852, -0.000000,  0.049852,  0.043559
  0.035818,  0.095299, -0.276946, -0.000000,  0.049847,  0.043327
  0.035612,  0.095345, -0.277040, -0.000000,  0.049841,  0.043094
  0.035406,  0.095390, -0.277134, -0.000000,  0.049835,  0.042861
  0.035199,  0.095431, -0.277227, -0.000000,  0.049828,  0.042627
  0.034992,  0.095470, -0.277320, -0.000000,  0.049821,  0.042392
  0.034784,  0.095506, -0.277412, -0.000000,  0.049814,  0.042157
  0.034575,  0.095540, -0.277504, -0.000000,  0.049806,  0.041922
  0.034366,  0.095571, -0.277596, -0.000000,  0.049797,  0.041685
  0.034155,  0.095600, -0.277687, -0.000000,  0.049788,  0.041449
  0.033942,  0.095626, -0.277777, -0.000000,  0.049779,  0.041211
  0.033729,  0.095651, -0.277867, -0.000000,  0.049769,  0.040973
  0.033514,  0.095673, -0.277956, -0.000000,  0.049758,  0.040734
  0.033297,  0.095693, -0.278044, -0.000000,  0.049747,  0.040495
  0.033079,  0.095711, -0.278132, -0.000000,  0.049736,  0.040255
  0.032859,  0.095728, -0.278219, -0.000000,  0.049724,  0.040014
  0.032637,  0.095743, -0.278305, -0.000000,  0.049711,  0.039772
  0.032414,  0.095756, -0.278391, -0.000000,  0.049698,  0.039530
  0.032188,  0.095768, -0.278475, -0.000000,  0.049684,  0.039288
  0.031961,  0.095779, -0.278559, -0.000000,  0.049670,  0.039044
  0.031731,  0.095789, -0.278642, -0.000000,  0.049655,  0.038800
  0.031499,  0.095797, -0.278724, -0.000000,  0.049639,  0.038555
  0.031265,  0.095805, -0.278804, -0.000000,  0.049624,  0.038310
  0.031029,  0.095812, -0.278884, -0.000000,  0.049607,  0.038064
  0.030791,  0.095819, -0.278962, -0.000000,  0.049591,  0.037817
  0.030551,  0.095825, -0.279040, -0.000000,  0.049573,  0.037569
  0.030309,  0.095831, -0.279116, -0.000000,  0.049556,  0.037321
  0.030064,  0.095836, -0.279190, -0.000000,  0.049538,  0.037072
  0.029817,  0.095842, -0.279264, -0.000000,  0.049519,  0.036823
  0.029568,  0.095848, -0.279336, -0.000000,  0.049500,  0.036573
  0.029317,  0.095853, -0.279406, -0.000000,  0.049481,  0.036322
  0.029064,  0.095860, -0.279475, -0.000000,  0.049461,  0.036070
  0.028810,  0.095866, -0.279543, -0.000000,  0.049441,  0.035818
  0.028553,  0.095874, -0.279608, -0.000000,  0.049420,  0.035566
  0.028294,  0.095882, -0.279673, -0.000000,  0.049399,  0.035312
  0.028033,  0.095891, -0.279735, -0.000000,  0.049378,  0.035058
  0.027771,  0.095900, -0.279796, -0.000000,  0.049357,  0.034804
  0.027507,  0.095911, -0.279855, -0.000000,  0.049335,  0.034549
  0.027241,  0.095923, -0.279912, -0.000000,  0.049313,  0.034293
  0.026974,  0.095936, -0.279968, -0.000000,  0.049291,  0.034036
  0.026706,  0.095950, -0.280021, -0.000000,  0.049268,  0.033779
  0.026436,  0.095966, -0.280073, -0.000000,  0.049245,  0.033522
  0.026165,  0.095983, -0.280122, -0.000000,  0.049222,  0.033264
  0.025893,  0.096001, -0.280170, -0.000000,  0.049199,  0.033005
  0.025620,  0.096021, -0.280215, -0.000000,  0.049175,  0.032746
  0.025346,  0.096042, -0.280259, -0.000000,  0.049152,  0.032486
  0.025071,  0.096065, -0.280300, -0.000000,  0.049128,  0.032226
  0.024796,  0.096090, -0.280339, -0.000000,  0.049103,  0.031965
  0.024519,  0.096116, -0.280376, -0.000000,  0.049079,  0.031703
  0.024243,  0.096143, -0.280411, -0.000000,  0.049054,  0.031441
  0.023965,  0.096172, -0.280444, -0.000000,  0.049030,  0.031179
  0.023688,  0.096203, -0.280475, -0.000000,  0.049005,  0.030916
  0.023410,  0.096235, -0.280503, -0.000000,  0.048979,  0.030652
  0.023132,  0.096269, -0.280529, -0.000000,  0.048954,  0.030388
  0.022854,  0.096304, -0.280553, -0.000000,  0.048928,  0.030123
  0.022576,  0.096341, -0.280575, -0.000000,  0.048902,  0.029858
  0.022299,  0.096379, -0.280594, -0.000000,  0.048876,  0.029593
  0.022021,  0.096418, -0.280612, -0.000000,  0.048850,  0.029326
  0.021743,  0.096459, -0.280627, -0.000000,  0.048823,  0.029060
  0.021466,  0.096501, -0.280639, -0.000000,  0.048796,  0.028792
  0.021189,  0.096544, -0.280650, -0.000000,  0.048769,  0.028524
  0.020913,  0.096588, -0.280658, -0.000000,  0.048742,  0.028256
  0.020637,  0.096633, -0.280664, -0.000000,  0.048714,  0.027987
  0.020362,  0.096679, -0.280668, -0.000000,  0.048686,  0.027718
  0.020087,  0.096726, -0.280669, -0.000000,  0.048658,  0.027448
  0.019813,  0.096773, -0.280669, -0.000000,  0.048629,  0.027177
  0.019539,  0.096821, -0.280666, -0.000000,  0.048601,  0.026906
  0.019266,  0.096870, -0.280661, -0.000000,  0.048571,  0.026635
  0.018994,  0.096918, -0.280654, -0.000000,  0.048542,  0.026362
  0.018722,  0.096968, -0.280645, -0.000000,  0.048512,  0.026090
  0.018451,  0.097017, -0.280634, -0.000000,  0.048482,  0.025816
  0.018180,  0.097066, -0.280620, -0.000000,  0.048451,  0.025542
  0.017910,  0.097115, -0.280605, -0.000000,  0.048420,  0.025268
  0.017641,  0.097164, -0.280587, -0.000000,  0.048388,  0.024993
  0.017372,  0.097213, -0.280568, -0.000000,  0.048356,  0.024717
  0.017104,  0.097261, -0.280547, -0.000000,  0.048324,  0.024441
  0.016836,  0.097309, -0.280523, -0.000000,  0.048292,  0.024164
  0.016569,  0.097355, -0.280498, -0.000000,  0.048258,  0.023886
  0.016302,  0.097402, -0.280471, -0.000000,  0.048225,  0.023608
  0.016036,  0.097447, -0.280442, -0.000000,  0.048191,  0.023329
  0.015769,  0.097491, -0.280411, -0.000000,  0.048157,  0.023050
  0.015504,  0.097534, -0.280379, -0.000000,  0.048122,  0.022770
  0.015238,  0.097576, -0.280344, -0.000000,  0.048086,  0.022489
  0.014972,  0.097617, -0.280308, -0.000000,  0.048051,  0.022208
  0.014707,  0.097656, -0.280271, -0.000000,  0.048014,  0.021926
  0.014442,  0.097694, -0.280231, -0.000000,  0.047978,  0.021643
  0.014176,  0.097730, -0.280190, -0.000000,  0.047941,  0.021360
  0.013910,  0.097764, -0.280148, -0.000000,  0.047903,  0.021076
  0.013644,  0.097797, -0.280104, -0.000000,  0.047865,  0.020792
  0.013378,  0.097828, -0.280058, -0.000000,  0.047827,  0.020506
  0.013112,  0.097857, -0.280011, -0.000000,  0.047788,  0.020221
  0.012845,  0.097884, -0.279962, -0.000000,  0.047749,  0.019934
  0.012577,  0.097909, -0.279912, -0.000000,  0.047709,  0.019647
  0.012309,  0.097932, -0.279861, -0.000000,  0.047669,  0.019359
  0.012041,  0.097953, -0.279808, -0.000000,  0.047629,  0.019071
  0.011771,  0.097972, -0.279754, -0.000000,  0.047588,  0.018782
  0.011501,  0.097989, -0.279699, -0.000000,  0.047547,  0.018492
  0.011230,  0.098003, -0.279642, -0.000000,  0.047505,  0.018202
  0.010958,  0.098016, -0.279584, -0.000000,  0.047463,  0.017911
  0.010685,  0.098026, -0.279525, -0.000000,  0.047421,  0.017619
  0.010411,  0.098034, -0.279464, -0.000000,  0.047378,  0.017327
  0.010135,  0.098040, -0.279403, -0.000000,  0.047335,  0.017034
  0.009859,  0.098043, -0.279340, -0.000000,  0.047292,  0.016740
  0.009581,  0.098045, -0.279276, -0.000000,  0.047248,  0.016446
  0.009302,  0.098044, -0.279211, -0.000000,  0.047204,  0.016152
  0.009022,  0.098041, -0.279144, -0.000000,  0.047160,  0.015856
  0.008741,  0.098037, -0.279077, -0.000000,  0.047115,  0.015560
  0.008458,  0.098030, -0.279008, -0.000000,  0.047070,  0.015264
  0.008174,  0.098021, -0.278939, -0.000000,  0.047025,  0.014966
  0.007888,  0.098011, -0.278868, -0.000000,  0.046980,  0.014669
  0.007601,  0.097998, -0.278796, -0.000000,  0.046934,  0.014370
  0.007312,  0.097984, -0.278724, -0.000000,  0.046888,  0.014071
  0.007022,  0.097968, -0.278650, -0.000000,  0.046842,  0.013771
  0.006730,  0.097950, -0.278575, -0.000000,  0.046796,  0.013471
  0.006437,  0.097931, -0.278499, -0.000000,  0.046749,  0.013170
  0.006143,  0.097911, -0.278421, -0.000000,  0.046702,  0.012869
  0.005847,  0.097888, -0.278343, -0.000000,  0.046655,  0.012567
  0.005549,  0.097865, -0.278264, -0.000000,  0.046607,  0.012264
  0.005251,  0.097841, -0.278184, -0.000000,  0.046560,  0.011961
  0.004950,  0.097815, -0.278102, -0.000000,  0.046512,  0.011658
  0.004649,  0.097788, -0.278020, -0.000000,  0.046464,  0.011353
  0.004346,  0.097760, -0.277936, -0.000000,  0.046415,  0.011048
  0.004041,  0.097732, -0.277851, -0.000000,  0.046367,  0.010743
  0.003736,  0.097703, -0.277766, -0.000000,  0.046318,  0.010437
  0.003429,  0.097673, -0.277679, -0.000000,  0.046269,  0.010130
  0.003121,  0.097642, -0.277591, -0.000000,  0.046219,  0.009823
  0.002812,  0.097611, -0.277501, -0.000000,  0.046170,  0.009515
  0.002501,  0.097580, -0.277411, -0.000000,  0.046120,  0.009207
  0.002190,  0.097548, -0.277319, -0.000000,  0.046070,  0.008898
  0.001878,  0.097516, -0.277226, -0.000000,  0.046020,  0.008589
  0.001564,  0.097484, -0.277132, -0.000000,  0.045969,  0.008279
  0.001250,  0.097453, -0.277037, -0.000000,  0.045918,  0.007968
  0.000935,  0.097421, -0.276940, -0.000000,  0.045867,  0.007657
  0.000619,  0.097389, -0.276842, -0.000000,  0.045816,  0.007345
  0.000302,  0.097358, -0.276743, -0.000000,  0.045764,  0.007033
 -0.000015,  0.097326, -0.276642, -0.000000,  0.045712,  0.006720
 -0.000333,  0.097296, -0.276540, -0.000000,  0.045659,  0.006406
 -0.000651,  0.097265, -0.276437, -0.000000,  0.045607,  0.006092
 -0.000970,  0.097235, -0.276332, -0.000000,  0.045554,  0.005777
 -0.001290,  0.097206, -0.276226, -0.000000,  0.045500,  0.005462
 -0.001610,  0.097178, -0.276118, -0.000000,  0.045447,  0.005146
 -0.001930,  0.097150, -0.276009, -0.000000,  0.045393,  0.004830
 -0.002250,  0.097122, -0.275899, -0.000000,  0.045339,  0.004513
 -0.002571,  0.097096, -0.275787, -0.000000,  0.045284,  0.004195
 -0.002892,  0.097070, -0.275673, -0.000000,  0.045229,  0.003877
 -0.003213,  0.097045, -0.275558, -0.000000,  0.045174,  0.003558
 -0.003534,  0.097021, -0.275441, -0.000000,  0.045118,  0.003239
 -0.003856,  0.096998, -0.275322, -0.000000,  0.045062,  0.002919
 -0.004177,  0.096975, -0.275202, -0.000000,  0.045005,  0.002598
 -0.004498,  0.096954, -0.275080, -0.000000,  0.044949,  0.002277
 -0.004820,  0.096933, -0.274957, -0.000000,  0.044892,  0.001955
 -0.005141,  0.096913, -0.274832, -0.000000,  0.044834,  0.001633
 -0.005462,  0.096894, -0.274705, -0.000000,  0.044776,  0.001310
 -0.005783,  0.096876, -0.274576, -0.000000,  0.044718,  0.000986
 -0.006104,  0.096859, -0.274446, -0.000000,  0.044659,  0.000662
 -0.006425,  0.096842, -0.274313,  0.000000,  0.044600,  0.000337
 -0.006746,  0.096826, -0.274179, -0.000000,  0.044541,  0.000011
 -0.007066,  0.096811, -0.274044, -0.000000,  0.044481, -0.000315
 -0.007387,  0.096796, -0.273906, -0.000000,  0.044421, -0.000641
 -0.007707,  0.096783, -0.273766,  0.000000,  0.044361, -0.000969
 -0.008028,  0.096769, -0.273625, -0.000000,  0.044300, -0.001296
 -0.008348,  0.096756, -0.273482, -0.000000,  0.044239, -0.001625
 -0.008668,  0.096744, -0.273336, -0.000000,  0.044178, -0.001954
 -0.008988,  0.096732, -0.273189,  0.000000,  0.044116, -0.002284
 -0.009308,  0.096720, -0.273040, -0.000000,  0.044054, -0.002614
 -0.009628,  0.096709, -0.272889, -0.000000,  0.043992, -0.002945
 -0.009947,  0.096697, -0.272736, -0.000000,  0.043929, -0.003277
 -0.010267,  0.096686, -0.272582,  0.000000,  0.043866, -0.003609
 -0.010587,  0.096675, -0.272425,  0.000000,  0.043803, -0.003942
 -0.010907,  0.096664, -0.272266, -0.000000,  0.043739, -0.004275
 -0.011227,  0.096652, -0.272105, -0.000000,  0.043675, -0.004609
 -0.011547,  0.096641, -0.271943,  0.000000,  0.043611, -0.004943
 -0.011867,  0.096629, -0.271778,  0.000000,  0.043546, -0.005278
 -0.012188,  0.096616, -0.271612,  0.000000,  0.043481, -0.005614
 -0.012508,  0.096604, -0.271443, -0.000000,  0.043416, -0.005950
 -0.012829,  0.096590, -0.271273, -0.000000,  0.043351, -0.006287
 -0.013150,  0.096576, -0.271100,  0.000000,  0.043286, -0.006625
 -0.013472,  0.096562, -0.270926,  0.000000,  0.043220, -0.006963
 -0.013794,  0.096546, -0.270749,  0.000000,  0.043154, -0.007301
 -0.014117,  0.096530, -0.270571, -0.000000,  0.043087, -0.007641
 -0.014439,  0.096512, -0.270391, -0.000000,  0.043021, -0.007980
 -0.014763,  0.096494, -0.270209,  0.000000,  0.042954, -0.008321
 -0.015087,  0.096475, -0.270024,  0.000000,  0.042887, -0.008662
 -0.015411,  0.096454, -0.269838,  0.000000,  0.042820, -0.009003
 -0.015737,  0.096432, -0.269651,  0.000000,  0.042752, -0.009345
 -0.016063,  0.096409, -0.269461, -0.000000,  0.042684, -0.009688
 -0.016389,  0.096384, -0.269269, -0.000000,  0.042616, -0.010031
 -0.016716,  0.096359, -0.269075,  0.000000,  0.042548, -0.010375
 -0.017045,  0.096331, -0.268880,  0.000000,  0.042480, -0.010719
 -0.017373,  0.096302, -0.268683,  0.000000,  0.042411, -0.011064
 -0.017703,  0.096272, -0.268483,  0.000000,  0.042342, -0.011409
 -0.018034,  0.096239, -0.268282,  0.000000,  0.042273, -0.011755
 -0.018365,  0.096205, -0.268079, -0.000000,  0.042204, -0.012101
 -0.018698,  0.096170, -0.267875,  0.000000,  0.042135, -0.012448
 -0.019031,  0.096133, -0.267668,  0.000000,  0.042065, -0.012796
 -0.019366,  0.096094, -0.267460,  0.000000,  0.041995, -0.013144
 -0.019701,  0.096053, -0.267250,  0.000000,  0.041925, -0.013493
 -0.020037,  0.096010, -0.267039,  0.000000,  0.041854, -0.013842
 -0.020374,  0.095966, -0.266825,  0.000000,  0.041784, -0.014192
 -0.020713,  0.095919, -0.266610,  0.000000,  0.041713, -0.014542
 -0.021052,  0.095871, -0.266393, -0.000000,  0.041642, -0.014893
 -0.021392,  0.095821, -0.266175, -0.000000,  0.041571, -0.015244
 -0.021733,  0.095770, -0.265954,  0.000000,  0.041499, -0.015596
 -0.022076,  0.095716, -0.265732,  0.000000,  0.041427, -0.015948
 -0.022419,  0.095661, -0.265509,  0.000000,  0.041355, -0.016301
 -0.022763,  0.095604, -0.265284,  0.000000,  0.041283, -0.016655
 -0.023109,  0.095545, -0.265057,  0.000000,  0.041210, -0.017009
 -0.023455,  0.095485, -0.264829,  0.000000,  0.041137, -0.017363
 -0.023802,  0.095422, -0.264599,  0.000000,  0.041064, -0.017718
 -0.024150,  0.095359, -0.264367,  0.000000,  0.040991, -0.018074
 -0.024499,  0.095293, -0.264134,  0.000000,  0.040917, -0.018430
 -0.024849,  0.095226, -0.263899,  0.000000,  0.040843, -0.018787
 -0.025200,  0.095158, -0.263663, -0.000000,  0.040769, -0.019144
 -0.025551,  0.095088, -0.263425, -0.000000,  0.040695, -0.019502
 -0.025904,  0.095016, -0.263186,  0.000000,  0.040620, -0.019860
 -0.026257,  0.094944, -0.262945,  0.000000,  0.040545, -0.020219
 -0.026611,  0.094870, -0.262703,  0.000000,  0.040469, -0.020578
 -0.026966,  0.094794, -0.262459,  0.000000,  0.040394, -0.020938
 -0.027321,  0.094718, -0.262214,  0.000000,  0.040318, -0.021298
 -0.027677,  0.094640, -0.261967,  0.000000,  0.040242, -0.021659
 -0.028034,  0.094562, -0.261719,  0.000000,  0.040165, -0.022021
 -0.028392,  0.094482, -0.261469,  0.000000,  0.040089, -0.022383
 -0.028750,  0.094402, -0.261218,  0.000000,  0.040012, -0.022745
 -0.029108,  0.094320, -0.260965,  0.000000,  0.039935, -0.023108
 -0.029467,  0.094238, -0.260711,  0.000000,  0.039857, -0.023472
 -0.029826,  0.094155, -0.260456,  0.000000,  0.039779, -0.023836
 -0.030186,  0.094072, -0.260199,  0.000000,  0.039701, -0.024200
 -0.030547,  0.093987, -0.259940,  0.000000,  0.039623, -0.024566
 -0.030907,  0.093903, -0.259680,  0.000000,  0.039544, -0.024931
 -0.031268,  0.093818, -0.259419,  0.000000,  0.039465, -0.025297
 -0.031629,  0.093732, -0.259156,  0.000000,  0.039386, -0.025664
 -0.031991,  0.093646, -0.258892,  0.000000,  0.039307, -0.026031
 -0.032353,  0.093560, -0.258626,  0.000000,  0.039227, -0.026399
 -0.032715,  0.093474, -0.258359,  0.000000,  0.039147, -0.026767
 -0.033077,  0.093387, -0.258091,  0.000000,  0.039067, -0.027135
 -0.033440,  0.093301, -0.257821,  0.000000,  0.038986, -0.027505
 -0.033802,  0.093214, -0.257549,  0.000000,  0.038906, -0.027874
 -0.034165,  0.093127, -0.257276,  0.000000,  0.038825, -0.028244
 -0.034528,  0.093040, -0.257002,  0.000000,  0.038744, -0.028615
 -0.034891,  0.092954, -0.256726,  0.000000,  0.038662, -0.028986
 -0.035254,  0.092867, -0.256448,  0.000000,  0.038581, -0.029358
 -0.035617,  0.092781, -0.256169,  0.000000,  0.038499, -0.029730
 -0.035980,  0.092695, -0.255889,  0.000000,  0.038417, -0.030103
 -0.036343,  0.092609, -0.255607,  0.000000,  0.038335, -0.030476
 -0.036706,  0.092523, -0.255324,  0.000000,  0.038252, -0.030849
 -0.037069,  0.092437, -0.255039,  0.000000,  0.038170, -0.031223
 -0.037432,  0.092352, -0.254752,  0.000000,  0.038087, -0.031598
 -0.037796,  0.092267, -0.254464,  0.000000,  0.038004, -0.031973
 -0.038159,  0.092182, -0.254174,  0.000000,  0.037921, -0.032348
 -0.038522,  0.092097, -0.253883,  0.000000,  0.037837, -0.032724
 -0.038886,  0.092013, -0.253590,  0.000000,  0.037754, -0.033101
 -0.039249,  0.091929, -0.253296,  0.000000,  0.037670, -0.033477
 -0.039612,  0.091845, -0.253000,  0.000000,  0.037586, -0.033855
 -0.039976,  0.091762, -0.252703,  0.000000,  0.037502, -0.034233
 -0.040339,  0.091679, -0.252403,  0.000000,  0.037418, -0.034611
 -0.040703,  0.091596, -0.252102,  0.000000,  0.037333, -0.034989
 -0.041067,  0.091513, -0.251800,  0.000000,  0.037249, -0.035368
 -0.041430,  0.091430, -0.251496,  0.000000,  0.037164, -0.035748
 -0.041794,  0.091347, -0.251190,  0.000000,  0.037079, -0.036128
 -0.042158,  0.091265, -0.250883,  0.000000,  0.036994, -0.036508
 -0.042522,  0.091183, -0.250573,  0.000000,  0.036908, -0.036889
 -0.042887,  0.091100, -0.250263,  0.000000,  0.036823, -0.037270
 -0.043251,  0.091018, -0.249950,  0.000000,  0.036737, -0.037652
 -0.043616,  0.090935, -0.249636,  0.000000,  0.036651, -0.038034
 -0.043981,  0.090853, -0.249320,  0.000000,  0.036566, -0.038417
 -0.044346,  0.090770, -0.249002,  0.000000,  0.036479, -0.038800
 -0.044711,  0.090687, -0.248682,  0.000000,  0.036393, -0.039183
 -0.045077,  0.090604, -0.248361,  0.000000,  0.036307, -0.039567
 -0.045443,  0.090521, -0.248038,  0.000000,  0.036220, -0.039951
 -0.045809,  0.090437, -0.247713,  0.000000,  0.036133, -0.040335
 -0.046176,  0.090352, -0.247387,  0.000000,  0.036046, -0.040720
 -0.046543,  0.090268, -0.247058,  0.000000,  0.035959, -0.041106
 -0.046911,  0.090182, -0.246728,  0.000000,  0.035872, -0.041492
 -0.047278,  0.090097, -0.246396,  0.000000,  0.035784, -0.041878
 -0.047647,  0.090010, -0.246062,  0.000000,  0.035696, -0.042264
 -0.048015,  0.089923, -0.245726,  0.000000,  0.035608, -0.042651
 -0.048385,  0.089835, -0.245389,  0.000000,  0.035520, -0.043039
 -0.048754,  0.089746, -0.245049,  0.000000,  0.035432, -0.043426
 -0.049124,  0.089656, -0.244708,  0.000000,  0.035344, -0.043814
 -0.049495,  0.089565, -0.244365,  0.000000,  0.035255, -0.044203
 -0.049866,  0.089474, -0.244020,  0.000000,  0.035166, -0.044592
 -0.050238,  0.089381, -0.243674,  0.000000,  0.035077, -0.044981
 -0.050610,  0.089287, -0.243325,  0.000000,  0.034988, -0.045370
 -0.050983,  0.089192, -0.242974,  0.000000,  0.034899, -0.045760
 -0.051356,  0.089096, -0.242622,  0.000000,  0.034809, -0.046151
 -0.051730,  0.088998, -0.242268,  0.000000,  0.034720, -0.046541
 -0.052104,  0.088900, -0.241912,  0.000000,  0.034630, -0.046932
 -0.052479,  0.088800, -0.241554,  0.000000,  0.034540, -0.047324
 -0.052855,  0.088698, -0.241194,  0.000000,  0.034450, -0.047716
 -0.053231,  0.088595, -0.240832,  0.000000,  0.034359, -0.048108
 -0.053607,  0.088491, -0.240469,  0.000000,  0.034268, -0.048500
 -0.053984,  0.088385, -0.240103,  0.000000,  0.034178, -0.048893
 -0.054362,  0.088277, -0.239736,  0.000000,  0.034087, -0.049286
 -0.054740,  0.088169, -0.239367,  0.000000,  0.033996, -0.049680
 -0.055119,  0.088058, -0.238996,  0.000000,  0.033904, -0.050073
 -0.055498,  0.087946, -0.238623,  0.000000,  0.033813, -0.050468
 -0.055878,  0.087832, -0.238248,  0.000000,  0.033721, -0.050862
 -0.056259,  0.087717, -0.237871,  0.000000,  0.033629, -0.051257
 -0.056639,  0.087600, -0.237493,  0.000000,  0.033537, -0.051652
 -0.057021,  0.087481, -0.237113,  0.000000,  0.033445, -0.052047
 -0.057402,  0.087361, -0.236731,  0.000000,  0.033353, -0.052443
 -0.057785,  0.087239, -0.236347,  0.000000,  0.033260, -0.052839
 -0.058167,  0.087116, -0.235961,  0.000000,  0.033168, -0.053236
 -0.058550,  0.086991, -0.235573,  0.000000,  0.033075, -0.053632
 -0.058933,  0.086864, -0.235184,  0.000000,  0.032982, -0.054029
 -0.059317,  0.086736, -0.234792,  0.000000,  0.032889, -0.054426
 -0.059701,  0.086606, -0.234399,  0.000000,  0.032795, -0.054824
 -0.060086,  0.086474, -0.234004,  0.000000,  0.032702, -0.055222
 -0.060470,  0.086341, -0.233608,  0.000000,  0.032609, -0.055620
 -0.060855,  0.086207, -0.233209,  0.000000,  0.032515, -0.056018
 -0.061240,  0.086071, -0.232809,  0.000000,  0.032421, -0.056417
 -0.061626,  0.085933, -0.232407,  0.000000,  0.032327, -0.056816
 -0.062012,  0.085794, -0.232003,  0.000000,  0.032233, -0.057215
 -0.062397,  0.085654, -0.231598,  0.000000,  0.032139, -0.057614
 -0.062783,  0.085512, -0.231191,  0.000000,  0.032045, -0.058014
 -0.063170,  0.085369, -0.230782,  0.000000,  0.031950, -0.058414
 -0.063556,  0.085225, -0.230371,  0.000000,  0.031856, -0.058814
 -0.063942,  0.085079, -0.229958,  0.000000,  0.031761, -0.059215
 -0.064329,  0.084932, -0.229544,  0.000000,  0.031667, -0.059615
 -0.064715,  0.084784, -0.229128,  0.000000,  0.031572, -0.060016
 -0.065102,  0.084635, -0.228711,  0.000000,  0.031477, -0.060417
 -0.065488,  0.084485, -0.228291,  0.000000,  0.031382, -0.060819
 -0.065875,  0.084334, -0.227870,  0.000000,  0.031287, -0.061220
 -0.066261,  0.084182, -0.227447,  0.000000,  0.031192, -0.061622
 -0.066648,  0.084029, -0.227023,  0.000000,  0.031096, -0.062024
 -0.067034,  0.083875, -0.226597,  0.000000,  0.031001, -0.062426
 -0.067421,  0.083720, -0.226169,  0.000000,  0.030906, -0.062829
 -0.067807,  0.083564, -0.225740,  0.000000,  0.030810, -0.063231
 -0.068193,  0.083408, -0.225309,  0.000000,  0.030715, -0.063634
 -0.068580,  0.083250, -0.224876,  0.000000,  0.030619, -0.064037
 -0.068966,  0.083093, -0.224442,  0.000000,  0.030523, -0.064440
 -0.069352,  0.082934, -0.224006,  0.000000,  0.030427, -0.064844
 -0.069737,  0.082775, -0.223568,  0.000000,  0.030331, -0.065247
 -0.070123,  0.082616, -0.223129,  0.000000,  0.030235, -0.065651
 -0.070508,  0.082456, -0.222688,  0.000000,  0.030139, -0.066055
 -0.070894,  0.082295, -0.222245,  0.000000,  0.030043, -0.066459
 -0.071279,  0.082134, -0.221801,  0.000000,  0.029947, -0.066863
 -0.071664,  0.081973, -0.221356,  0.000000,  0.029850, -0.067267
 -0.072049,  0.081811, -0.220908,  0.000000,  0.029754, -0.067671
 -0.072434,  0.081649, -0.220459,  0.000000,  0.029658, -0.068076
 -0.072818,  0.081487, -0.220009,  0.000000,  0.029561, -0.068481
 -0.073203,  0.081324, -0.219556,  0.000000,  0.029464, -0.068885
 -0.073587,  0.081161, -0.219103,  0.000000,  0.029368, -0.069290
 -0.073971,  0.080998, -0.218647,  0.000000,  0.029271, -0.069695
 -0.074355,  0.080835, -0.218190,  0.000000,  0.029174, -0.070101
 -0.074739,  0.080671, -0.217732,  0.000000,  0.029077, -0.070506
 -0.075122,  0.080507, -0.217271,  0.000000,  0.028980, -0.070911
 -0.075506,  0.080343, -0.216810,  0.000000,  0.028883, -0.071317
 -0.075889,  0.080179, -0.216346,  0.000000,  0.028786, -0.071722
 -0.076272,  0.080015, -0.215881,  0.000000,  0.028688, -0.072128
 -0.076655,  0.079850, -0.215414,  0.000000,  0.028591, -0.072534
 -0.077038,  0.079686, -0.214946,  0.000000,  0.028494, -0.072939
 -0.077421,  0.079521, -0.214476,  0.000000,  0.028396, -0.073345
 -0.077804,  0.079356, -0.214005,  0.000000,  0.028299, -0.073751
 -0.078187,  0.079190, -0.213532,  0.000000,  0.028201, -0.074157
 -0.078569,  0.079025, -0.213057,  0.000000,  0.028103, -0.074563
 -0.078952,  0.078859, -0.212581,  0.000000,  0.028006, -0.074969
 -0.079334,  0.078693, -0.212103,  0.000000,  0.027908, -0.075375
 -0.079717,  0.078527, -0.211623,  0.000000,  0.027810, -0.075782
 -0.080099,  0.078360, -0.211142,  0.000000,  0.027712, -0.076188
 -0.080481,  0.078193, -0.210660,  0.000000,  0.027614, -0.076594
 -0.080864,  0.078026, -0.210175,  0.000000,  0.027516, -0.077000
 -0.081246,  0.077858, -0.209689,  0.000000,  0.027417, -0.077407
 -0.081628,  0.077690, -0.209201,  0.000000,  0.027319, -0.077813
 -0.082010,  0.077522, -0.208712,  0.000000,  0.027221, -0.078219
 -0.082392,  0.077353, -0.208221,  0.000000,  0.027123, -0.078625
 -0.082774,  0.077184, -0.207729,  0.000000,  0.027024, -0.079032
 -0.083156,  0.077014, -0.207234,  0.000000,  0.026926, -0.079438
 -0.083539,  0.076843, -0.206738,  0.000000,  0.026827, -0.079844
 -0.083921,  0.076672, -0.206241,  0.000000,  0.026729, -0.080250
 -0.084303,  0.076500, -0.205742,  0.000000,  0.026630, -0.080657
 -0.084685,  0.076327, -0.205241,  0.000000,  0.026531, -0.081063
 -0.085067,  0.076154, -0.204738,  0.000000,  0.026433, -0.081469
 -0.085449,  0.075980, -0.204234,  0.000000,  0.026334, -0.081875
 -0.085831,  0.075805, -0.203728,  0.000000,  0.026235, -0.082281
 -0.086213,  0.075630, -0.203221,  0.000000,  0.026136, -0.082687
 -0.086595,  0.075453, -0.202711,  0.000000,  0.026038, -0.083093
 -0.086977,  0.075275, -0.202200,  0.000000,  0.025939, -0.083499
 -0.087359,  0.075097, -0.201688,  0.000000,  0.025840, -0.083904
 -0.087741,  0.074917, -0.201174,  0.000000,  0.025741, -0.084310
 -0.088123,  0.074737, -0.200658,  0.000000,  0.025642, -0.084715
 -0.088505,  0.074555, -0.200140,  0.000000,  0.025543, -0.085121
 -0.088886,  0.074372, -0.199620,  0.000000,  0.025444, -0.085526
 -0.089268,  0.074188, -0.199099,  0.000000,  0.025345, -0.085931
 -0.089650,  0.074003, -0.198577,  0.000000,  0.025246, -0.086337
 -0.090031,  0.073817, -0.198052,  0.000000,  0.025147, -0.086742
 -0.090413,  0.073629, -0.197526,  0.000000,  0.025048, -0.087146
 -0.090794,  0.073440, -0.196998,  0.000000,  0.024949, -0.087551
 -0.091175,  0.073250, -0.196468,  0.000000,  0.024850, -0.087956
 -0.091556,  0.073058, -0.195937,  0.000000,  0.024751, -0.088360
 -0.091937,  0.072865, -0.195404,  0.000000,  0.024652, -0.088764
 -0.092318,  0.072670, -0.194869,  0.000000,  0.024553, -0.089168
 -0.092698,  0.072475, -0.194332,  0.000000,  0.024454, -0.089572
 -0.093079,  0.072277, -0.193794,  0.000000,  0.024355, -0.089976
 -0.093459,  0.072078, -0.193254,  0.000000,  0.024256, -0.090380
 -0.093839,  0.071878, -0.192713,  0.000000,  0.024157, -0.090783
 -0.094218,  0.071677, -0.192169,  0.000000,  0.024059, -0.091186
 -0.094598,  0.071473, -0.191624,  0.000000,  0.023960, -0.091589
 -0.094977,  0.071269, -0.191077,  0.000000,  0.023861, -0.091992
 -0.095356,  0.071063, -0.190529,  0.000000,  0.023762, -0.092394
 -0.095734,  0.070855, -0.189978,  0.000000,  0.023663, -0.092796
 -0.096112,  0.070646, -0.189426,  0.000000,  0.023564, -0.093198
 -0.096490,  0.070435, -0.188873,  0.000000,  0.023466, -0.093600
 -0.096867,  0.070223, -0.188317,  0.000000,  0.023367, -0.094002
 -0.097244,  0.070009, -0.187760,  0.000000,  0.023268, -0.094403
 -0.097621,  0.069794, -0.187201,  0.000000,  0.023169, -0.094804
 -0.097997,  0.069578, -0.186641,  0.000000,  0.023071, -0.095205
 -0.098373,  0.069360, -0.186079,  0.000000,  0.022972, -0.095605
 -0.098748,  0.069140, -0.185515,  0.000000,  0.022873, -0.096005
 -0.099123,  0.068919, -0.184949,  0.000000,  0.022775, -0.096405
 -0.099497,  0.068697, -0.184382,  0.000000,  0.022676, -0.096805
 -0.099871,  0.068473, -0.183813,  0.000000,  0.022578, -0.097204
 -0.100245,  0.068248, -0.183242,  0.000000,  0.022479, -0.097603
 -0.100617,  0.068022, -0.182670,  0.000000,  0.022381, -0.098002
 -0.100990,  0.067794, -0.182096,  0.000000,  0.022282, -0.098400
 -0.101361,  0.067565, -0.181520,  0.000000,  0.022184, -0.098798
 -0.101732,  0.067335, -0.180943,  0.000000,  0.022085, -0.099196
 -0.102103,  0.067104, -0.180364,  0.000000,  0.021987, -0.099593
 -0.102473,  0.066871, -0.179783,  0.000000,  0.021889, -0.099990
 -0.102842,  0.066637, -0.179201,  0.000000,  0.021791, -0.100386
 -0.103211,  0.066402, -0.178617,  0.000000,  0.021692, -0.100782
 -0.103579,  0.066166, -0.178031,  0.000000,  0.021594, -0.101178
 -0.103947,  0.065929, -0.177444,  0.000000,  0.021496, -0.101574
 -0.104314,  0.065691, -0.176855,  0.000000,  0.021398, -0.101969
 -0.104680,  0.065452, -0.176265,  0.000000,  0.021300, -0.102363
 -0.105045,  0.065212, -0.175672,  0.000000,  0.021202, -0.102757
 -0.105410,  0.064971, -0.175079,  0.000000,  0.021104, -0.103151
 -0.105774,  0.064730, -0.174483,  0.000000,  0.021006, -0.103544
 -0.106138,  0.064487, -0.173887,  0.000000,  0.020908, -0.103937
 -0.106501,  0.064243, -0.173288,  0.000000,  0.020810, -0.104330
 -0.106863,  0.063999, -0.172688,  0.000000,  0.020712, -0.104722
 -0.107225,  0.063754, -0.172086,  0.000000,  0.020614, -0.105113
 -0.107585,  0.063508, -0.171483,  0.000000,  0.020517, -0.105504
 -0.107945,  0.063262, -0.170878,  0.000000,  0.020419, -0.105895
 -0.108305,  0.063014, -0.170272,  0.000000,  0.020321, -0.106285
 -0.108664,  0.062767, -0.169664,  0.000000,  0.020224, -0.106675
 -0.109022,  0.062518, -0.169054,  0.000000,  0.020126, -0.107064
 -0.109379,  0.062269, -0.168443,  0.000000,  0.020029, -0.107452
 -0.109736,  0.062020, -0.167831,  0.000000,  0.019931, -0.107840
 -0.110092,  0.061769, -0.167217,  0.000000,  0.019834, -0.108228
 -0.110447,  0.061519, -0.166601,  0.000000,  0.019737, -0.108615
 -0.110801,  0.061268, -0.165984,  0.000000,  0.019640, -0.109001
 -0.111155,  0.061016, -0.165365,  0.000000,  0.019543, -0.109387
 -0.111508,  0.060764, -0.164745,  0.000000,  0.019445, -0.109773
 -0.111861,  0.060511, -0.164124,  0.000000,  0.019349, -0.110157
 -0.112212,  0.060258, -0.163500,  0.000000,  0.019252, -0.110542
 -0.112563,  0.060005, -0.162876,  0.000000,  0.019155, -0.110925
 -0.112914,  0.059751, -0.162250,  0.000000,  0.019058, -0.111308
 -0.113263,  0.059497, -0.161622,  0.000000,  0.018961, -0.111691
 -0.113612,  0.059242, -0.160993,  0.000000,  0.018865, -0.112073
 -0.113960,  0.058987, -0.160362,  0.000000,  0.018768, -0.112454
 -0.114308,  0.058731, -0.159730,  0.000000,  0.018672, -0.112835
 -0.114654,  0.058475, -0.159097,  0.000000,  0.018575, -0.113215
 -0.115000,  0.058219, -0.158462,  0.000000,  0.018479, -0.113594
 -0.115346,  0.057962, -0.157826,  0.000000,  0.018383, -0.113973
 -0.115690,  0.057705, -0.157188,  0.000000,  0.018287, -0.114351
 -0.116034,  0.057447, -0.156549,  0.000000,  0.018191, -0.114728
 -0.116377,  0.057189, -0.155908,  0.000000,  0.018095, -0.115105
 -0.116720,  0.056931, -0.155266,  0.000000,  0.017999, -0.115481
 -0.117061,  0.056672, -0.154622,  0.000000,  0.017904, -0.115856
 -0.117402,  0.056413, -0.153977,  0.000000,  0.017808, -0.116231
 -0.117742,  0.056153, -0.153331,  0.000000,  0.017713, -0.116605
 -0.118081,  0.055892, -0.152683,  0.000000,  0.017617, -0.116978
 -0.118420,  0.055631, -0.152034,  0.000000,  0.017522, -0.117350
 -0.118758,  0.055370, -0.151383,  0.000000,  0.017427, -0.117722
 -0.119095,  0.055108, -0.150731,  0.000000,  0.017332, -0.118093
 -0.119431,  0.054845, -0.150078,  0.000000,  0.017237, -0.118463
 -0.119767,  0.054581, -0.149423,  0.000000,  0.017142, -0.118833
 -0.120101,  0.054318, -0.148767,  0.000000,  0.017047, -0.119201
 -0.120435,  0.054053, -0.148109,  0.000000,  0.016953, -0.119569
 -0.120768,  0.053788, -0.147450,  0.000000,  0.016858, -0.119936
 -0.121100,  0.053522, -0.146789,  0.000000,  0.016764, -0.120303
 -0.121432,  0.053255, -0.146128,  0.000000,  0.016669, -0.120668
 -0.121762,  0.052987, -0.145464,  0.000000,  0.016575, -0.121033
 -0.122092,  0.052719, -0.144800,  0.000000,  0.016481, -0.121397
 -0.122421,  0.052450, -0.144134,  0.000000,  0.016387, -0.121760
 -0.122748,  0.052180, -0.143466,  0.000000,  0.016293, -0.122122
 -0.123075,  0.051909, -0.142798,  0.000000,  0.016200, -0.122484
 -0.123401,  0.051637, -0.142128,  0.000000,  0.016106, -0.122844
 -0.123727,  0.051365, -0.141456,  0.000000,  0.016013, -0.123204
 -0.124051,  0.051091, -0.140783,  0.000000,  0.015919, -0.123562
 -0.124374,  0.050817, -0.140109,  0.000000,  0.015826, -0.123920
 -0.124696,  0.050541, -0.139434,  0.000000,  0.015733, -0.124277
 -0.125017,  0.050265, -0.138757,  0.000000,  0.015640, -0.124633
 -0.125338,  0.049987, -0.138079,  0.000000,  0.015547, -0.124989
 -0.125657,  0.049708, -0.137399,  0.000000,  0.015454, -0.125343
 -0.125975,  0.049429, -0.136718,  0.000000,  0.015362, -0.125696
 -0.126292,  0.049148, -0.136036,  0.000000,  0.015269, -0.126049
 -0.126608,  0.048866, -0.135352,  0.000000,  0.015177, -0.126400
 -0.126924,  0.048583, -0.134667,  0.000000,  0.015084, -0.126750
 -0.127238,  0.048299, -0.133981,  0.000000,  0.014992, -0.127100
 -0.127550,  0.048013, -0.133293,  0.000000,  0.014900, -0.127448
 -0.127862,  0.047727, -0.132604,  0.000000,  0.014808, -0.127796
 -0.128173,  0.047439, -0.131914,  0.000000,  0.014716, -0.128143
 -0.128482,  0.047150, -0.131222,  0.000000,  0.014625, -0.128488
 -0.128791,  0.046860, -0.130529,  0.000000,  0.014533, -0.128833
 -0.129098,  0.046569, -0.129835,  0.000000,  0.014442, -0.129176
 -0.129404,  0.046277, -0.129139,  0.000000,  0.014350, -0.129519
 -0.129709,  0.045983, -0.128442,  0.000000,  0.014259, -0.129860
 -0.130012,  0.045688, -0.127744,  0.000000,  0.014168, -0.130201
 -0.130314,  0.045392, -0.127044,  0.000000,  0.014077, -0.130540
 -0.130616,  0.045095, -0.126343,  0.000000,  0.013986, -0.130878
 -0.130915,  0.044796, -0.125641,  0.000000,  0.013896, -0.131215
 -0.131214,  0.044497, -0.124938,  0.000000,  0.013805, -0.131552
 -0.131511,  0.044196, -0.124233,  0.000000,  0.013715, -0.131887
 -0.131808,  0.043894, -0.123527,  0.000000,  0.013624, -0.132221
 -0.132102,  0.043591, -0.122819,  0.000000,  0.013534, -0.132553
 -0.132396,  0.043287, -0.122111,  0.000000,  0.013444, -0.132885
 -0.132688,  0.042981, -0.121401,  0.000000,  0.013354, -0.133216
 -0.132979,  0.042675, -0.120690,  0.000000,  0.013265, -0.133545
 -0.133268,  0.042367, -0.119977,  0.000000,  0.013175, -0.133873
 -0.133556,  0.042058, -0.119263,  0.000000,  0.013085, -0.134201
 -0.133843,  0.041749, -0.118548,  0.000000,  0.012996, -0.134527
 -0.134129,  0.041438, -0.117832,  0.000000,  0.012907, -0.134851
 -0.134413,  0.041126, -0.117115,  0.000000,  0.012818, -0.135175
 -0.134695,  0.040813, -0.116396,  0.000000,  0.012729, -0.135497
 -0.134977,  0.040499, -0.115676,  0.000000,  0.012640, -0.135819
 -0.135257,  0.040185, -0.114955,  0.000000,  0.012551, -0.136139
 -0.135535,  0.039869, -0.114232,  0.000000,  0.012463, -0.136457
 -0.135812,  0.039552, -0.113509,  0.000000,  0.012374, -0.136775
 -0.136088,  0.039235, -0.112784,  0.000000,  0.012286, -0.137091
 -0.136363,  0.038916, -0.112058,  0.000000,  0.012198, -0.137406
 -0.136635,  0.038597, -0.111330,  0.000000,  0.012110, -0.137720
 -0.136907,  0.038277, -0.110602,  0.000000,  0.012022, -0.138033
 -0.137177,  0.037957, -0.109872,  0.000000,  0.011935, -0.138344
 -0.137446,  0.037635, -0.109142,  0.000000,  0.011847, -0.138654
 -0.137713,  0.037313, -0.108410,  0.000000,  0.011760, -0.138963
 -0.137978,  0.036990, -0.107676,  0.000000,  0.011673, -0.139270
 -0.138243,  0.036667, -0.106942,  0.000000,  0.011585, -0.139577
 -0.138506,  0.036342, -0.106207,  0.000000,  0.011499, -0.139881
 -0.138767,  0.036018, -0.105470,  0.000000,  0.011412, -0.140185
 -0.139027,  0.035692, -0.104732,  0.000000,  0.011325, -0.140487
 -0.139285,  0.035366, -0.103993,  0.000000,  0.011239, -0.140788
 -0.139542,  0.035040, -0.103253,  0.000000,  0.011152, -0.141087
 -0.139798,  0.034713, -0.102512,  0.000000,  0.011066, -0.141385
 -0.140052,  0.034386, -0.101770,  0.000000,  0.010980, -0.141682
 -0.140304,  0.034058, -0.101027,  0.000000,  0.010894, -0.141977
 -0.140556,  0.033730, -0.100282,  0.000000,  0.010808, -0.142271
 -0.140805,  0.033401, -0.099537,  0.000000,  0.010723, -0.142564
 -0.141053,  0.033072, -0.098790,  0.000000,  0.010637, -0.142855
 -0.141300,  0.032742, -0.098042,  0.000000,  0.010552, -0.143145
 -0.141545,  0.032413, -0.097294,  0.000000,  0.010467, -0.143433
 -0.141788,  0.032082, -0.096544,  0.000000,  0.010382, -0.143720
 -0.142030,  0.031752, -0.095793,  0.000000,  0.010297, -0.144005
 -0.142271,  0.031421, -0.095041,  0.000000,  0.010212, -0.144289
 -0.142510,  0.031090, -0.094289,  0.000000,  0.010128, -0.144572
 -0.142748,  0.030759, -0.093535,  0.000000,  0.010043, -0.144853
 -0.142983,  0.030427, -0.092780,  0.000000,  0.009959, -0.145133
 -0.143218,  0.030095, -0.092024,  0.000000,  0.009875, -0.145411
 -0.143451,  0.029763, -0.091267,  0.000000,  0.009791, -0.145687
 -0.143682,  0.029430, -0.090509,  0.000000,  0.009707, -0.145962
 -0.143912,  0.029098, -0.089750,  0.000000,  0.009624, -0.146236
 -0.144140,  0.028765, -0.088991,  0.000000,  0.009540, -0.146508
 -0.144367,  0.028432, -0.088230,  0.000000,  0.009457, -0.146779
 -0.144592,  0.028098, -0.087468,  0.000000,  0.009373, -0.147048
 -0.144815,  0.027765, -0.086706,  0.000000,  0.009290, -0.147315
 -0.145037,  0.027431, -0.085942,  0.000000,  0.009207, -0.147581
 -0.145257,  0.027097, -0.085178,  0.000000,  0.009124, -0.147846
 -0.145476,  0.026763, -0.084412,  0.000000,  0.009042, -0.148108
 -0.145693,  0.026428, -0.083646,  0.000000,  0.008959, -0.148370
 -0.145908,  0.026093, -0.082879,  0.000000,  0.008877, -0.148629
 -0.146122,  0.025758, -0.082111,  0.000000,  0.008795, -0.148887
 -0.146334,  0.025423, -0.081342,  0.000000,  0.008712, -0.149144
 -0.146545,  0.025087, -0.080572,  0.000000,  0.008630, -0.149399
 -0.146754,  0.024751, -0.079801,  0.000000,  0.008549, -0.149652
 -0.146961,  0.024415, -0.079030,  0.000000,  0.008467, -0.149903
 -0.147166,  0.024079, -0.078257,  0.000000,  0.008385, -0.150153
 -0.147370,  0.023742, -0.077484,  0.000000,  0.008304, -0.150402
 -0.147572,  0.023405, -0.076710,  0.000000,  0.008223, -0.150648
 -0.147772,  0.023067, -0.075935,  0.000000,  0.008141, -0.150893
 -0.147971,  0.022730, -0.075159,  0.000000,  0.008060, -0.151137
 -0.148168,  0.022391, -0.074382,  0.000000,  0.007979, -0.151379
 -0.148364,  0.022050, -0.073602,  0.000000,  0.007898, -0.151619
 -0.148559,  0.021707, -0.072818,  0.000000,  0.007816, -0.151859
 -0.148753,  0.021360, -0.072030,  0.000000,  0.007734, -0.152098
 -0.148947,  0.021009, -0.071237,  0.000000,  0.007651, -0.152337
 -0.149140,  0.020654, -0.070438,  0.000000,  0.007567, -0.152575
 -0.149333,  0.020294, -0.069632,  0.000000,  0.007482, -0.152813
 -0.149525,  0.019928, -0.068819,  0.000000,  0.007396, -0.153051
 -0.149718,  0.019556, -0.067998,  0.000000,  0.007309, -0.153289
 -0.149911,  0.019177, -0.067169,  0.000000,  0.007220, -0.153526
 -0.150104,  0.018791, -0.066330,  0.000000,  0.007130, -0.153765
 -0.150297,  0.018397, -0.065481,  0.000000,  0.007039, -0.154003
 -0.150490,  0.017995, -0.064622,  0.000000,  0.006946, -0.154241
 -0.150684,  0.017585, -0.063752,  0.000000,  0.006851, -0.154480
 -0.150878,  0.017166, -0.062872,  0.000000,  0.006756, -0.154718
 -0.151072,  0.016739, -0.061980,  0.000000,  0.006658, -0.154957
 -0.151266,  0.016302, -0.061076,  0.000000,  0.006559, -0.155196
 -0.151461,  0.015856, -0.060160,  0.000000,  0.006459, -0.155435
 -0.151656,  0.015401, -0.059232,  0.000000,  0.006357, -0.155673
 -0.151850,  0.014937, -0.058292,  0.000000,  0.006253, -0.155911
 -0.152045,  0.014463, -0.057340,  0.000000,  0.006149, -0.156149
 -0.152239,  0.013980, -0.056376,  0.000000,  0.006043, -0.156385
 -0.152433,  0.013488, -0.055399,  0.000000,  0.005937, -0.156621
 -0.152627,  0.012987, -0.054410,  0.000000,  0.005829, -0.156856
 -0.152819,  0.012478, -0.053408,  0.000000,  0.005721, -0.157090
 -0.153011,  0.011960, -0.052395,  0.000000,  0.005611, -0.157322
 -0.153202,  0.011434, -0.051371,  0.000000,  0.005502, -0.157553
 -0.153392,  0.010900, -0.050335,  0.000000,  0.005392, -0.157781
 -0.153580,  0.010358, -0.049288,  0.000000,  0.005282, -0.158008
 -0.153766,  0.009810, -0.048230,  0.000000,  0.005171, -0.158232
 -0.153950,  0.009255, -0.047162,  0.000000,  0.005061, -0.158453
 -0.154133,  0.008694, -0.046084,  0.000000,  0.004951, -0.158672
 -0.154312,  0.008127, -0.044997,  0.000000,  0.004842, -0.158887
 -0.154490,  0.007556, -0.043901,  0.000000,  0.004733, -0.159099
 -0.154664,  0.006980, -0.042796,  0.000000,  0.004625, -0.159308
 -0.154835,  0.006401, -0.041685,  0.000000,  0.004518, -0.159513
 -0.155003,  0.005819, -0.040566,  0.000000,  0.004412, -0.159714
 -0.155168,  0.005234, -0.039441,  0.000000,  0.004307, -0.159911
 -0.155328,  0.004648, -0.038311,  0.000000,  0.004204, -0.160104
 -0.155485,  0.004061, -0.037175,  0.000000,  0.004102, -0.160292
 -0.155637,  0.003474, -0.036036,  0.000000,  0.004002, -0.160476
 -0.155785,  0.002887, -0.034893,  0.000000,  0.003903, -0.160656
 -0.155928,  0.002302, -0.033748,  0.000000,  0.003806, -0.160830
 -0.156067,  0.001718, -0.032601,  0.000000,  0.003712, -0.161000
 -0.156200,  0.001138, -0.031453,  0.000000,  0.003619, -0.161165
 -0.156329,  0.000561, -0.030306,  0.000000,  0.003528, -0.161325
 -0.156452, -0.000011, -0.029159,  0.000000,  0.003439, -0.161480
 -0.156569, -0.000578, -0.028014,  0.000000,  0.003353, -0.161630
 -0.156681, -0.001139, -0.026871,  0.000000,  0.003269, -0.161776
 -0.156787, -0.001694, -0.025732,  0.000000,  0.003186, -0.161916
 -0.156888, -0.002241, -0.024597,  0.000000,  0.003106, -0.162051
 -0.156983, -0.002780, -0.023467,  0.000000,  0.003029, -0.162182
 -0.157071, -0.003310, -0.022344,  0.000000,  0.002953, -0.162307
 -0.157154, -0.003831, -0.021227,  0.000000,  0.002879, -0.162428
 -0.157231, -0.004342, -0.020117,  0.000000,  0.002808, -0.162545
 -0.157301, -0.004842, -0.019017,  0.000000,  0.002738, -0.162656
 -0.157366, -0.005331, -0.017925,  0.000000,  0.002670, -0.162764
 -0.157424, -0.005808, -0.016844,  0.000000,  0.002604, -0.162867
 -0.157477, -0.006273, -0.015773,  0.000000,  0.002540, -0.162966
 -0.157524, -0.006725, -0.014715,  0.000000,  0.002478, -0.163061
 -0.157565, -0.007164, -0.013668,  0.000000,  0.002417, -0.163153
 -0.157600, -0.007589, -0.012635,  0.000000,  0.002357, -0.163240
 -0.157629, -0.008001, -0.011615,  0.000000,  0.002299, -0.163325
 -0.157653, -0.008398, -0.010609,  0.000000,  0.002242, -0.163406
 -0.157671, -0.008780, -0.009619,  0.000000,  0.002186, -0.163484
 -0.157684, -0.009147, -0.008644,  0.000000,  0.002130, -0.163559
 -0.157692, -0.009500, -0.007685,  0.000000,  0.002076, -0.163631
 -0.157695, -0.009837, -0.006743,  0.000000,  0.002022, -0.163700
 -0.157693, -0.010159, -0.005818,  0.000000,  0.001969, -0.163768
 -0.157687, -0.010466, -0.004910,  0.000000,  0.001916, -0.163832
 -0.157676, -0.010757, -0.004020,  0.000000,  0.001864, -0.163895
 -0.157661, -0.011033, -0.003149,  0.000000,  0.001812, -0.163956
 -0.157642, -0.011294, -0.002296,  0.000000,  0.001759, -0.164015
 -0.157619, -0.011539, -0.001461,  0.000000,  0.001707, -0.164073
 -0.157593, -0.011770, -0.000646,  0.000000,  0.001654, -0.164129
 -0.157563, -0.011986,  0.000149,  0.000000,  0.001602, -0.164183
 -0.157531, -0.012187,  0.000926,  0.000000,  0.001549, -0.164236
 -0.157495, -0.012375,  0.001683,  0.000000,  0.001495, -0.164288
 -0.157457, -0.012548,  0.002420,  0.000000,  0.001441, -0.164339
 -0.157416, -0.012708,  0.003137,  0.000000,  0.001387, -0.164389
 -0.157374, -0.012855,  0.003835,  0.000000,  0.001331, -0.164438
 -0.157329, -0.012989,  0.004513,  0.000000,  0.001276, -0.164487
 -0.157283, -0.013111,  0.005172,  0.000000,  0.001219, -0.164534
 -0.157236, -0.013222,  0.005811,  0.000000,  0.001162, -0.164581
 -0.157187, -0.013321,  0.006432,  0.000000,  0.001104, -0.164627
 -0.157137, -0.013410,  0.007033,  0.000000,  0.001046, -0.164672
 -0.157087, -0.013489,  0.007615,  0.000000,  0.000987, -0.164716
 -0.157036, -0.013559,  0.008179,  0.000000,  0.000927, -0.164760
 -0.156985, -0.013620,  0.008725,  0.000000,  0.000866, -0.164803
 -0.156934, -0.013673,  0.009254,  0.000000,  0.000805, -0.164845
 -0.156883, -0.013719,  0.009764,  0.000000,  0.000744, -0.164887
 -0.156832, -0.013758,  0.010258,  0.000000,  0.000681, -0.164927
 -0.156781, -0.013792,  0.010736,  0.000000,  0.000619, -0.164967
 -0.156731, -0.013820,  0.011198,  0.000000,  0.000555, -0.165006
 -0.156682, -0.013844,  0.011644,  0.000000,  0.000492, -0.165044
 -0.156633, -0.013864,  0.012075,  0.000000,  0.000428, -0.165080
 -0.156586, -0.013881,  0.012492,  0.000000,  0.000364, -0.165116
 -0.156539, -0.013896,  0.012895,  0.000000,  0.000300, -0.165151
 -0.156494, -0.013909,  0.013285,  0.000000,  0.000236, -0.165184
 -0.156450, -0.013922,  0.013663,  0.000000,  0.000172, -0.165216
 -0.156408, -0.013934,  0.014029,  0.000000,  0.000108, -0.165247
 -0.156366, -0.013947,  0.014384,  0.000000,  0.000044, -0.165276
 -0.156326, -0.013962,  0.014729,  0.000000, -0.000019, -0.165304
 -0.156288, -0.013978,  0.015064,  0.000000, -0.000082, -0.165330
 -0.156251, -0.013997,  0.015389,  0.000000, -0.000145, -0.165355
 -0.156216, -0.014020,  0.015707,  0.000000, -0.000207, -0.165377
 -0.156182, -0.014047,  0.016018,  0.000000, -0.000268, -0.165398
 -0.156149, -0.014078,  0.016321,  0.000000, -0.000329, -0.165418
 -0.156118, -0.014114,  0.016619,  0.000000, -0.000389, -0.165435
 -0.156088, -0.014156,  0.016911,  0.000000, -0.000449, -0.165450
 -0.156060, -0.014204,  0.017200,  0.000000, -0.000507, -0.165464
 -0.156032, -0.014260,  0.017484,  0.000000, -0.000565, -0.165475
 -0.156006, -0.014322,  0.017766,  0.000000, -0.000622, -0.165485
 -0.155981, -0.014392,  0.018046,  0.000000, -0.000678, -0.165492
 -0.155957, -0.014470,  0.018325,  0.000000, -0.000733, -0.165498
 -0.155934, -0.014557,  0.018603,  0.000000, -0.000787, -0.165501
 -0.155912, -0.014653,  0.018881,  0.000000, -0.000840, -0.165502
 -0.155890, -0.014758,  0.019160,  0.000000, -0.000892, -0.165501
 -0.155869, -0.014872,  0.019442,  0.000000, -0.000943, -0.165498
 -0.155849, -0.014997,  0.019725,  0.000000, -0.000993, -0.165493
 -0.155829, -0.015131,  0.020012,  0.000000, -0.001043, -0.165486
 -0.155808, -0.015275,  0.020303,  0.000000, -0.001091, -0.165477
 -0.155788, -0.015430,  0.020599,  0.000000, -0.001139, -0.165466
 -0.155768, -0.015596,  0.020900,  0.000000, -0.001186, -0.165453
 -0.155748, -0.015771,  0.021207,  0.000000, -0.001232, -0.165439
 -0.155727, -0.015958,  0.021520,  0.000000, -0.001278, -0.165422
 -0.155705, -0.016155,  0.021842,  0.000000, -0.001323, -0.165404
 -0.155683, -0.016363,  0.022171,  0.000000, -0.001368, -0.165384
 -0.155660, -0.016582,  0.022508,  0.000000, -0.001413, -0.165362
 -0.155636, -0.016811,  0.022855,  0.000000, -0.001457, -0.165338
 -0.155611, -0.017051,  0.023212,  0.000000, -0.001501, -0.165313
 -0.155585, -0.017301,  0.023578,  0.000000, -0.001545, -0.165287
 -0.155557, -0.017562,  0.023956,  0.000000, -0.001589, -0.165259
 -0.155528, -0.017832,  0.024345,  0.000000, -0.001633, -0.165230
 -0.155497, -0.018113,  0.024746,  0.000000, -0.001677, -0.165199
 -0.155464, -0.018403,  0.025160,  0.000000, -0.001721, -0.165167
 -0.155430, -0.018704,  0.025586,  0.000000, -0.001766, -0.165134
 -0.155393, -0.019013,  0.026025,  0.000000, -0.001812, -0.165100
 -0.155354, -0.019332,  0.026478,  0.000000, -0.001858, -0.165065
 -0.155313, -0.019659,  0.026945,  0.000000, -0.001905, -0.165028
 -0.155270, -0.019995,  0.027427,  0.000000, -0.001953, -0.164991
 -0.155224, -0.020340,  0.027923,  0.000000, -0.002002, -0.164952
 -0.155176, -0.020693,  0.028435,  0.000000, -0.002051, -0.164913
 -0.155125, -0.021053,  0.028962,  0.000000, -0.002102, -0.164872
 -0.155071, -0.021421,  0.029505,  0.000000, -0.002154, -0.164831
 -0.155015, -0.021797,  0.030064,  0.000000, -0.002208, -0.164789
 -0.154956, -0.022179,  0.030639,  0.000000, -0.002263, -0.164746
 -0.154894, -0.022568,  0.031231,  0.000000, -0.002319, -0.164702
 -0.154829, -0.022964,  0.031840,  0.000000, -0.002377, -0.164657
 -0.154761, -0.023366,  0.032466,  0.000000, -0.002436, -0.164611
 -0.154691, -0.023773,  0.033109,  0.000000, -0.002497, -0.164564
 -0.154617, -0.024185,  0.033768,  0.000000, -0.002559, -0.164516
 -0.154540, -0.024601,  0.034443,  0.000000, -0.002623, -0.164467
 -0.154460, -0.025020,  0.035134,  0.000000, -0.002688, -0.164417
 -0.154378, -0.025442,  0.035839,  0.000000, -0.002755, -0.164366
 -0.154292, -0.025866,  0.036560,  0.000000, -0.002822, -0.164314
 -0.154203, -0.026290,  0.037294,  0.000000, -0.002891, -0.164261
 -0.154111, -0.026716,  0.038041,  0.000000, -0.002960, -0.164207
 -0.154016, -0.027141,  0.038802,  0.000000, -0.003031, -0.164151
 -0.153918, -0.027565,  0.039575,  0.000000, -0.003102, -0.164094
 -0.153818, -0.027988,  0.040360,  0.000000, -0.003175, -0.164035
 -0.153714, -0.028410,  0.041157,  0.000000, -0.003247, -0.163976
 -0.153608, -0.028829,  0.041965,  0.000000, -0.003321, -0.163914
 -0.153499, -0.029245,  0.042783,  0.000000, -0.003394, -0.163852
 -0.153387, -0.029658,  0.043612,  0.000000, -0.003469, -0.163787
 -0.153273, -0.030068,  0.044450,  0.000000, -0.003543, -0.163721
 -0.153157, -0.030474,  0.045298,  0.000000, -0.003618, -0.163654
 -0.153037, -0.030875,  0.046154,  0.000000, -0.003693, -0.163584
 -0.152916, -0.031273,  0.047018,  0.000000, -0.003768, -0.163513
 -0.152792, -0.031665,  0.047890,  0.000000, -0.003844, -0.163440
 -0.152666, -0.032053,  0.048769,  0.000000, -0.003919, -0.163366
 -0.152538, -0.032435,  0.049656,  0.000000, -0.003994, -0.163289
 -0.152407, -0.032812,  0.050548,  0.000000, -0.004069, -0.163210
 -0.152275, -0.033184,  0.051447,  0.000000, -0.004145, -0.163129
 -0.152141, -0.033551,  0.052352,  0.000000, -0.004220, -0.163046
 -0.152005, -0.033913,  0.053261,  0.000000, -0.004295, -0.162961
 -0.151867, -0.034269,  0.054176,  0.000000, -0.004370, -0.162874
 -0.151727, -0.034620,  0.055095,  0.000000, -0.004444, -0.162784
 -0.151585, -0.034966,  0.056018,  0.000000, -0.004519, -0.162692
 -0.151442, -0.035307,  0.056945,  0.000000, -0.004594, -0.162598
 -0.151297, -0.035644,  0.057875,  0.000000, -0.004668, -0.162501
 -0.151151, -0.035976,  0.058809,  0.000000, -0.004743, -0.162401
 -0.151003, -0.036304,  0.059745,  0.000000, -0.004817, -0.162300
 -0.150853, -0.036627,  0.060684,  0.000000, -0.004892, -0.162195
 -0.150702, -0.036947,  0.061626,  0.000000, -0.004966, -0.162088
 -0.150550, -0.037264,  0.062569,  0.000000, -0.005040, -0.161979
 -0.150396, -0.037578,  0.063514,  0.000000, -0.005115, -0.161866
 -0.150240, -0.037889,  0.064461,  0.000000, -0.005190, -0.161751
 -0.150083, -0.038197,  0.065410,  0.000000, -0.005265, -0.161633
 -0.149925, -0.038504,  0.066359,  0.000000, -0.005340, -0.161513
 -0.149765, -0.038809,  0.067310,  0.000000, -0.005416, -0.161390
 -0.149603, -0.039113,  0.068262,  0.000000, -0.005492, -0.161263
 -0.149440, -0.039417,  0.069214,  0.000000, -0.005569, -0.161135
 -0.149276, -0.039720,  0.070167,  0.000000, -0.005646, -0.161003
 -0.149109, -0.040024,  0.071121,  0.000000, -0.005724, -0.160868
 -0.148941, -0.040328,  0.072075,  0.000000, -0.005802, -0.160730
 -0.148771, -0.040634,  0.073029,  0.000000, -0.005881, -0.160590
 -0.148600, -0.040941,  0.073984,  0.000000, -0.005961, -0.160447
 -0.148426, -0.041251,  0.074939,  0.000000, -0.006041, -0.160300
 -0.148251, -0.041562,  0.075894,  0.000000, -0.006123, -0.160151
 -0.148074, -0.041877,  0.076849,  0.000000, -0.006205, -0.159999
 -0.147894, -0.042195,  0.077805,  0.000000, -0.006288, -0.159844
 -0.147713, -0.042517,  0.078760,  0.000000, -0.006372, -0.159686
 -0.147529, -0.042844,  0.079715,  0.000000, -0.006458, -0.159525
 -0.147343, -0.043174,  0.080671,  0.000000, -0.006544, -0.159362
 -0.147155, -0.043510,  0.081627,  0.000000, -0.006631, -0.159195
 -0.146964, -0.043851,  0.082582,  0.000000, -0.006720, -0.159025
 -0.146770, -0.044198,  0.083538,  0.000000, -0.006809, -0.158853
 -0.146574, -0.044550,  0.084494,  0.000000, -0.006900, -0.158677
 -0.146375, -0.044909,  0.085450,  0.000000, -0.006991, -0.158499
 -0.146174, -0.045274,  0.086407,  0.000000, -0.007084, -0.158318
 -0.145969, -0.045646,  0.087363,  0.000000, -0.007178, -0.158134
 -0.145762, -0.046025,  0.088320,  0.000000, -0.007273, -0.157947
 -0.145551, -0.046410,  0.089277,  0.000000, -0.007369, -0.157758
 -0.145337, -0.046803,  0.090235,  0.000000, -0.007466, -0.157565
 -0.145120, -0.047203,  0.091193,  0.000000, -0.007564, -0.157370
 -0.144900, -0.047611,  0.092151,  0.000000, -0.007662, -0.157172
 -0.144676, -0.048025,  0.093110,  0.000000, -0.007762, -0.156971
 -0.144449, -0.048447,  0.094070,  0.000000, -0.007863, -0.156767
 -0.144218, -0.048877,  0.095030,  0.000000, -0.007964, -0.156561
 -0.143984, -0.049313,  0.095990,  0.000000, -0.008067, -0.156352
 -0.143746, -0.049757,  0.096952,  0.000000, -0.008170, -0.156140
 -0.143505, -0.050208,  0.097913,  0.000000, -0.008273, -0.155925
 -0.143260, -0.050666,  0.098876,  0.000000, -0.008378, -0.155708
 -0.143011, -0.051130,  0.099839,  0.000000, -0.008482, -0.155488
 -0.142758, -0.051601,  0.100803,  0.000000, -0.008588, -0.155265
 -0.142501, -0.052078,  0.101768,  0.000000, -0.008693, -0.155040
 -0.142241, -0.052561,  0.102733,  0.000000, -0.008799, -0.154812
 -0.141977, -0.053049,  0.103699,  0.000000, -0.008906, -0.154582
 -0.141709, -0.053543,  0.104666,  0.000000, -0.009012, -0.154348
 -0.141437, -0.054042,  0.105633,  0.000000, -0.009119, -0.154113
 -0.141161, -0.054545,  0.106600,  0.000000, -0.009225, -0.153874
 -0.140882, -0.055052,  0.107569,  0.000000, -0.009332, -0.153633
 -0.140599, -0.055562,  0.108537,  0.000000, -0.009439, -0.153390
 -0.140312, -0.056076,  0.109506,  0.000000, -0.009545, -0.153144
 -0.140022, -0.056593,  0.110476,  0.000000, -0.009652, -0.152895
 -0.139727, -0.057111,  0.111445,  0.000000, -0.009758, -0.152644
