SHIH-XIAN-YANG/Robotic-vitual-system/run/exp1/log/joint_acc.txt
# Joint1, Joint2, Joint3, Joint4, Joint5, Joint6
  0.000000,  0.000000,  0.000000,  0.000000,  0.000000,  0.000000
  0.000000,  0.000000,  0.000000,  0.000000,  0.000000,  0.000000
  0.000000,  0.000000,  0.000000,  0.000000,  0.000000,  0.000000
  0.000000,  0.000000,  0.000000,  0.000000,  0.000000,  0.000000
  0.000000,  0.000000,  0.000000,  0.000000,  0.000000,  0.000000
  0.000000,  0.000000,  0.000000,  0.000000,  0.000000,  0.000000
  0.000000,  0.000000,  0.000000,  0.000000,  0.000000,  0.000000
  0.000000,  0.000000,  0.000000,  0.000000,  0.000000,  0.000000
  0.000000,  0.000000,  0.000000,  0.000000,  0.000000,  0.000000
  0.000000,  0.000000,  0.000000,  0.000000,  0.000000,  0.000000
  0.000000,  0.000000,  0.000000,  0.000000,  0.000000,  0.000000
  0.000000,  0.000000,  0.000000,  0.000000,  0.000000,  0.000000
  0.000000,  0.000000,  0.000000,  0.000000,  0.000000,  0.000000
  0.000000,  0.000000,  0.000000,  0.000000,  0.000000,  0.000000
  0.000000,  0.000000,  0.000000,  0.000000,  0.000000,  0.000000
  0.000000,  0.000000,  0.000000,  0.000000,  0.000000,  0.000000
  0.000000,  0.000000,  0.000000,  0.000000,  0.000000,  0.000000
  0.000000,  0.000000,  0.000000,  0.000000,  0.000000,  0.000000
  0.000000,  0.000000,  0.000000,  0.000000,  0.000000,  0.000000
  0.006032,  0.000000,  0.000000,  0.000000,  0.000000,  0.009573
  0.024058,  0.000000,  0.000000,  0.000000,  0.000000,  0.038112
  0.059920,  0.000000,  0.000000,  0.000000,  0.000000,  0.094679
  0.119272,  0.000000,  0.000000,  0.000000,  0.000000,  0.187868
  0.207600,  0.000000,  0.000000,  0.000000,  0.000000,  0.325822
  0.330153,  0.000000,  0.000000,  0.000000,  0.000000,  0.516109
  0.491950,  0.000000, -0.000003,  0.000000,  0.000000,  0.765721
  0.697741,  0.000004, -0.000006,  0.000000,  0.000008,  1.081005
  0.952001,  0.000008, -0.000009,  0.000000,  0.000008,  1.467650
  1.258890,  0.000012, -0.000018,  0.000000,  0.000016,  1.930621
  1.622260,  0.000023, -0.000029,  0.000000,  0.000032,  2.474176
  2.045616,  0.000038, -0.000047,  0.000000,  0.000056,  3.101804
  2.532126,  0.000057, -0.000076,  0.000000,  0.000087,  3.816261
  3.084585,  0.000088, -0.000113,  0.000000,  0.000125,  4.619515
  3.705437,  0.000129, -0.000165,  0.000000,  0.000186,  5.512806
  4.396726,  0.000186, -0.000239,  0.000000,  0.000261,  6.496580
  5.160130,  0.000261, -0.000336,  0.000000,  0.000366,  7.570573
  5.996933,  0.000358, -0.000460,  0.000000,  0.000500,  8.733784
  6.908035,  0.000484, -0.000627,  0.000000,  0.000676,  9.984521
  7.893944,  0.000646, -0.000837,  0.000000,  0.000903, 11.320417
  8.954795,  0.000852, -0.001102,  0.000000,  0.001184, 12.738485
 10.090318,  0.001112, -0.001432,  0.000000,  0.001542, 14.235119
 11.299897,  0.001428, -0.001844,  0.000000,  0.001973, 15.806167
 12.582534,  0.001819, -0.002343,  0.000000,  0.002496, 17.446994
 13.936873,  0.002290, -0.002955,  0.000000,  0.003132, 19.152475
 15.361214,  0.002858, -0.003688,  0.000000,  0.003889, 20.917083
 16.853536,  0.003541, -0.004568,  0.000000,  0.004792, 22.734958
 18.411487,  0.004354, -0.005615,  0.000000,  0.005857, 24.599922
 20.032416,  0.005308, -0.006851,  0.000000,  0.007113, 26.505559
 21.713392,  0.006431, -0.008298,  0.000000,  0.008565, 28.445273
 23.451217,  0.007740, -0.009993,  0.000000,  0.010262, 30.412344
 25.242445,  0.009261, -0.011959,  0.000000,  0.012213, 32.399973
 27.083404,  0.011020, -0.014232,  0.000000,  0.014447, 34.401357
 28.970218,  0.013042, -0.016850,  0.000000,  0.017007, 36.409725
 30.898831,  0.015358, -0.019848,  0.000000,  0.019917, 38.418412
 32.865029,  0.017998, -0.023271,  0.000000,  0.023205, 40.420897
 34.864452,  0.020996, -0.027159,  0.000000,  0.026914, 42.410842
 36.892644,  0.024391, -0.031565,  0.000000,  0.031081, 44.382176
 38.945049,  0.028220, -0.036538,  0.000000,  0.035746, 46.329099
 41.017053,  0.032522, -0.042130,  0.000000,  0.040948, 48.246146
 43.104000,  0.037345, -0.048399, -0.000006,  0.046725, 50.128208
 45.201215,  0.042728, -0.055411, -0.000006,  0.053129, 51.970581
 47.304043,  0.048725, -0.063227, -0.000006,  0.060205, 53.768978
 49.407850,  0.055386, -0.071914, -0.000006,  0.067993, 55.519575
 51.508062,  0.062758, -0.081546, -0.000005,  0.076557, 57.219007
 53.600173,  0.070911, -0.092200, -0.000005,  0.085932, 58.864417
 55.679790,  0.079888, -0.103953, -0.000005,  0.096185, 60.453416
 57.742630,  0.089763, -0.116891, -0.000005,  0.107358, 61.984162
 59.784551,  0.100592, -0.131099, -0.000004,  0.119504, 63.455302
 61.801579,  0.112447, -0.146670, -0.000004,  0.132697, 64.865987
 63.789903,  0.125397, -0.163698, -0.000004,  0.146970, 66.215907
 65.745916,  0.139508, -0.182283, -0.000003,  0.162403, 67.505208
 67.666222,  0.154862, -0.202531, -0.000003,  0.179043, 68.734556
 69.547641,  0.171535, -0.224546, -0.000002,  0.196949, 69.905068
 71.387240,  0.189605, -0.248443, -0.000002,  0.216195, 71.018322
 73.182328,  0.209159, -0.274337, -0.000002,  0.236831, 72.076311
 74.930475,  0.230277, -0.302349, -0.000001,  0.258925, 73.081431
 76.629527,  0.253051, -0.332601, -0.000001,  0.282545, 74.036469
 78.277595,  0.277569, -0.365225, -0.000006,  0.307746, 74.944525
 79.873080,  0.303922, -0.400348, -0.000006,  0.334601, 75.809030
 81.414664,  0.332215, -0.438114, -0.000005,  0.363171, 76.633678
 82.901325,  0.362537, -0.478662, -0.000005,  0.393534, 77.422410
 84.332328,  0.394991, -0.522133, -0.000004,  0.425742, 78.179361
 85.707230,  0.429681, -0.568679, -0.000004,  0.459867, 78.908838
 87.025877,  0.466711, -0.618457, -0.000003,  0.495985, 79.615265
 88.288399,  0.506185, -0.671618, -0.000002,  0.534151, 80.303151
 89.495208,  0.548217, -0.728328, -0.000002,  0.574447, 80.977065
 90.647003,  0.592919, -0.788750, -0.000001,  0.616940, 81.641566
 91.744734,  0.640399, -0.853053, -0.000000,  0.661693, 82.301212
 92.789629,  0.690779, -0.921413,  0.000000,  0.708781, 82.960476
 93.783160,  0.744168, -0.994008, -0.000005,  0.758270, 83.623739
 94.727033,  0.800696, -1.071012, -0.000004,  0.810235, 84.295259
 95.623195,  0.860474, -1.152615, -0.000004,  0.864749, 84.979135
 96.473801,  0.923627, -1.239003, -0.000003,  0.921884, 85.679246
 97.281214,  0.990283, -1.330370, -0.000002,  0.981710, 86.399279
 98.047984,  1.060564, -1.426907, -0.000001,  1.044295, 87.142677
 98.776823,  1.134599, -1.528816, -0.000001,  1.109719, 87.912594
 99.470617,  1.212514, -1.636300,  0.000000,  1.178051, 88.711930
100.132374,  1.294445, -1.749558, -0.000005,  1.249380, 89.543249
100.765246,  1.380514, -1.868805, -0.000004,  1.323757, 90.408834
101.372461,  1.470862, -1.994252, -0.000003,  1.401275, 91.310607
101.957366,  1.565617, -2.126111, -0.000002,  1.482000, 92.250169
102.523358,  1.664918, -2.264598, -0.000002,  1.566027, 93.228783
103.073894,  1.768896, -2.409938, -0.000001,  1.653408, 94.247359
103.612452,  1.877686, -2.562353,  0.000000,  1.744246, 95.306478
104.142543,  1.991433, -2.722069, -0.000005,  1.838601, 96.406359
104.667664,  2.110271, -2.889314, -0.000004,  1.936575, 97.546904
105.191293,  2.234340, -3.064320, -0.000003,  2.038230, 98.727678
105.716869,  2.363775, -3.247320, -0.000002,  2.143656, 99.947932
106.247779,  2.498723, -3.438550, -0.000001,  2.252935,101.206617
106.787344,  2.639323, -3.638254, -0.000000,  2.366158,102.502403
107.338787,  2.785715, -3.846666, -0.000005,  2.483412,103.833675
107.905230,  2.938043, -4.064036, -0.000004,  2.604770,105.198577
108.489688,  3.096445, -4.290603, -0.000003,  2.730334,106.595013
109.095044,  3.261073, -4.526617, -0.000002,  2.860194,108.020689
109.724020,  3.432064, -4.772329, -0.000001,  2.994438,109.473127
110.379205,  3.609565, -5.027987, -0.000006,  3.133157,110.949672
111.063011,  3.793717, -5.293849, -0.000005,  3.276443,112.447549
111.777675,  3.984672, -5.570167, -0.000004,  3.424394,113.963867
112.525243,  4.182570, -5.857200, -0.000003,  3.577107,115.495641
113.307569,  4.387558, -6.155202, -0.000001,  3.734689,117.039838
114.126318,  4.599787, -6.464442, -0.000006,  3.897227,118.593385
114.982938,  4.819397, -6.785173, -0.000005,  4.064828,120.153209
115.878663,  5.046536, -7.117661, -0.000004,  4.237594,121.716240
116.814516,  5.281355, -7.462175, -0.000002,  4.415625,123.279460
117.791306,  5.524004, -7.818976, -0.000007,  4.599034,124.839915
118.809625,  5.774625, -8.188336, -0.000006,  4.787928,126.394743
119.869830,  6.033371, -8.570523, -0.000004,  4.982403,127.941173
120.972082,  6.300394, -8.965805, -0.000003,  5.182587,129.476574
122.116309,  6.575838, -9.374459, -0.000007,  5.388577,130.998452
123.302242,  6.859858, -9.796755, -0.000006,  5.600495,132.504497
124.529383,  7.152606,-10.232969, -0.000004,  5.818453,133.992547
125.797049,  7.454235,-10.683375, -0.000003,  6.042562,135.460655
127.104348,  7.764893,-11.148254, -0.000007,  6.272946,136.907066
128.450198,  8.084736,-11.627881, -0.000006,  6.509716,138.330237
129.833348,  8.413916,-12.122539, -0.000004,  6.752996,139.728840
131.252351,  8.752593,-12.632507, -0.000003,  7.002911,141.101793
132.705610,  9.100922,-13.158068, -0.000007,  7.259563,142.448210
134.191373,  9.459059,-13.699505, -0.000005,  7.523097,143.767465
135.707735,  9.827159,-14.257101, -0.000003,  7.793622,145.059142
137.252665, 10.205386,-14.831148, -0.000008,  8.071271,146.323071
138.824016, 10.593895,-15.421927, -0.000006,  8.356166,147.559288
140.419522, 10.992850,-16.029730, -0.000004,  8.648434,148.768058
142.036827, 11.402413,-16.654849, -0.000008,  8.948205,149.949854
143.673493, 11.822750,-17.297571, -0.000006,  9.255609,151.105365
145.327016, 12.254022,-17.958190, -0.000004,  9.570764,152.235451
146.994830, 12.696398,-18.637003, -0.000008,  9.893811,153.341168
148.674328, 13.150045,-19.334303, -0.000006, 10.224874,154.423736
150.362873, 13.615131,-20.050388, -0.000004, 10.564092,155.484525
152.057823, 14.091831,-20.785555, -0.000008, 10.911583,156.525068
153.756526, 14.580311,-21.540108, -0.000006, 11.267495,157.546979
155.456340, 15.080751,-22.314341, -0.000004, 11.631953,158.552032
157.154653, 15.593320,-23.108566, -0.000007, 12.005094,159.542043
158.848886, 16.118206,-23.923080, -0.000005, 12.387054,160.518933
160.536513, 16.655575,-24.758196, -0.000003, 12.777960,161.484675
162.215076, 17.205617,-25.614216, -0.000007, 13.177947,162.441275
163.882180, 17.768512,-26.491456, -0.000004, 13.587155,163.390765
165.535516, 18.344444,-27.390221, -0.000008, 14.005728,164.335175
167.172875, 18.933604,-28.310831, -0.000006, 14.433790,165.276544
168.792157, 19.536172,-29.253594, -0.000003, 14.871482,166.216859
170.391358, 20.152349,-30.218834, -0.000007, 15.318938,167.158062
171.968616, 20.782317,-31.206865, -0.000004, 15.776303,168.102070
173.522190, 21.426279,-32.218010, -0.000008, 16.243708,169.050685
175.050476, 22.084427,-33.252589, -0.000005, 16.721301,170.005646
176.552012, 22.756959,-34.310932, -0.000008, 17.209218,170.968588
178.025483, 23.444080,-35.393362, -0.000006, 17.707590,171.941026
179.469741, 24.145988,-36.500207, -0.000009, 18.216557,172.924383
180.883769, 24.862889,-37.631802, -0.000006, 18.736273,173.919921
182.266740, 25.594991,-38.788479, -0.000004, 19.266870,174.928782
183.617967, 26.342503,-39.970574, -0.000007, 19.808492,175.951960
184.924882, 27.104966,-41.177552, -0.000004, 20.360296,176.971180
186.175206, 27.881878,-42.408830, -0.000007, 20.921387,177.968354
187.357105, 28.672692,-43.663764, -0.000004, 21.490814,178.925950
188.459225, 29.476816,-44.941664, -0.000007, 22.067593,179.827158
189.470780, 30.293627,-46.241790, -0.000004, 22.650698,180.655983
190.381546, 31.122458,-47.563359, -0.000007, 23.239086,181.397377
191.181964, 31.962615,-48.905536, -0.000004, 23.831672,182.037315
191.863127, 32.813361,-50.267451, -0.000007, 24.427392,182.562903
192.416860, 33.673933,-51.648187, -0.000004, 25.025156,182.962448
192.835721, 34.543538,-53.046792, -0.000007, 25.623897,183.225531
193.113048, 35.421360,-54.462275, -0.000010, 26.222539,183.343068
193.242967, 36.306558,-55.893617, -0.000006, 26.820048,183.307338
193.220430, 37.198268,-57.339760, -0.000009, 27.415404,183.112014
193.041210, 38.095609,-58.799623, -0.000006, 28.007621,182.752202
192.701926, 38.997690,-60.272093, -0.000008, 28.595762,182.224442
192.200049, 39.903598,-61.756040, -0.000005, 29.178919,181.526686
191.533894, 40.812416,-63.250305, -0.000008, 29.756257,180.658295
190.702624, 41.723223,-64.753716, -0.000004, 30.326982,179.620022
189.706239, 42.635084,-66.265087, -0.000007, 30.890368,178.413959
188.545572, 43.547071,-67.783212, -0.000009, 31.445742,177.043506
187.222274, 44.458261,-69.306884, -0.000005, 31.992526,175.513294
185.738787, 45.367730,-70.834881, -0.000008, 32.530192,173.829128
184.098329, 46.274559,-72.365980, -0.000004, 33.058283,171.997930
182.304859, 47.177842,-73.898956, -0.000006, 33.576425,170.027640
180.363057, 48.076692,-75.432580, -0.000009, 34.084324,167.927117
178.278292, 48.970229,-76.965638, -0.000005, 34.581758,165.706087
176.056567, 49.857593,-78.496914, -0.000007, 35.068578,163.375000
173.704509, 50.737949,-80.025195, -0.000009, 35.544708,160.944975
171.229306, 51.610485,-81.549291, -0.000005, 36.010153,158.427640
168.638674, 52.474408,-83.068021, -0.000007, 36.464983,155.835090
165.940805, 53.328956,-84.580221, -0.000003, 36.909328,153.179716
163.144320, 54.173404,-86.084742, -0.000005, 37.343394,150.474153
160.258227, 55.007045,-87.580462, -0.000007, 37.767462,147.731125
157.291860, 55.829213,-89.066274, -0.000003, 38.181833,144.963382
154.254840, 56.639285,-90.541104, -0.000005, 38.586900,142.183578
151.157005, 57.436657,-92.003901, -0.000007, 38.983070,139.404162
148.008374, 58.220777,-93.453642, -0.000003, 39.370816,136.637289
144.819094, 58.991132,-94.889338, -0.000004, 39.750643,133.894734
141.599372, 59.747235,-96.310033, -0.000006, 40.123078,131.187815
138.359436, 60.488659,-97.714798, -0.000002, 40.488687,128.527275
135.109480, 61.215008,-99.102749, -0.000004, 40.848035,125.923256
131.859598, 61.925934,-100.473031, -0.000005, 41.201728,123.385185
128.619777, 62.621125,-101.824834, -0.000007, 41.550364,120.921753
125.399785, 63.300318,-103.157380, -0.000003, 41.894529,118.540843
122.209183, 63.963296,-104.469932, -0.000004, 42.234832,116.249481
119.057245, 64.609875,-105.761802, -0.000006, 42.571854,114.053796
115.952927, 65.239929,-107.032336, -0.000002, 42.906171,111.959021
112.904820, 65.853356,-108.280920, -0.000003, 43.238315,109.969419
109.921112, 66.450119,-109.506992, -0.000005, 43.568826,108.088322
107.009570, 67.030202,-110.710029, -0.000006, 43.898180,106.318098
104.177474, 67.593638,-111.889541, -0.000002, 44.226842,104.660155
101.431605, 68.140502,-113.045101, -0.000003, 44.555215,103.114959
 98.778230, 68.670900,-114.176307, -0.000005, 44.883679,101.682043
 96.223046, 69.184986,-115.282811, -0.000006, 45.212559,100.360048
 93.771180, 69.682939,-116.364305, -0.000001, 45.542115, 99.146716
 91.427168, 70.164978,-117.420519, -0.000003, 45.872580, 98.038986
 89.194943, 70.631356,-118.451232, -0.000004, 46.204118, 97.032990
 87.077801, 71.082347,-119.456265, -0.000005, 46.536843, 96.124110
 85.078419, 71.518268,-120.435466, -0.000001, 46.870805, 95.307064
 83.198846, 71.939454,-121.388742, -0.000002, 47.206005, 94.575921
 81.440480, 72.346261,-122.316025, -0.000003, 47.542381, 93.924192
 79.804096, 72.739084,-123.217289, -0.000005, 47.879815, 93.344876
 78.289826, 73.118319,-124.092547, -0.000000, 48.218149, 92.830553
 76.897195, 73.484391,-124.941840, -0.000001, 48.557152, 92.373428
 75.625098, 73.837741,-125.765257, -0.000002, 48.896535, 91.965421
 74.471839, 74.178823,-126.562906, -0.000004, 49.235985, 91.598210
 73.435138, 74.508100,-127.334935, -0.000005, 49.575127, 91.263358
 72.512155, 74.826043,-128.081513, -0.000000, 49.913543, 90.952330
 71.699502, 75.133134,-128.802853, -0.000001, 50.250763, 90.656576
 70.993275, 75.429856,-129.499175, -0.000002, 50.586299, 90.367629
 70.389079, 75.716697,-130.170741, -0.000004, 50.919621, 90.077151
 69.882058, 75.994137,-130.817824, -0.000005, 51.250171, 89.776978
 69.466923, 76.262663,-131.440728,  0.000000, 51.577360, 89.459232
 69.137984, 76.522748,-132.039772, -0.000001, 51.900599, 89.116324
 68.889190, 76.774860,-132.615296, -0.000002, 52.219253, 88.741043
 68.714153, 77.019462,-133.167651, -0.000003, 52.532697, 88.326596
 68.606199, 77.256997,-133.697208, -0.000004, 52.840304, 87.866666
 68.558391, 77.487901,-134.204348,  0.000001, 53.141427, 87.355428
 68.563587, 77.712590,-134.689459, -0.000000, 53.435434, 86.787603
 68.614447, 77.931460,-135.152948, -0.000001, 53.721694, 86.158488
 68.703520, 78.144891,-135.595220, -0.000002, 53.999602, 85.463955
 68.823227, 78.353243,-136.016688, -0.000003, 54.268560, 84.700538
 68.965956, 78.556853,-136.417766, -0.000004, 54.527983, 83.865348
 69.124052, 78.756022,-136.798876, -0.000005, 54.777329, 82.956189
 69.289898, 78.951036,-137.160433, -0.000000, 55.016065, 81.971478
 69.455923, 79.142151,-137.502857, -0.000001, 55.243705, 80.910280
 69.614659, 79.329596,-137.826552, -0.000002, 55.459786, 79.772296
 69.758768, 79.513571,-138.131933, -0.000003, 55.663897, 78.557871
 69.881077, 79.694234,-138.419396, -0.000004, 55.855651, 77.267927
 69.974620, 79.871727,-138.689335, -0.000005, 56.034710, 75.903997
 70.032661, 80.046154,-138.942131,  0.000000, 56.200779, 74.468181
 70.048731, 80.217581,-139.178156, -0.000001, 56.353618, 72.963075
 70.016658, 80.386048,-139.397765, -0.000001, 56.493007, 71.391821
 69.930599, 80.551567,-139.601305, -0.000002, 56.618809, 69.757997
 69.785046, 80.714098,-139.789103, -0.000003, 56.730901, 68.065614
 69.574875, 80.873589,-139.961473, -0.000004, 56.829226, 66.319068
 69.295353, 81.029945,-140.118708, -0.000005, 56.913766, 64.523083
 68.942156, 81.183033,-140.261087, -0.000005, 56.984543, 62.682700
 68.511391, 81.332701,-140.388867, -0.000000, 57.041637, 60.803175
 67.999611, 81.478751,-140.502284, -0.000001, 57.085162, 58.889992
 67.403818, 81.620971,-140.601555, -0.000002, 57.115278, 56.948777
 66.721488, 81.759104,-140.686873, -0.000002, 57.132162, 54.985255
 65.950563, 81.892873,-140.758411, -0.000003, 57.136048, 53.005195
 65.089460, 82.021965,-140.816319, -0.000004, 57.127210, 51.014393
 64.137084, 82.146047,-140.860726, -0.000004, 57.105937, 49.018595
 63.092806, 82.264760,-140.891729, -0.000005, 57.072536, 47.023465
 61.956476, 82.377718,-140.909412, -0.000005, 57.027359, 45.034527
 60.728423, 82.484516,-140.913829, -0.000000, 56.970770, 43.057147
 59.409426, 82.584720,-140.905008, -0.000001, 56.903144, 41.096484
 58.000724, 82.677890,-140.882961, -0.000001, 56.824879, 39.157440
 56.503997, 82.763552,-140.847665, -0.000002, 56.736370, 37.244638
 54.921341, 82.841229,-140.799084, -0.000002, 56.638035, 35.362397
 53.255284, 82.910426,-140.737154, -0.000003, 56.530274, 33.514697
 51.508726, 82.970636,-140.661786, -0.000003, 56.413511, 31.705160
 49.684956, 83.021335,-140.572866, -0.000004, 56.288132, 29.937007
 47.787607, 83.061999,-140.470267, -0.000004, 56.154545, 28.213082
 45.820639, 83.092096,-140.353830, -0.000005, 56.013130, 26.535804
 43.788325, 83.111090,-140.223382,  0.000001, 55.864260, 24.907163
 41.695220, 83.118438,-140.078725,  0.000000, 55.708281, 23.328726
 39.546126, 83.113603,-139.919645, -0.000000, 55.545529, 21.801630
 37.346068, 83.096047,-139.745905, -0.000000, 55.376314, 20.326578
 35.100282, 83.065230,-139.557252, -0.000001, 55.200906, 18.903847
 32.814162, 83.020631,-139.353416, -0.000001, 55.019570, 17.533276
 30.493245, 82.961724,-139.134108, -0.000002, 54.832538, 16.214327
 28.143184, 82.887992,-138.899030, -0.000002, 54.639991, 14.946050
 25.769707, 82.798947,-138.647859, -0.000003, 54.442104, 13.727114
 23.378596, 82.694092,-138.380271, -0.000003, 54.239005, 12.555830
 20.975652, 82.572958,-138.095921, -0.000003, 54.030795, 11.430192
 18.566667, 82.435086,-137.794457, -0.000004, 53.817525, 10.347848
 16.157399, 82.280047,-137.475520,  0.000002, 53.599240,  9.306197
 13.753543, 82.107414,-137.138734,  0.000002, 53.375931,  8.302352
 11.360688, 81.916796,-136.783726,  0.000001, 53.147569,  7.333203
  8.984315, 81.707822,-136.410108,  0.000001, 52.914072,  6.395459
  6.629758, 81.480137,-136.017490,  0.000001, 52.675347,  5.485638
  4.302175, 81.233420,-135.605483,  0.000000, 52.431271,  4.600146
  2.006531, 80.967370,-135.173692, -0.000000, 52.181681,  3.735268
 -0.252423, 80.681719,-134.721717, -0.000001, 51.926401,  2.887223
 -2.470183, 80.376225,-134.249163, -0.000001, 51.665219,  2.052210
 -4.642483, 80.050675,-133.755640, -0.000001, 51.397900,  1.226391
 -6.765359, 79.704884,-133.240756, -0.000002, 51.124198,  0.405991
 -8.835122, 79.338694,-132.704116, -0.000002, 50.843858, -0.412733
-10.848390, 78.951989,-132.145346, -0.000002, 50.556584, -1.233439
-12.802112, 78.544674,-131.564067,  0.000003, 50.262082, -2.059659
-14.693549, 78.116682,-130.959908,  0.000003, 49.960067, -2.894782
-16.520319, 77.667992,-130.332510,  0.000003, 49.650211, -3.742060
-18.280385, 77.198601,-129.681523,  0.000002, 49.332214, -4.604528
-19.972053, 76.708541,-129.006604,  0.000002, 49.005758, -5.485031
-21.593997, 76.197872,-128.307432,  0.000001, 48.670533, -6.386170
-23.145239, 75.666694,-127.583685,  0.000001, 48.326231, -7.310322
-24.625173, 75.115122,-126.835063,  0.000001, 47.972557, -8.259593
-26.027734, 74.545229,-126.063746,  0.000000, 47.611979, -9.226615
-27.347282, 73.959139,-125.271978, -0.000000, 47.247007,-10.203920
-28.578668, 73.359029,-124.462016, -0.000001, 46.880164,-11.184099
-29.717257, 72.747113,-123.636155, -0.000001, 46.513925,-12.159916
-30.758946, 72.125641,-122.796696, -0.000002, 46.150732,-13.124311
-31.700177, 71.496871,-121.945951,  0.000004, 45.792976,-14.070497
-32.537935, 70.863081,-121.086233,  0.000004, 45.442943,-14.991973
-33.269783, 70.226549,-120.219850,  0.000003, 45.102831,-15.882589
-33.893845, 69.589547,-119.349093,  0.000003, 44.774724,-16.736569
-34.408805, 68.954333,-118.476240,  0.000002, 44.460568,-17.548591
-34.813930, 68.323134,-117.603536,  0.000002, 44.162167,-18.313761
-35.109045, 67.698153,-116.733196,  0.000001, 43.881153,-19.027700
-35.294544, 67.081544,-115.867400,  0.000001, 43.619013,-19.686527
-35.371354, 66.475421,-115.008277,  0.000000, 43.377026,-20.286891
-35.340948, 65.881833,-114.157914, -0.000000, 43.156294,-20.826008
-35.205333, 65.302764,-113.318330, -0.000001, 42.957745,-21.301622
-34.967007, 64.740127,-112.491492, -0.000001, 42.782069,-21.712061
-34.628966, 64.195766,-111.679298, -0.000002, 42.629788,-22.056220
-34.194660, 63.671419,-110.883576,  0.000004, 42.501203,-22.333545
-33.667998, 63.168750,-110.106068,  0.000003, 42.396411,-22.544040
-33.053295, 62.689312,-109.348453,  0.000002, 42.315324,-22.688234
-32.355261, 62.234569,-108.612310,  0.000002, 42.257631,-22.767204
-31.578961, 61.805863,-107.899145,  0.000001, 42.222867,-22.782521
-30.729802, 61.404430,-107.210357,  0.000001, 42.210337,-22.736225
-29.813474, 61.031383,-106.547263,  0.000000, 42.219211,-22.630816
-28.835952, 60.687728,-105.911080, -0.000000, 42.248463,-22.469218
-27.803431, 60.374333,-105.302925, -0.000001, 42.296914,-22.254738
-26.722302, 60.091943,-104.723812, -0.000001, 42.363268,-21.991040
-25.599141, 59.841185,-104.174655, -0.000002, 42.446059,-21.682108
-24.440621, 59.622547,-103.656265, -0.000002, 42.543731,-21.332188
-23.253537, 59.436383,-103.169347,  0.000003, 42.654612,-20.945775
-22.044729, 59.282925,-102.714494,  0.000002, 42.776944,-20.527559
-20.821050, 59.162272,-102.292199,  0.000002, 42.908902,-20.082374
-19.589356, 59.074386,-101.902851,  0.000001, 43.048599,-19.615163
-18.356446, 59.019109,-101.546728,  0.000001, 43.194118,-19.130941
-17.129043, 58.996147,-101.224000,  0.000000, 43.343499,-18.634760
-15.913747, 59.005086,-100.934736, -0.000000, 43.494803,-18.131627
-14.717031, 59.045385,-100.678908, -0.000001, 43.646086,-17.626520
-13.545168, 59.116385,-100.456374, -0.000002, 43.795416,-17.124303
-12.404239, 59.217306,-100.266901, -0.000002, 43.940931,-16.629732
-11.300093, 59.347262,-100.110150, -0.000003, 44.080808,-16.147369
-10.238299, 59.505248,-99.985692, -0.000003, 44.213293,-15.681587
 -9.224162, 59.690169,-99.893006,  0.000002, 44.336713,-15.236523
 -8.262672, 59.900815,-99.831475,  0.000002, 44.449508,-14.816070
 -7.358479, 60.135897,-99.800400,  0.000001, 44.550198,-14.423813
 -6.515892, 60.394034,-99.798996,  0.000001, 44.637454,-14.063053
 -5.738855, 60.673749,-99.826391,  0.000000, 44.710056,-13.736743
 -5.030926, 60.973515,-99.881647, -0.000000, 44.766917,-13.447496
 -4.395272, 61.291716,-99.963749, -0.000001, 44.807095,-13.197579
 -3.834644, 61.626681,-100.071612, -0.000001, 44.829799,-12.988887
 -3.351393, 61.976685,-100.204080, -0.000002, 44.834402,-12.822928
 -2.947439, 62.339953,-100.359951, -0.000002, 44.820402,-12.700848
 -2.624273, 62.714671,-100.537957, -0.000003, 44.787499,-12.623406
 -2.382973, 63.098990,-100.736775,  0.000003, 44.735505,-12.590992
 -2.224180, 63.491032,-100.955046,  0.000002, 44.664424,-12.603605
 -2.148113, 63.888914,-101.191359,  0.000001, 44.574391,-12.660908
 -2.154561, 64.290730,-101.444273,  0.000001, 44.465715,-12.762193
 -2.242911, 64.694572,-101.712312,  0.000000, 44.338828,-12.906412
 -2.412137, 65.098536,-101.993972, -0.000000, 44.194331,-13.092213
 -2.660824, 65.500743,-102.287727, -0.000001, 44.032919,-13.317919
 -2.987166, 65.899310,-102.592032, -0.000001, 43.855459,-13.581579
 -3.388992, 66.292403,-102.905326, -0.000002, 43.662906,-13.880986
 -3.863780, 66.678209,-103.226051, -0.000002, 43.456322,-14.213681
 -4.408669, 67.054952,-103.552630, -0.000003, 43.236898,-14.577003
 -5.020474, 67.420917,-103.883504,  0.000003, 43.005870,-14.968099
 -5.695734, 67.774428,-104.217109,  0.000002, 42.764570,-15.383962
 -6.430685, 68.113881,-104.551897,  0.000002, 42.514401,-15.821446
 -7.221335, 68.437725,-104.886329,  0.000001, 42.256805,-16.277309
 -8.063443, 68.744488,-105.218894,  0.000001, 41.993247,-16.748233
 -8.952577, 69.032774,-105.548104,  0.000000, 41.725261,-17.230844
 -9.884114, 69.301267,-105.872490, -0.000000, 41.454338,-17.721759
-10.853279, 69.548735,-106.190629, -0.000001, 41.182020,-18.217612
-11.855178, 69.774037,-106.501122, -0.000001, 40.909799,-18.715056
-12.884806, 69.976132,-106.802620, -0.000002, 40.639152,-19.210822
-13.937083, 70.154067,-107.093808,  0.000004, 40.371536,-19.701729
-15.006880, 70.306992,-107.373422,  0.000003, 40.108340,-20.184691
-16.089056, 70.434162,-107.640251,  0.000002, 39.850904,-20.656769
-17.178464, 70.534944,-107.893134,  0.000002, 39.600484,-21.115181
-18.269986, 70.608795,-108.130965,  0.000001, 39.358285,-21.557317
-19.358569, 70.655297,-108.352698,  0.000001, 39.125393,-21.980747
-20.439231, 70.674132,-108.557349,  0.000000, 38.902820,-22.383257
-21.507099, 70.665095,-108.743990, -0.000001, 38.691477,-22.762859
-22.557433, 70.628087,-108.911764, -0.000001, 38.492144,-23.117786
-23.585636, 70.563126,-109.059882, -0.000002, 38.305524,-23.446502
-24.587290, 70.470333,-109.187619,  0.000004, 38.132164,-23.747742
-25.558156, 70.349934,-109.294318,  0.000003, 37.972519,-24.020466
-26.494217, 70.202263,-109.379399,  0.000002, 37.826915,-24.263912
-27.391682, 70.027765,-109.442347,  0.000002, 37.695549,-24.477557
-28.247010, 69.826974,-109.482721,  0.000001, 37.578508,-24.661135
-29.056905, 69.600532,-109.500151,  0.000001, 37.475733,-24.814624
-29.818358, 69.349167,-109.494342, -0.000000, 37.387080,-24.938260
-30.528631, 69.073708,-109.465066, -0.000001, 37.312254,-25.032506
-31.185298, 68.775068,-109.412178, -0.000001, 37.250878,-25.098054
-31.786221, 68.454240,-109.335591, -0.000002, 37.202449,-25.135817
-32.329579, 68.112301,-109.235295,  0.000003, 37.166361,-25.146906
-32.813867, 67.750396,-109.111353,  0.000003, 37.141933,-25.132623
-33.237893, 67.369752,-108.963889,  0.000002, 37.128358,-25.094451
-33.600786, 66.971642,-108.793105,  0.000001, 37.124798,-25.034035
-33.902009, 66.557414,-108.599256,  0.000001, 37.130297,-24.953161
-34.141324, 66.128460,-108.382671, -0.000000, 37.143869,-24.853734
-34.318826, 65.686220,-108.143741, -0.000001, 37.164446,-24.737786
-34.434920, 65.232176,-107.882912, -0.000001, 37.190939,-24.607418
-34.490300, 64.767848,-107.600694, -0.000002, 37.222211,-24.464805
-34.485987, 64.294775,-107.297649,  0.000003, 37.257111,-24.312179
-34.423266, 63.814530,-106.974395,  0.000003, 37.294449,-24.151806
-34.303720, 63.328697,-106.631599,  0.000002, 37.333066,-23.985952
-34.129182, 62.838872,-106.269980,  0.000001, 37.371766,-23.816881
-33.901759, 62.346647,-105.890296,  0.000000, 37.409396,-23.646851
-33.623780, 61.853619,-105.493358, -0.000000, 37.444828,-23.478056
-33.297813, 61.361376,-105.080006, -0.000001, 37.476945,-23.312638
-32.926637, 60.871484,-104.651124, -0.000002, 37.504697,-23.152664
-32.513214, 60.385500,-104.207624, -0.000002, 37.527051,-23.000119
-32.060693, 59.904945,-103.750455,  0.000003, 37.543061,-22.856873
-31.572371, 59.431303,-103.280586,  0.000002, 37.551837,-22.724683
-31.051693, 58.966027,-102.799017,  0.000002, 37.552553,-22.605197
-30.502221, 58.510526,-102.306757,  0.000001, 37.544463,-22.499886
-29.927608, 58.066163,-101.804847,  0.000000, 37.526903,-22.410122
-29.331604, 57.634229,-101.294330, -0.000001, 37.499288,-22.337070
-28.718010, 57.215983,-100.776271, -0.000001, 37.461143,-22.281777
-28.090668, 56.812599,-100.251728, -0.000002, 37.412053,-22.245105
-27.453439, 56.425196,-99.721773, -0.000003, 37.351731,-22.227755
-26.810190, 56.054814,-99.187474,  0.000003, 37.279954,-22.230241
-26.164766, 55.702422,-98.649902,  0.000002, 37.196623,-22.252936
-25.520972, 55.368908,-98.110119,  0.000001, 37.101702,-22.296002
-24.882563, 55.055086,-97.569174,  0.000000, 36.995291,-22.359473
-24.253211, 54.761677,-97.028113, -0.000000, 36.877536,-22.443202
-23.636502, 54.489326,-96.487956, -0.000001, 36.748705,-22.546874
-23.035909, 54.238577,-95.949717, -0.000002, 36.609140,-22.670042
-22.454777, 54.009894,-95.414381, -0.000002, 36.459257,-22.812082
-21.896315, 53.803652,-94.882916, -0.000003, 36.299573,-22.972270
-21.363577, 53.620126,-94.356256,  0.000002, 36.130650,-23.149722
-20.859441, 53.459507,-93.835315,  0.000002, 35.953131,-23.343448
-20.386614, 53.321893,-93.320975,  0.000001, 35.767707,-23.552358
-19.947600, 53.207287,-92.814079,  0.000000, 35.575146,-23.775256
-19.544705, 53.115602,-92.315442, -0.000001, 35.376233,-24.010853
-19.180031, 53.046660,-91.825839, -0.000001, 35.171810,-24.257800
-18.855440, 53.000198,-91.346009, -0.000002, 34.962751,-24.514680
-18.572594, 52.975864,-90.876646, -0.000003, 34.749941,-24.780036
-18.332900, 52.973219,-90.418404,  0.000003, 34.534290,-25.052367
-18.137546, 52.991742,-89.971896,  0.000002, 34.316718,-25.330174
-17.987468, 53.030837,-89.537689,  0.000001, 34.098142,-25.611906
-17.883374, 53.089827,-89.116299,  0.000001, 33.879478,-25.896056
-17.825717, 53.167954,-88.708204, -0.000000, 33.661624,-26.181116
-17.814720, 53.264404,-88.313831, -0.000001, 33.445442,-26.465595
-17.850370, 53.378283,-87.933557, -0.000001, 33.231800,-26.748067
-17.932410, 53.508641,-87.567712, -0.000002, 33.021499,-27.027135
-18.060353, 53.654469,-87.216578,  0.000003, 32.815310,-27.301470
-18.233496, 53.814706,-86.880385,  0.000002, 32.613967,-27.569812
-18.450911, 53.988230,-86.559317,  0.000002, 32.418136,-27.830970
-18.711458, 54.173886,-86.253506,  0.000001, 32.228428,-28.083851
-19.013796, 54.370477,-85.963037,  0.000000, 32.045405,-28.327455
-19.356386, 54.576770,-85.687949, -0.000000, 31.869564,-28.560858
-19.737518, 54.791496,-85.428229, -0.000001, 31.701319,-28.783274
-20.155293, 55.013369,-85.183819,  0.000004, 31.541016,-28.994004
-20.607662, 55.241076,-84.954609,  0.000003, 31.388946,-29.192456
-21.092432, 55.473299,-84.740459,  0.000003, 31.245313,-29.378160
-21.607268, 55.708707,-84.541163,  0.000002, 31.110246,-29.550767
-22.149711, 55.945959,-84.356490,  0.000001, 30.983805,-29.710033
-22.717202, 56.183723,-84.186159,  0.000000, 30.865975,-29.855820
-23.307089, 56.420671,-84.029848, -0.000001, 30.756663,-29.988134
-23.916635, 56.655487,-83.887200, -0.000001, 30.655707,-30.107049
-24.543046, 56.886874,-83.757814,  0.000004, 30.562896,-30.212778
-25.183476, 57.113552,-83.641264,  0.000003, 30.477928,-30.305635
-25.835047, 57.334274,-83.537081,  0.000002, 30.400450,-30.386008
-26.494860, 57.547816,-83.444766,  0.000001, 30.330045,-30.454400
-27.160014, 57.753004,-83.363791,  0.000000, 30.266251,-30.511400
-27.827622, 57.948691,-83.293602, -0.000000, 30.208550,-30.557660
-28.494820, 58.133781,-83.233611, -0.000001, 30.156388,-30.593926
-29.158778, 58.307224,-83.183217,  0.000004, 30.109161,-30.620996
-29.816733, 58.468020,-83.141791,  0.000003, 30.066245,-30.639736
-30.465977, 58.615234,-83.108685,  0.000002, 30.026968,-30.651039
-31.103885, 58.747988,-83.083231,  0.000001, 29.990651,-30.655860
-31.727928, 58.865454,-83.064753,  0.000000, 29.956604,-30.655193
-32.335675, 58.966881,-83.052556, -0.000001, 29.924110,-30.650023
-32.924807, 59.051588,-83.045934, -0.000002, 29.892456,-30.641374
-33.493142, 59.118957,-83.044179,  0.000004, 29.860937,-30.630280
-34.038621, 59.168438,-83.046568,  0.000003, 29.828852,-30.617766
-34.559328, 59.199563,-83.052383,  0.000002, 29.795509,-30.604829
-35.053503, 59.211936,-83.060897,  0.000001, 29.760238,-30.592478
-35.519549, 59.205233,-83.071390, -0.000000, 29.722392,-30.581681
-35.956013, 59.179215,-83.083137, -0.000001, 29.681355,-30.573370
-36.361630, 59.133708,-83.095424, -0.000002, 29.636548,-30.568435
-36.735302, 59.068624,-83.107542,  0.000003, 29.587420,-30.567744
-37.076104, 58.983954,-83.118796,  0.000002, 29.533475,-30.572072
-37.383297, 58.879751,-83.128489,  0.000001, 29.474255,-30.582175
-37.656316, 58.756158,-83.135951,  0.000000, 29.409350,-30.598729
-37.894774, 58.613388,-83.140516, -0.000001, 29.338406,-30.622345
-38.098476, 58.451722,-83.141545, -0.000002, 29.261113,-30.653560
-38.267396, 58.271523,-83.138409,  0.000003, 29.177228,-30.692856
-38.401690, 58.073215,-83.130498,  0.000002, 29.086564,-30.740615
-38.501687, 57.857290,-83.117236,  0.000001, 28.988986,-30.797172
-38.567884, 57.624309,-83.098053,  0.000000, 28.884418,-30.862754
-38.600945, 57.374892,-83.072415, -0.000001, 28.772841,-30.937532
-38.601696, 57.109721,-83.039809, -0.000002, 28.654296,-31.021607
-38.571106, 56.829531,-82.999748, -0.000002, 28.528872,-31.114974
-38.510310, 56.535115,-82.951783,  0.000002, 28.396729,-31.217581
-38.420563, 56.227312,-82.895475,  0.000002, 28.258057,-31.329288
-38.303262, 55.907008,-82.830434,  0.000001, 28.113104,-31.449902
-38.159924, 55.575127,-82.756292, -0.000000, 27.962175,-31.579152
-37.992169, 55.232638,-82.672708, -0.000001, 27.805611,-31.716713
-37.801739, 54.880546,-82.579378, -0.000002, 27.643788,-31.862178
-37.590460, 54.519872,-82.476036,  0.000003, 27.477127,-32.015120
-37.360232, 54.151683,-82.362439,  0.000002, 27.306081,-32.175043
-37.113039, 53.777049,-82.238383,  0.000001, 27.131120,-32.341403
-36.850922, 53.397064,-82.103696, -0.000000, 26.952762,-32.513631
-36.575971, 53.012845,-81.958235, -0.000001, 26.771520,-32.691127
-36.290315, 52.625497,-81.801899, -0.000002, 26.587941,-32.873235
-35.996116, 52.236145,-81.634616,  0.000003, 26.402559,-33.059318
-35.695540, 51.845911,-81.456344,  0.000002, 26.215938,-33.248696
-35.390766, 51.455903,-81.267075,  0.000001, 26.028631,-33.440672
-35.083971, 51.067230,-81.066840, -0.000000, 25.841193,-33.634580
-34.777310, 50.680978,-80.855692, -0.000001, 25.654167,-33.829718
-34.472909, 50.298227,-80.633722, -0.000002, 25.468082,-34.025409
-34.172854, 49.920024,-80.401049,  0.000003, 25.283454,-34.220990
-33.879189, 49.547393,-80.157822,  0.000002, 25.100777,-34.415798
-33.593898, 49.181337,-79.904219,  0.000001, 24.920525,-34.609220
-33.318899, 48.822813,-79.640447, -0.000000, 24.743142,-34.800640
-33.056030, 48.472751,-79.366736, -0.000001, 24.569027,-34.989494
-32.807042, 48.132035,-79.083347, -0.000002, 24.398571,-35.175242
-32.573611, 47.801506,-78.790566,  0.000003, 24.232105,-35.357391
-32.357294, 47.481959,-78.488697,  0.000002, 24.069936,-35.535481
-32.159547, 47.174146,-78.178072,  0.000001, 23.912326,-35.709101
-31.981727, 46.878757,-77.859044, -0.000000, 23.759487,-35.877887
-31.825052, 46.596431,-77.531979, -0.000001, 23.611603,-36.041520
-31.690635, 46.327759,-77.197268,  0.000004, 23.468800,-36.199733
-31.579459, 46.073260,-76.855323,  0.000003, 23.331159,-36.352306
-31.492375, 45.833408,-76.506559,  0.000002, 23.198734,-36.499079
-31.430103, 45.608600,-76.151414,  0.000001, 23.071504,-36.639941
-31.393225, 45.399185,-75.790340, -0.000001, 22.949444,-36.774833
-31.382198, 45.205440,-75.423793, -0.000002, 22.832447,-36.903737
-31.397335, 45.027579,-75.052243,  0.000003, 22.720391,-37.026706
-31.438813, 44.865756,-74.676168,  0.000002, 22.613096,-37.143811
-31.506681, 44.720058,-74.296055,  0.000001, 22.510365,-37.255197
-31.600847, 44.590505,-73.912389,  0.000000, 22.411940,-37.361048
-31.721097, 44.477058,-73.525665, -0.000001, 22.317555,-37.461576
-31.867072, 44.379612,-73.136375,  0.000004, 22.226892,-37.557044
-32.038315, 44.297994,-72.745017,  0.000003, 22.139630,-37.647754
-32.234222, 44.231984,-72.352079,  0.000002, 22.055400,-37.734025
-32.454083, 44.181284,-71.958060,  0.000000, 21.973830,-37.816230
-32.697086, 44.145553,-71.563441, -0.000001, 21.894516,-37.894749
-32.962295, 44.124383,-71.168706,  0.000004, 21.817056,-37.969991
-33.248689, 44.117319,-70.774327,  0.000003, 21.741015,-38.042384
-33.555153, 44.123845,-70.380776,  0.000002, 21.665986,-38.112359
-33.880474, 44.143406,-69.988510,  0.000001, 21.591524,-38.180382
-34.223368, 44.175385,-69.597972, -0.000001, 21.517205,-38.246918
-34.582488, 44.219131,-69.209599,  0.000004, 21.442601,-38.312406
-34.956402, 44.273949,-68.823814,  0.000003, 21.367300,-38.377327
-35.343645, 44.339103,-68.441024,  0.000002, 21.290893,-38.442138
-35.742692, 44.413822,-68.061619,  0.000000, 21.212989,-38.507278
-36.151981, 44.497298,-67.685983, -0.000001, 21.133213,-38.573192
-36.569921, 44.588707,-67.314472,  0.000004, 21.051209,-38.640306
-36.994889, 44.687179,-66.947428,  0.000003, 20.966647,-38.709021
-37.425266, 44.791844,-66.585171,  0.000001, 20.879223,-38.779722
-37.859413, 44.901800,-66.228009,  0.000000, 20.788644,-38.852780
-38.295698, 45.016132,-65.876229, -0.000001, 20.694679,-38.928511
-38.732503, 45.133913,-65.530086,  0.000003, 20.597089,-39.007238
-39.168220, 45.254210,-65.189830,  0.000002, 20.495708,-39.089242
-39.601285, 45.376087,-64.855678,  0.000001, 20.390364,-39.174757
-40.030155, 45.498612,-64.527829, -0.000000, 20.280943,-39.264006
-40.453331, 45.620848,-64.206459, -0.000002, 20.167367,-39.357170
-40.869358, 45.741867,-63.891727,  0.000003, 20.049578,-39.454393
-41.276853, 45.860757,-63.583760,  0.000002, 19.927569,-39.555785
-41.674480, 45.976619,-63.282666,  0.000000, 19.801344,-39.661433
-42.060978, 46.088565,-62.988534, -0.000001, 19.670973,-39.771368
-42.435158, 46.195736,-62.701427, -0.000002, 19.536537,-39.885604
-42.795904, 46.297301,-62.421385,  0.000002, 19.398138,-40.004118
-43.142195, 46.392436,-62.148429,  0.000001, 19.255945,-40.126848
-43.473079, 46.480375,-61.882549, -0.000000, 19.110122,-40.253703
-43.787719, 46.560361,-61.623728, -0.000002, 18.960883,-40.384566
-44.085354, 46.631690,-61.371915,  0.000003, 18.808439,-40.519292
-44.365321, 46.693692,-61.127041,  0.000002, 18.653052,-40.657708
-44.627069, 46.745728,-60.889018,  0.000000, 18.494984,-40.799614
-44.870126, 46.787215,-60.657738, -0.000001, 18.334528,-40.944787
-45.094140, 46.817612,-60.433075, -0.000002, 18.171989,-41.092984
-45.298857, 46.836418,-60.214880,  0.000002, 18.007679,-41.243956
-45.484113, 46.843191,-60.002992,  0.000001, 17.841926,-41.397424
-45.649863, 46.837526,-59.797222, -0.000000, 17.675052,-41.553102
-45.796147, 46.819083,-59.597380, -0.000002, 17.507402,-41.710701
-45.923116, 46.787560,-59.403243,  0.000003, 17.339299,-41.869906
-46.031007, 46.742723,-59.214588,  0.000002, 17.171088,-42.030413
-46.120153, 46.684383,-59.031170,  0.000000, 17.003102,-42.191914
-46.190987, 46.612402,-58.852733, -0.000001, 16.835651,-42.354101
-46.244025, 46.526698,-58.679009,  0.000003, 16.669052,-42.516657
-46.279864, 46.427251,-58.509720,  0.000002, 16.503613,-42.679288
-46.299189, 46.314079,-58.344572,  0.000001, 16.339616,-42.841704
-46.302746, 46.187274,-58.183269, -0.000001, 16.177329,-43.003615
-46.291369, 46.046958,-58.025507, -0.000002, 16.017002,-43.164744
-46.265948, 45.893317,-57.870967,  0.000002, 15.858866,-43.324841
-46.227433, 45.726593,-57.719331,  0.000001, 15.703144,-43.483660
-46.176833, 45.547063,-57.570276, -0.000000, 15.549999,-43.640975
-46.115208, 45.355057,-57.423471, -0.000002, 15.399607,-43.796575
-46.043654, 45.150957,-57.278585,  0.000003, 15.252106,-43.950274
-45.963304, 44.935187,-57.135283,  0.000002, 15.107599,-44.101908
-45.875334, 44.708204,-56.993234,  0.000000, 14.966169,-44.251334
-45.780926, 44.470519,-56.852097, -0.000001, 14.827867,-44.398427
-45.681296, 44.222673,-56.711546,  0.000003, 14.692740,-44.543085
-45.577665, 43.965243,-56.571246,  0.000002, 14.560768,-44.685246
-45.471260, 43.698835,-56.430870,  0.000000, 14.431939,-44.824842
-45.363302, 43.424098,-56.290096, -0.000001, 14.306198,-44.961846
-45.255011, 43.141702,-56.148602,  0.000003, 14.183472,-45.096260
-45.147594, 42.852334,-56.006075,  0.000002, 14.063666,-45.228090
-45.042243, 42.556711,-55.862214,  0.000001, 13.946638,-45.357387
-44.940111, 42.255574,-55.716714, -0.000001, 13.832265,-45.484205
-44.842330, 41.949668,-55.569289,  0.000004, 13.720372,-45.608619
-44.750001, 41.639756,-55.419656,  0.000002, 13.610773,-45.730727
-44.664179, 41.326618,-55.267546,  0.000001, 13.503275,-45.850652
-44.585865, 41.011027,-55.112695, -0.000001, 13.397663,-45.968526
-44.516028, 40.693771,-54.954859,  0.000004, 13.293707,-46.084491
-44.455568, 40.375635,-54.793793,  0.000002, 13.191169,-46.198721
-44.405333, 40.057398,-54.629280,  0.000000, 13.089802,-46.311373
-44.366107, 39.739839,-54.461102,  0.000005, 12.989353,-46.422640
-44.338605, 39.423728,-54.289060,  0.000003, 12.889565,-46.532711
-44.323487, 39.109811,-54.112972,  0.000002, 12.790179,-46.641790
-44.321337, 38.798841,-53.932668,  0.000000, 12.690937,-46.750069
-44.332652, 38.491535,-53.747987,  0.000004, 12.591584,-46.857764
-44.357884, 38.188601,-53.558789,  0.000003, 12.491859,-46.965087
-44.397382, 37.890718,-53.364947,  0.000001, 12.391526,-47.072243
-44.451436, 37.598548,-53.166350, -0.000000, 12.290343,-47.179437
-44.520258, 37.312713,-52.962904,  0.000004, 12.188074,-47.286869
-44.603976, 37.033816,-52.754523,  0.000002, 12.084516,-47.394739
-44.702643, 36.762426,-52.541142,  0.000001, 11.979460,-47.503241
-44.816249, 36.499073,-52.322716,  0.000005, 11.872715,-47.612558
-44.944690, 36.244259,-52.099207,  0.000003, 11.764121,-47.722855
-45.087807, 35.998439,-51.870598,  0.000001, 11.653520,-47.834317
-45.245361, 35.762039,-51.636880, -0.000000, 11.540773,-47.947076
-45.417040, 35.535439,-51.398067,  0.000004, 11.425769,-48.061283
-45.602478, 35.318974,-51.154180,  0.000002, 11.308417,-48.177056
-45.801231, 35.112945,-50.905266,  0.000000, 11.188629,-48.294515
-46.012805, 34.917606,-50.651373,  0.000004, 11.066358,-48.413748
-46.236643, 34.733163,-50.392572,  0.000003, 10.941575,-48.534851
-46.472137, 34.559778,-50.128941,  0.000001, 10.814265,-48.657877
-46.718628, 34.397573,-49.860576, -0.000001, 10.684443,-48.782888
-46.975406, 34.246625,-49.587585,  0.000003, 10.552127,-48.909920
-47.241727, 34.106956,-49.310083,  0.000001, 10.417372,-49.038984
-47.516799, 33.978558,-49.028203, -0.000000, 10.280245,-49.170090
-47.799810, 33.861362,-48.742086,  0.000004, 10.140838,-49.303224
-48.089914, 33.755269,-48.451883,  0.000002,  9.999254,-49.438371
-48.386232, 33.660124,-48.157752, -0.000000,  9.855604,-49.575485
-48.687876, 33.575746,-47.859869, -0.000002,  9.710038,-49.714505
-48.993939, 33.501895,-47.558407,  0.000002,  9.562695,-49.855379
-49.303511, 33.438304,-47.253559,  0.000000,  9.413746,-49.998018
-49.615668, 33.384661,-46.945518, -0.000002,  9.263360,-50.142338
-49.929490, 33.340615,-46.634481,  0.000003,  9.111719,-50.288249
-50.244057, 33.305784,-46.320658,  0.000001,  8.959010,-50.435628
-50.558471, 33.279751,-46.004260, -0.000001,  8.805429,-50.584365
-50.871827, 33.262065,-45.685502,  0.000003,  8.651174,-50.734336
-51.183255, 33.252247,-45.364607,  0.000001,  8.496456,-50.885409
-51.491905, 33.249788,-45.041796, -0.000001,  8.341467,-51.037460
-51.796939, 33.254154,-44.717295,  0.000003,  8.186419,-51.190346
-52.097563, 33.264784,-44.391330,  0.000001,  8.031501,-51.343921
-52.393017, 33.281107,-44.064134, -0.000001,  7.876927,-51.498060
-52.682561, 33.302519,-43.735927,  0.000003,  7.722868,-51.652610
-52.965520, 33.328412,-43.406943,  0.000002,  7.569516,-51.807446
-53.241245, 33.358154,-43.077407, -0.000000,  7.417045,-51.962418
-53.509134, 33.391107,-42.747545,  0.000004,  7.265620,-52.117392
-53.768636, 33.426630,-42.417577,  0.000002,  7.115393,-52.272248
-54.019254, 33.464058,-42.087724, -0.000000,  6.966513,-52.426862
-54.260543, 33.502745,-41.758203,  0.000004,  6.819094,-52.581103
-54.492101, 33.542026,-41.429223,  0.000002,  6.673265,-52.734882
-54.713591, 33.581251,-41.100990, -0.000000,  6.529109,-52.888082
-54.924736, 33.619761,-40.773709,  0.000004,  6.386726,-53.040609
-55.125303, 33.656921,-40.447572,  0.000002,  6.246186,-53.192385
-55.315129, 33.692088,-40.122769, -0.000000,  6.107524,-53.343324
-55.494099, 33.724640,-39.799479,  0.000003,  5.970791,-53.493372
-55.662161, 33.753966,-39.477879,  0.000001,  5.836008,-53.642460
-55.819315, 33.779481,-39.158134, -0.000001,  5.703169,-53.790546
-55.965624, 33.800600,-38.840405,  0.000003,  5.572261,-53.937608
-56.101196, 33.816770,-38.524840,  0.000001,  5.443265,-54.083599
-56.226202, 33.827465,-38.211578, -0.000001,  5.316134,-54.228526
-56.340865, 33.832180,-37.900752,  0.000003,  5.190812,-54.372373
-56.445445, 33.830428,-37.592486,  0.000001,  5.067224,-54.515148
-56.540273, 33.821760,-37.286888, -0.000001,  4.945276,-54.656871
-56.625703, 33.805753,-36.984064,  0.000003,  4.824886,-54.797559
-56.702147, 33.782016,-36.684105,  0.000001,  4.705937,-54.937253
-56.770051, 33.750190,-36.387094, -0.000001,  4.588307,-55.076003
-56.829908, 33.709952,-36.093101,  0.000002,  4.471876,-55.213856
-56.882235, 33.661013,-35.802187,  0.000000,  4.356498,-55.350866
-56.927593, 33.603111,-35.514405, -0.000002,  4.242037,-55.487100
-56.966562, 33.536037,-35.229790,  0.000002,  4.128351,-55.622630
-56.999749, 33.459600,-34.948380, -0.000000,  4.015271,-55.757540
-57.027794, 33.373663,-34.670185,  0.000004,  3.902656,-55.891910
-57.051337, 33.278117,-34.395222,  0.000002,  3.790348,-56.025821
-57.071052, 33.172892,-34.123484, -0.000001,  3.678179,-56.159357
-57.087610, 33.057961,-33.854964,  0.000003,  3.566010,-56.292626
-57.101700, 32.933326,-33.589635,  0.000001,  3.453684,-56.425714
-57.114010, 32.799036,-33.327471, -0.000001,  3.341042,-56.558705
-57.125230, 32.655167,-33.068430,  0.000003,  3.227945,-56.691705
-57.136056, 32.501840,-32.812462,  0.000001,  3.114261,-56.824804
-57.147161, 32.339207,-32.559507,  0.000004,  2.999854,-56.958087
-57.159219, 32.167453,-32.309499,  0.000002,  2.884608,-57.091652
-57.172890, 31.986807,-32.062361, -0.000000,  2.768396,-57.225578
-57.188822, 31.797517,-31.818008,  0.000004,  2.651117,-57.359953
-57.207640, 31.599870,-31.576353,  0.000001,  2.532684,-57.494846
-57.229948, 31.394181,-31.337290, -0.000001,  2.413016,-57.630342
-57.256318, 31.180797,-31.100721,  0.000003,  2.292030,-57.766504
-57.287308, 30.960092,-30.866527,  0.000001,  2.169680,-57.903390
-57.323439, 30.732456,-30.634594,  0.000004,  2.045905,-58.041072
-57.365200, 30.498313,-30.404794,  0.000002,  1.920691,-58.179584
-57.413047, 30.258107,-30.177003, -0.000000,  1.793995,-58.318983
-57.467403, 30.012299,-29.951082,  0.000003,  1.665827,-58.459294
-57.528647, 29.761369,-29.726898,  0.000001,  1.536177,-58.600560
-57.597123, 29.505815,-29.504304,  0.000005,  1.405072,-58.742789
-57.673137, 29.246146,-29.283155,  0.000002,  1.272533,-58.886013
-57.756954, 28.982888,-29.063307, -0.000000,  1.138604,-59.030234
-57.848783, 28.716569,-28.844609,  0.000003,  1.003343,-59.175451
-57.948816, 28.447730,-28.626903,  0.000001,  0.866798,-59.321663
-58.057174, 28.176917,-28.410044,  0.000005,  0.729049,-59.468856
-58.173960, 27.904680,-28.193869,  0.000002,  0.590178,-59.617013
-58.299213, 27.631564,-27.978228, -0.000000,  0.450273,-59.766112
-58.432950, 27.358117,-27.762964,  0.000003,  0.309432,-59.916122
-58.575123, 27.084887,-27.547924,  0.000001,  0.167758,-60.067007
-58.725662, 26.812412,-27.332955,  0.000004,  0.025358,-60.218723
-58.884447, 26.541225,-27.117903,  0.000002, -0.117646,-60.371231
-59.051317, 26.271848,-26.902617,  0.000005, -0.261137,-60.524476
-59.226077, 26.004789,-26.686952,  0.000003, -0.405007,-60.678416
-59.408496, 25.740548,-26.470759,  0.000000, -0.549119,-60.832985
-59.598310, 25.479610,-26.253900,  0.000003, -0.693361,-60.988127
-59.795213, 25.222435,-26.036234,  0.000001, -0.837597,-61.143785
-59.998876, 24.969471,-25.817628,  0.000004, -0.981710,-61.299888
-60.208936, 24.721148,-25.597949,  0.000002, -1.125593,-61.456382
-60.425005, 24.477861,-25.377072,  0.000005, -1.269111,-61.613192
-60.646673, 24.239999,-25.154876,  0.000002, -1.412175,-61.770264
-60.873499, 24.007915,-24.931243,  0.000006, -1.554657,-61.927533
-61.105034, 23.781934,-24.706067,  0.000003, -1.696464,-62.084937
-61.340810, 23.562370,-24.479239,  0.000000, -1.837507,-62.242413
-61.580327, 23.349485,-24.250658,  0.000004, -1.977692,-62.399900
-61.823100, 23.143538,-24.020238,  0.000001, -2.116937,-62.557344
-62.068613, 22.944734,-23.787888,  0.000004, -2.255188,-62.714695
-62.316353, 22.753266,-23.553529,  0.000001, -2.392367,-62.871887
-62.565801, 22.569282,-23.317086,  0.000004, -2.528422,-63.028890
-62.816442, 22.392916,-23.078493,  0.000002, -2.663319,-63.185659
-63.067752, 22.224251,-22.837696,  0.000005, -2.797018,-63.342138
-63.319220, 22.063350,-22.594634,  0.000002, -2.929498,-63.498312
-63.570342, 21.910244,-22.349268,  0.000005, -3.060739,-63.654139
-63.820609, 21.764929,-22.101557,  0.000002, -3.190750,-63.809596
-64.069541, 21.627375,-21.851466, -0.000001, -3.319522,-63.964655
-64.316660, 21.497510,-21.598978,  0.000002, -3.447085,-64.119307
-64.561513, 21.375239,-21.344074, -0.000000, -3.573451,-64.273534
-64.803655, 21.260444,-21.086739,  0.000003, -3.698658,-64.427334
-65.042670, 21.152962,-20.826975, -0.000000, -3.822748,-64.580694
-65.278158, 21.052617,-20.564785,  0.000003, -3.945776,-64.733630
-65.509747, 20.959191,-20.300179, -0.000000, -4.067799,-64.886144
-65.737091, 20.872453,-20.033176,  0.000003, -4.188873,-65.038232
-65.959857, 20.792135,-19.763799, -0.000000, -4.309068,-65.189928
-66.177757, 20.717958,-19.492077,  0.000003, -4.428469,-65.341243
-66.390525, 20.649605,-19.218047,  0.000000, -4.547160,-65.492199
-66.597926, 20.586746,-18.941754,  0.000003, -4.665210,-65.642812
-66.799758, 20.529032,-18.663245,  0.000000, -4.782728,-65.793127
-66.995842, 20.476092,-18.382573,  0.000003, -4.899791,-65.943170
-67.186038, 20.427539,-18.099797,  0.000000, -5.016496,-66.092973
-67.370239, 20.382972,-17.814981,  0.000003, -5.132933,-66.242566
-67.548365, 20.341973,-17.528197,  0.000000, -5.249210,-66.391997
-67.720378, 20.304116,-17.239519,  0.000003, -5.365400,-66.541299
-67.886254, 20.268964,-16.949022,  0.000000, -5.481611,-66.690514
-68.046023, 20.236067,-16.656789,  0.000003, -5.597924,-66.839680
-68.199730, 20.204972,-16.362907, -0.000000, -5.714432,-66.988848
-68.347454, 20.175229,-16.067463,  0.000003, -5.831212,-67.138047
-68.489314, 20.146368,-15.770549, -0.000000, -5.948352,-67.287323
-68.625443, 20.117928,-15.472263,  0.000003, -6.065920,-67.436713
-68.756009, 20.089451,-15.172698, -0.000000, -6.183988,-67.586269
-68.881203, 20.060479,-14.871957,  0.000002, -6.302613,-67.736013
-69.001250, 20.030559,-14.570140, -0.000001, -6.421857,-67.885984
-69.116387, 19.999234,-14.267351,  0.000002, -6.541775,-68.036225
-69.226886, 19.966070,-13.963689, -0.000001, -6.662399,-68.186762
-69.333026, 19.930633,-13.659263,  0.000002, -6.783780,-68.337631
-69.435110, 19.892505,-13.354176,  0.000005, -6.905936,-68.488850
-69.533463, 19.851274,-13.048533,  0.000002, -7.028880,-68.640442
-69.628425, 19.806548,-12.742442,  0.000005, -7.152650,-68.792441
-69.720338, 19.757953,-12.436002,  0.000001, -7.277228,-68.944864
-69.809566, 19.705121,-12.129319,  0.000004, -7.402623,-69.097721
-69.896480, 19.647710,-11.822498,  0.000001, -7.528818,-69.251028
-69.981462, 19.585399,-11.515638,  0.000004, -7.655810,-69.404789
-70.064888, 19.517887,-11.208836,  0.000000, -7.783562,-69.559019
-70.147152, 19.444885,-10.902194,  0.000003, -7.912049,-69.713714
-70.228631, 19.366135,-10.595802, -0.000000, -8.041231,-69.868875
-70.309723, 19.281403,-10.289757,  0.000003, -8.171072,-70.024497
-70.390811, 19.190481, -9.984146,  0.000005, -8.301514,-70.180581
-70.472270, 19.093175, -9.679059,  0.000002, -8.432504,-70.337116
-70.554476, 18.989326, -9.374580,  0.000005, -8.563984,-70.494088
-70.637798, 18.878797, -9.070784,  0.000001, -8.695894,-70.651480
-70.722584, 18.761479, -8.767754,  0.000004, -8.828163,-70.809277
-70.809186, 18.637288, -8.465560,  0.000001, -8.960733,-70.967466
-70.897932, 18.506167, -8.164270,  0.000003, -9.093521,-71.126011
-70.989133, 18.368088, -7.863954,  0.000006, -9.226452,-71.284900
-71.083097, 18.223045, -7.564665,  0.000002, -9.359458,-71.444101
-71.180100, 18.071056, -7.266467,  0.000005, -9.492464,-71.603599
-71.280408, 17.912174, -6.969404,  0.000001, -9.625395,-71.763350
-71.384265, 17.746470, -6.673530,  0.000004, -9.758172,-71.923343
-71.491893, 17.574047, -6.378883,  0.000006, -9.890730,-72.083539
-71.603493, 17.395028, -6.085508,  0.000003,-10.022988,-72.243901
-71.719245, 17.209553, -5.793427,  0.000005,-10.154881,-72.404413
-71.839303, 17.017800, -5.502677,  0.000001,-10.286358,-72.565036
-71.963803, 16.819957, -5.213279,  0.000004,-10.417330,-72.725738
-72.092848, 16.616243, -4.925250,  0.000006,-10.547763,-72.886495
-72.226530, 16.406890, -4.638606,  0.000002,-10.677595,-73.047277
-72.364903, 16.192151, -4.353353,  0.000005,-10.806772,-73.208059
-72.508005, 15.972303, -4.069497,  0.000001,-10.935250,-73.368811
-72.655845, 15.747627, -3.787037,  0.000003,-11.062996,-73.529496
-72.808414, 15.518435, -3.505971,  0.000005,-11.189980,-73.690110
-72.965674, 15.285043, -3.226283,  0.000002,-11.316165,-73.850617
-73.127567, 15.047786, -2.947960,  0.000004,-11.441527,-74.010998
-73.294014, 14.807004, -2.670988,  0.000000,-11.566067,-74.171231
-73.464909, 14.563053, -2.395339,  0.000002,-11.689760,-74.331299
-73.640123, 14.316297, -2.120987,  0.000004,-11.812612,-74.491190
-73.819520, 14.067104, -1.847902,  0.000001,-11.934612,-74.650893
-74.002936, 13.815852, -1.576048,  0.000003,-12.055788,-74.810390
-74.190182, 13.562921, -1.305385,  0.000005,-12.176126,-74.969674
-74.381066, 13.308696, -1.035874,  0.000001,-12.295670,-75.128738
-74.575373, 13.053556, -0.767465,  0.000003,-12.414441,-75.287572
-74.772872, 12.797891, -0.500113,  0.000005,-12.532454,-75.446182
-74.973320, 12.542076, -0.233761,  0.000001,-12.649743,-75.604559
-75.176472, 12.286493,  0.031640,  0.000003,-12.766367,-75.762707
-75.382052, 12.031518,  0.296154,  0.000005,-12.882339,-75.920628
-75.589800, 11.777515,  0.559835,  0.000001,-12.997733,-76.078329
-75.799425, 11.524847,  0.822746,  0.000003,-13.112572,-76.235817
-76.010648, 11.273863,  1.084954,  0.000005,-13.226922,-76.393094
-76.223173, 11.024905,  1.346522,  0.000001,-13.340821,-76.550176
-76.436714, 10.778298,  1.607520,  0.000003,-13.454342,-76.707077
-76.650970, 10.534359,  1.868013,  0.000005,-13.567528,-76.863793
-76.865648, 10.293397,  2.128072,  0.000001,-13.680439,-77.020355
-77.080457, 10.055690,  2.387771,  0.000003,-13.793130,-77.176770
-77.295111,  9.821515,  2.647177,  0.000004,-13.905656,-77.333053
-77.509317,  9.591126,  2.906362,  0.000000,-14.018073,-77.489223
-77.722801,  9.364753,  3.165399,  0.000002,-14.130437,-77.645295
-77.935287,  9.142621,  3.424361,  0.000004,-14.242795,-77.801280
-78.146516,  8.924923,  3.683320, -0.000000,-14.355193,-77.957196
-78.356232,  8.711838,  3.942345,  0.000002,-14.467694,-78.113070
-78.564191,  8.503523,  4.201507,  0.000003,-14.580334,-78.268911
-78.770164,  8.300114,  4.460874, -0.000001,-14.693154,-78.424729
-78.973929,  8.101727,  4.720520,  0.000001,-14.806186,-78.580551
-79.175282,  7.908453,  4.980508,  0.000003,-14.919477,-78.736387
-79.374036,  7.720360,  5.240903,  0.000004,-15.033046,-78.892252
-79.570018,  7.537505,  5.501776,  0.000000,-15.146924,-79.048157
-79.763062,  7.359901,  5.763181,  0.000002,-15.261141,-79.204116
-79.953037,  7.187562,  6.025186,  0.000004,-15.375691,-79.360146
-80.139808,  7.020470,  6.287845, -0.000001,-15.490614,-79.516252
-80.323269,  6.858578,  6.551217,  0.000001,-15.605896,-79.672439
-80.503340,  6.701833,  6.815354,  0.000003,-15.721556,-79.828722
-80.679943,  6.550146,  7.080309,  0.000004,-15.837582,-79.985111
-80.853023,  6.403418,  7.346128,  0.000000,-15.953968,-80.141600
-81.022550,  6.261523,  7.612863,  0.000002,-16.070714,-80.298201
-81.188505,  6.124319,  7.880551,  0.000003,-16.187794,-80.454913
-81.350895,  5.991646,  8.149237,  0.000005,-16.305200,-80.611737
-81.509728,  5.863321,  8.418954,  0.000001,-16.422901,-80.768671
-81.665047,  5.739151,  8.689741,  0.000002,-16.540870,-80.925713
-81.816909,  5.618921,  8.961628,  0.000004,-16.659078,-81.082861
-81.965376,  5.502402,  9.234637,  0.000005,-16.777495,-81.240111
-82.110538,  5.389353,  9.508802,  0.000001,-16.896083,-81.397458
-82.252495,  5.279515,  9.784136,  0.000002,-17.014809,-81.554891
-82.391363,  5.172622, 10.060662,  0.000004,-17.133624,-81.712395
-82.527269,  5.068393, 10.338393,  0.000005,-17.252487,-81.869972
-82.660357,  4.966537, 10.617344,  0.000001,-17.371356,-82.027608
-82.790785,  4.866761, 10.897519,  0.000002,-17.490185,-82.185290
-82.918706,  4.768752, 11.178922,  0.000003,-17.608933,-82.343001
-83.044306,  4.672206, 11.461557,  0.000005,-17.727546,-82.500737
-83.167762,  4.576796, 11.745425,  0.000006,-17.845987,-82.658465
-83.289266,  4.482211, 12.030516,  0.000002,-17.964199,-82.816197
-83.409024,  4.388120, 12.316825,  0.000003,-18.082149,-82.973894
-83.527232,  4.294201, 12.604343,  0.000004,-18.199785,-83.131551
-83.644104,  4.200136, 12.893055,  0.000005,-18.317072,-83.289149
-83.759848,  4.105592, 13.182941,  0.000007,-18.433955,-83.446675
-83.874679,  4.010249, 13.473987,  0.000002,-18.550417,-83.604110
-83.988820,  3.913797, 13.766167,  0.000003,-18.666401,-83.761445
-84.102479,  3.815924, 14.059455,  0.000004,-18.781883,-83.918656
-84.215873,  3.716318, 14.353831,  0.000005,-18.896833,-84.075727
-84.329220,  3.614687, 14.649257,  0.000006,-19.011217,-84.232645
-84.442722,  3.510738, 14.945708,  0.000002,-19.125015,-84.389397
-84.556586,  3.404195, 15.243144,  0.000003,-19.238213,-84.545966
-84.671016,  3.294782, 15.541534,  0.000004,-19.350778,-84.702335
-84.786205,  3.182247, 15.840838,  0.000005,-19.462704,-84.858504
-84.902334,  3.066345, 16.141015,  0.000006,-19.573978,-85.014446
-85.019587,  2.946842, 16.442029,  0.000007,-19.684598,-85.170158
-85.138136,  2.823517, 16.743830,  0.000002,-19.794552,-85.325622
-85.258139,  2.696169, 17.046381,  0.000002,-19.903842,-85.480841
-85.379743,  2.564613, 17.349635,  0.000003,-20.012476,-85.635794
-85.503087,  2.428680, 17.653544,  0.000004,-20.120456,-85.790471
-85.628309,  2.288205, 17.958065,  0.000005,-20.227802,-85.944882
-85.755514,  2.143062, 18.263146,  0.000006,-20.334512,-86.098997
-85.884808,  1.993127, 18.568742,  0.000007,-20.440613,-86.252829
-86.016284,  1.838296, 18.874804,  0.000002,-20.546121,-86.406370
-86.150016,  1.678493, 19.181285,  0.000002,-20.651051,-86.559614
-86.286075,  1.513644, 19.488135,  0.000003,-20.755442,-86.712558
-86.424499,  1.343707, 19.795305,  0.000004,-20.859301,-86.865202
-86.565332,  1.168657, 20.102743,  0.000004,-20.962676,-87.017545
-86.708596,  0.988479, 20.410409,  0.000005,-21.065581,-87.169586
-86.854301,  0.803189, 20.718251,  0.000006,-21.168056,-87.321329
-87.002445,  0.612806, 21.026221,  0.000006,-21.270128,-87.472776
-87.153004,  0.417383, 21.334275,  0.000001,-21.371827,-87.623913
-87.305950,  0.216984, 21.642368,  0.000001,-21.473193,-87.774763
-87.461238,  0.011681, 21.950453,  0.000002,-21.574254,-87.925326
-87.618819, -0.198419, 22.258489,  0.000003,-21.675046,-88.075595
-87.778612, -0.413208, 22.566436,  0.000003,-21.775600,-88.225574
-87.940548, -0.632551, 22.874250,  0.000004,-21.875939,-88.375278
-88.104535, -0.856305, 23.181894,  0.000004,-21.976114,-88.524701
-88.270469, -1.084314, 23.489329,  0.000004,-22.076132,-88.673860
-88.438236, -1.316400, 23.796520,  0.000005,-22.176039,-88.822745
-88.607722, -1.552377, 24.103432,  0.000005,-22.275852,-88.971370
-88.778795, -1.792051, 24.410035,  0.000006,-22.375599,-89.119737
-88.951319, -2.035203, 24.716298,  0.000006,-22.475300,-89.267840
-89.125146, -2.281623, 25.022190,  0.000000,-22.574975,-89.415700
-89.300139, -2.531075, 25.327687,  0.000001,-22.674634,-89.563308
-89.476131, -2.783319, 25.632762,  0.000001,-22.774314,-89.710674
-89.652967, -3.038115, 25.937398,  0.000001,-22.874010,-89.857806
-89.830485, -3.295204, 26.241569,  0.000002,-22.973730,-90.004686
-90.008519, -3.554337, 26.545261,  0.000002,-23.073487,-90.151336
-90.186903, -3.815244, 26.848455,  0.000002,-23.173289,-90.297749
-90.365459, -4.077666, 27.151143,  0.000002,-23.273137,-90.443933
-90.544027, -4.341333, 27.453307,  0.000003,-23.373025,-90.589878
-90.722439, -4.605973, 27.754939,  0.000003,-23.472943,-90.735588
-90.900521, -4.871319, 28.056037,  0.000003,-23.572892,-90.881063
-91.078109, -5.137105, 28.356592,  0.000003,-23.672865,-91.026296
-91.255043, -5.403066, 28.656604,  0.000003,-23.772852,-91.171292
-91.431167, -5.668935, 28.956071,  0.000004,-23.872829,-91.316047
-91.606322, -5.934459, 29.254995,  0.000004,-23.972780,-91.460554
-91.780365, -6.199377, 29.553382,  0.000004,-24.072688,-91.604812
-91.953147, -6.463449, 29.851238,  0.000004,-24.172540,-91.748810
-92.124538, -6.726429, 30.148566,  0.000004,-24.272303,-91.892546
-92.294399, -6.988085, 30.445381,  0.000004,-24.371966,-92.036019
-92.462618, -7.248196, 30.741695,  0.000004,-24.471490,-92.179208
-92.629073, -7.506543, 31.037519,  0.000004,-24.570857,-92.322124
-92.793664, -7.762927, 31.332872,  0.000004,-24.670033,-92.464744
-92.956296, -8.017150, 31.627768,  0.000004,-24.768995,-92.607061
-93.116873, -8.269034, 31.922226,  0.000004,-24.867705,-92.749070
-93.275324, -8.518408, 32.216271,  0.000004,-24.966153,-92.890763
-93.431582, -8.765114, 32.509921,  0.000004,-25.064298,-93.032133
-93.585585, -9.009013, 32.803202,  0.000003,-25.162109,-93.173160
-93.737289, -9.249976, 33.096135,  0.000003,-25.259568,-93.313843
-93.886650, -9.487886, 33.388750,  0.000003,-25.356636,-93.454161
-94.033647, -9.722648, 33.681069,  0.000003,-25.453293,-93.594112
-94.178263, -9.954170, 33.973124,  0.000003,-25.549515,-93.733679
-94.320487,-10.182392, 34.264946,  0.000002,-25.645273,-93.872858
-94.460322,-10.407254, 34.556560,  0.000002,-25.740543,-94.011634
-94.597780,-10.628716, 34.847998,  0.000008,-25.835305,-94.149992
-94.732890,-10.846758, 35.139290,  0.000007,-25.929543,-94.287931
-94.865676,-11.061373, 35.430470,  0.000007,-26.023239,-94.425428
-94.996184,-11.272570, 35.721569,  0.000007,-26.116371,-94.562482
-95.124462,-11.480369, 36.012617,  0.000006,-26.208936,-94.699078
-95.250566,-11.684811, 36.303651,  0.000006,-26.300905,-94.835206
-95.374561,-11.885949, 36.594698,  0.000005,-26.392280,-94.970857
-95.496529,-12.083851, 36.885794,  0.000005,-26.483048,-95.106015
-95.616536,-12.278602, 37.176971,  0.000004,-26.573205,-95.240673
-95.734680,-12.470294, 37.468260,  0.000003,-26.662758,-95.374836
-95.851053,-12.659036, 37.759696,  0.000003,-26.751687,-95.508474
-95.965743,-12.844953, 38.051308,  0.000008,-26.840008,-95.641586
-96.078859,-13.028181, 38.343127,  0.000007,-26.927713,-95.774167
-96.190506,-13.208861, 38.635182,  0.000007,-27.014812,-95.906207
-96.300797,-13.387154, 38.927506,  0.000006,-27.101313,-96.037703
-96.409843,-13.563223, 39.220126,  0.000005,-27.187229,-96.168646
-96.517757,-13.737249, 39.513071,  0.000004,-27.272562,-96.299026
-96.624655,-13.909414, 39.806366,  0.000003,-27.357324,-96.428836
-96.730657,-14.079917, 40.100041,  0.000002,-27.441535,-96.558073
-96.835879,-14.248957, 40.394120,  0.000007,-27.525201,-96.686734
-96.940439,-14.416739, 40.688627,  0.000007,-27.608348,-96.814809
-97.044451,-14.583475, 40.983584,  0.000006,-27.690993,-96.942295
-97.148031,-14.749386, 41.279014,  0.000005,-27.773135,-97.069193
-97.251296,-14.914693, 41.574935,  0.000004,-27.854816,-97.195486
-97.354352,-15.079619, 41.871371,  0.000002,-27.936043,-97.321183
-97.457305,-15.244386, 42.168335,  0.000001,-28.016830,-97.446278
-97.560260,-15.409229, 42.465844,  0.000006,-28.097211,-97.570766
-97.663311,-15.574370, 42.763917,  0.000005,-28.177186,-97.694650
-97.766560,-15.740038, 43.062563,  0.000004,-28.256789,-97.817911
-97.870089,-15.906455, 43.361794,  0.000003,-28.336034,-97.940562
-97.973976,-16.073848, 43.661626,  0.000002,-28.414943,-98.062595
-98.078309,-16.242434, 43.962064,  0.000006,-28.493520,-98.184000
-98.183152,-16.412431, 44.263112,  0.000005,-28.571799,-98.304795
-98.288569,-16.584043, 44.564783,  0.000004,-28.649782,-98.424955
-98.394617,-16.757479, 44.867077,  0.000003,-28.727482,-98.544486
-98.501348,-16.932940, 45.169996,  0.000001,-28.804921,-98.663389
-98.608801,-17.110609, 45.473544,  0.000006,-28.882108,-98.781656
-98.717013,-17.290673, 45.777720,  0.000005,-28.959054,-98.899289
-98.826010,-17.473307, 46.082521,  0.000003,-29.035762,-99.016283
-98.935813,-17.658678, 46.387945,  0.000002,-29.112238,-99.132635
-99.046431,-17.846938, 46.693989,  0.000006,-29.188499,-99.248342
-99.157866,-18.038234, 47.000645,  0.000005,-29.264536,-99.363395
-99.270122,-18.232696, 47.307902,  0.000004,-29.340354,-99.477802
-99.383180,-18.430453, 47.615758,  0.000002,-29.415956,-99.591548
-99.497021,-18.631613, 47.924201,  0.000001,-29.491350,-99.704636
-99.611629,-18.836276, 48.233217,  0.000005,-29.566509,-99.817055
-99.726957,-19.044529, 48.542793,  0.000003,-29.641453,-99.928808
-99.842974,-19.256447, 48.852918,  0.000002,-29.716161,-100.039881
-99.959635,-19.472090, 49.163576,  0.000006,-29.790631,-100.150279
-100.076878,-19.691509, 49.474753,  0.000005,-29.864844,-100.259984
-100.194648,-19.914742, 49.786431,  0.000003,-29.938804,-100.368996
-100.312880,-20.141804, 50.098590,  0.000001,-30.012498,-100.477307
-100.431505,-20.372716, 50.411211,  0.000006,-30.085899,-100.584914
-100.550445,-20.607461, 50.724280,  0.000004,-30.159000,-100.691812
-100.669625,-20.846033, 51.037769,  0.000002,-30.231796,-100.797986
-100.788955,-21.088403, 51.351663,  0.000006,-30.304253,-100.903427
-100.908355,-21.334524, 51.665939,  0.000005,-30.376371,-101.008138
-101.027728,-21.584345, 51.980575,  0.000003,-30.448122,-101.112099
-101.146984,-21.837797, 52.295544,  0.000001,-30.519495,-101.215311
-101.266024,-22.094810, 52.610830,  0.000005,-30.590470,-101.317757
-101.384753,-22.355291, 52.926406,  0.000003,-30.661027,-101.419434
-101.503072,-22.619141, 53.242245,  0.000002,-30.731151,-101.520338
-101.620877,-22.886249, 53.558330,  0.000006,-30.800823,-101.620439
-101.738075,-23.156494, 53.874633,  0.000004,-30.870019,-101.719754
-101.854566,-23.429752, 54.191130,  0.000002,-30.938736,-101.818250
-101.970241,-23.705881, 54.507800,  0.000006,-31.006942,-101.915933
-102.085012,-23.984741, 54.824613,  0.000004,-31.074627,-102.012784
-102.198778,-24.266170, 55.141553,  0.000008,-31.141775,-102.108799
-102.311445,-24.550012, 55.458590,  0.000006,-31.208377,-102.203964
-102.422920,-24.836101, 55.775705,  0.000004,-31.274412,-102.298273
-102.533112,-25.124269, 56.092871,  0.000007,-31.339870,-102.391710
-102.641933,-25.414331, 56.410070,  0.000005,-31.404740,-102.484275
-102.749303,-25.706113, 56.727278,  0.000003,-31.469015,-102.575944
-102.855141,-25.999427, 57.044469,  0.000007,-31.532676,-102.666714
-102.959373,-26.294088, 57.361629,  0.000004,-31.595727,-102.756584
-103.061926,-26.589909, 57.678734,  0.000008,-31.658152,-102.845527
-103.162738,-26.886701, 57.995762,  0.000006,-31.719948,-102.933548
-103.261743,-27.184270, 58.312699,  0.000003,-31.781109,-103.020627
-103.358882,-27.482427, 58.629524,  0.000007,-31.841644,-103.106760
-103.454113,-27.780988, 58.946217,  0.000005,-31.901540,-103.191936
-103.547384,-28.079763, 59.262765,  0.000008,-31.960791,-103.276143
-103.638663,-28.378572, 59.579151,  0.000006,-32.019413,-103.359376
-103.727904,-28.677230, 59.895361,  0.000003,-32.077401,-103.441631
-103.815085,-28.975563, 60.211378,  0.000006,-32.134765,-103.522889
-103.900183,-29.273404, 60.527188,  0.000004,-32.191502,-103.603152
-103.983183,-29.570577, 60.842783,  0.000007,-32.247616,-103.682403
-104.064067,-29.866928, 61.158151,  0.000005,-32.303123,-103.760628
-104.142837,-30.162301, 61.473279,  0.000008,-32.358019,-103.837833
-104.219491,-30.456546, 61.788159,  0.000005,-32.412322,-103.914007
-104.294029,-30.749530, 62.102784,  0.000008,-32.466039,-103.989139
-104.366469,-31.041120, 62.417144,  0.000005,-32.519180,-104.063221
-104.436822,-31.331187, 62.731237,  0.000003,-32.571753,-104.136251
-104.505118,-31.619623, 63.045051,  0.000006,-32.623769,-104.208211
-104.571371,-31.906326, 63.358589,  0.000003,-32.675236,-104.279110
-104.635612,-32.191192, 63.671843,  0.000006,-32.726175,-104.348925
-104.697886,-32.474141, 63.984811,  0.000003,-32.776586,-104.417657
-104.758222,-32.755099, 64.297495,  0.000006,-32.826489,-104.485293
-104.816668,-33.034004, 64.609893,  0.000003,-32.875885,-104.551836
-104.873267,-33.310795, 64.922005,  0.000006,-32.924794,-104.617273
-104.928066,-33.585433, 65.233834,  0.000003,-32.973233,-104.681603
-104.981118,-33.857888, 65.545380,  0.000006,-33.021195,-104.744815
-105.032481,-34.128137, 65.856645,  0.000003,-33.068697,-104.806901
-105.082206,-34.396165, 66.167639,  0.000006,-33.115750,-104.867852
-105.130356,-34.661982, 66.478364,  0.000002,-33.162359,-104.927672
-105.176986,-34.925590, 66.788823,  0.000005,-33.208535,-104.986345
-105.222152,-35.187013, 67.099026,  0.000008,-33.254290,-105.043869
-105.265929,-35.446288, 67.408980,  0.000005,-33.299616,-105.100242
-105.308361,-35.703450, 67.718693,  0.000007,-33.344533,-105.155445
-105.349523,-35.958560, 68.028171,  0.000004,-33.389032,-105.209479
-105.389472,-36.211674, 68.337423,  0.000007,-33.433130,-105.262339
-105.428264,-36.462865, 68.646463,  0.000003,-33.476816,-105.314018
-105.465961,-36.712213, 68.955296,  0.000006,-33.520099,-105.364500
-105.502624,-36.959812, 69.263935,  0.000003,-33.562983,-105.413789
-105.538298,-37.205754, 69.572390,  0.000005,-33.605449,-105.461871
-105.573049,-37.450145, 69.880675,  0.000007,-33.647516,-105.508740
-105.606924,-37.693100, 70.188798,  0.000004,-33.689174,-105.554400
-105.639972,-37.934739, 70.496774,  0.000006,-33.730421,-105.598824
-105.672239,-38.175187, 70.804612,  0.000003,-33.771247,-105.642013
-105.703763,-38.414576, 71.112323,  0.000005,-33.811650,-105.683962
-105.734591,-38.653042, 71.419925,  0.000007,-33.851625,-105.724657
-105.764760,-38.890726, 71.727430,  0.000004,-33.891161,-105.764097
-105.794297,-39.127775, 72.034846,  0.000006,-33.930253,-105.802268
-105.823232,-39.364336, 72.342188,  0.000002,-33.968898,-105.839171
-105.851589,-39.600563, 72.649466,  0.000005,-34.007081,-105.874781
-105.879390,-39.836606, 72.956696,  0.000007,-34.044790,-105.909104
-105.906651,-40.072628, 73.263889,  0.000003,-34.082018,-105.942127
-105.933390,-40.308776, 73.571054,  0.000005,-34.118755,-105.973831
-105.959604,-40.545215, 73.878207,  0.000007,-34.154991,-106.004224
-105.985304,-40.782093, 74.185358,  0.000003,-34.190718,-106.033292
-106.010488,-41.019573, 74.492516,  0.000005,-34.225919,-106.061015
-106.035146,-41.257805, 74.799694,  0.000007,-34.260591,-106.087387
-106.059272,-41.496943, 75.106901,  0.000003,-34.294722,-106.112409
-106.082857,-41.737131, 75.414149,  0.000005,-34.328293,-106.136065
-106.105876,-41.978516, 75.721444,  0.000007,-34.361307,-106.158348
-106.128308,-42.221246, 76.028798,  0.000003,-34.393739,-106.179237
-106.150131,-42.465449, 76.336217,  0.000005,-34.425595,-106.198740
-106.171312,-42.711263, 76.643712,  0.000007,-34.456859,-106.216830
-106.191818,-42.958815, 76.951288,  0.000003,-34.487520,-106.233512
-106.211615,-43.208224, 77.258953,  0.000004,-34.517567,-106.248764
-106.230663,-43.459603, 77.566711,  0.000006,-34.547006,-106.262593
-106.248915,-43.713065, 77.874566,  0.000002,-34.575820,-106.274967
-106.266325,-43.968704, 78.182529,  0.000004,-34.604002,-106.285892
-106.282846,-44.226618, 78.490598,  0.000005,-34.631559,-106.295345
-106.298431,-44.486889, 78.798781,  0.000007,-34.658472,-106.303331
-106.313019,-44.749597, 79.107078,  0.000003,-34.684742,-106.309834
-106.326563,-45.014812, 79.415487,  0.000004,-34.710368,-106.314845
-106.339000,-45.282590, 79.724018,  0.000006,-34.735354,-106.318356
-106.350275,-45.552981, 80.032665,  0.000007,-34.759685,-106.320357
-106.360325,-45.826035, 80.341429,  0.000003,-34.783377,-106.320833
-106.369097,-46.101781, 80.650313,  0.000004,-34.806415,-106.319775
-106.376526,-46.380243, 80.959307,  0.000006,-34.828802,-106.317184
-106.382552,-46.661436, 81.268418,  0.000007,-34.850551,-106.313037
-106.387117,-46.945367, 81.577635,  0.000002,-34.871666,-106.307337
-106.390152,-47.232032, 81.886957,  0.000004,-34.892130,-106.300069
-106.391604,-47.521419, 82.196384,  0.000005,-34.911973,-106.291220
-106.391411,-47.813505, 82.505904,  0.000006,-34.931174,-106.280795
-106.389516,-48.108260, 82.815511,  0.000008,-34.949764,-106.268774
-106.385862,-48.405647, 83.125206,  0.000003,-34.967731,-106.255147
-106.380390,-48.705618, 83.434973,  0.000004,-34.985084,-106.239913
-106.373051,-49.008118, 83.744810,  0.000005,-35.001837,-106.223055
-106.363789,-49.313079, 84.054708,  0.000006,-35.017985,-106.204576
-106.352559,-49.620435, 84.364654,  0.000008,-35.033552,-106.184460
-106.339308,-49.930105, 84.674643,  0.000003,-35.048526,-106.162695
-106.323991,-50.242000, 84.984660,  0.000004,-35.062930,-106.139286
-106.306567,-50.556033, 85.294698,  0.000005,-35.076771,-106.114208
-106.286994,-50.872101, 85.604746,  0.000006,-35.090049,-106.087467
-106.265237,-51.190100, 85.914793,  0.000007,-35.102772,-106.059058
-106.241267,-51.509921, 86.224822,  0.000008,-35.114956,-106.028958
-106.215042,-51.831448, 86.534827,  0.000002,-35.126592,-105.997165
-106.186546,-52.154559, 86.844792,  0.000003,-35.137707,-105.963676
-106.155742,-52.479134, 87.154705,  0.000004,-35.148301,-105.928475
-106.122621,-52.805045, 87.464550,  0.000005,-35.158375,-105.891564
-106.087154,-53.132161, 87.774314,  0.000006,-35.167945,-105.852931
-106.049334,-53.460346, 88.083987,  0.000007,-35.177004,-105.812564
-106.009148,-53.789472, 88.393553,  0.000007,-35.185569,-105.770465
-105.966580,-54.119393, 88.702993,  0.000008,-35.193642,-105.726625
-105.921635,-54.449984, 89.012299,  0.000003,-35.201230,-105.681033
-105.874310,-54.781095, 89.321454,  0.000003,-35.208325,-105.633679
-105.824597,-55.112597, 89.630444,  0.000004,-35.214944,-105.584555
-105.772510,-55.444349, 89.939254,  0.000004,-35.221079,-105.533654
-105.718054,-55.776220, 90.247868,  0.000005,-35.226737,-105.480976
-105.661233,-56.108068, 90.556270,  0.000005,-35.231927,-105.426509
-105.602065,-56.439765, 90.864451,  0.000006,-35.236638,-105.370249
-105.540562,-56.771183, 91.172394,  0.000006,-35.240880,-105.312182
-105.476742,-57.102194, 91.480080,  0.000007,-35.244640,-105.252302
-105.410628,-57.432679, 91.787501,  0.000007,-35.247928,-105.190599
-105.342235,-57.762511, 92.094640,  0.000007,-35.250748,-105.127072
-105.271595,-58.091580, 92.401484,  0.000008,-35.253084,-105.061710
-105.198725,-58.419778, 92.708017,  0.000008,-35.254948,-104.994509
-105.123653,-58.747001, 93.014230,  0.000008,-35.256324,-104.925455
-105.046407,-59.073146, 93.320107,  0.000008,-35.257215,-104.854543
-104.967024,-59.398124, 93.625633,  0.000008,-35.257622,-104.781765
-104.885521,-59.721842, 93.930798,  0.000008,-35.257531,-104.707113
-104.801939,-60.044224, 94.235590,  0.000008,-35.256943,-104.630578
-104.716303,-60.365196, 94.539995,  0.000008,-35.255860,-104.552158
-104.628647,-60.684693, 94.844003,  0.000002,-35.254275,-104.471843
-104.539001,-61.002649, 95.147604,  0.000002,-35.252175,-104.389623
-104.447399,-61.319016, 95.450783,  0.000002,-35.249567,-104.305484
-104.353870,-61.633746, 95.753534,  0.000008,-35.246433,-104.219431
-104.258445,-61.946803, 96.055844,  0.000007,-35.242788,-104.131452
-104.161152,-62.258156, 96.357708,  0.000007,-35.238604,-104.041533
-104.062027,-62.567781, 96.659109,  0.000007,-35.233891,-103.949668
-103.961089,-62.875664, 96.960045,  0.000007,-35.228645,-103.855853
-103.858370,-63.181798, 97.260506,  0.000006,-35.222860,-103.760081
-103.753893,-63.486183, 97.560483,  0.000006,-35.216525,-103.662338
-103.647688,-63.788822, 97.859970,  0.000005,-35.209643,-103.562626
-103.539774,-64.089736, 98.158959,  0.000005,-35.202213,-103.460923
-103.430166,-64.388942, 98.457443,  0.000004,-35.194230,-103.357231
-103.318890,-64.686475, 98.755421,  0.000004,-35.185693,-103.251544
-103.205963,-64.982364, 99.052879,  0.000003,-35.176590,-103.143848
-103.091398,-65.276652, 99.349819,  0.000003,-35.166938,-103.034145
-102.975202,-65.569394, 99.646233,  0.000002,-35.156719,-102.922415
-102.857392,-65.860639, 99.942119,  0.000002,-35.145941,-102.808659
-102.737979,-66.150448,100.237471,  0.000001,-35.134594,-102.692865
-102.616960,-66.438892,100.532286,  0.000001,-35.122691,-102.575038
-102.494345,-66.726041,100.826564,  0.000000,-35.110229,-102.455149
-102.370129,-67.011965,101.120298,  0.000006,-35.097205,-102.333203
-102.244318,-67.296753,101.413487,  0.000005,-35.083634,-102.209199
-102.116906,-67.580488,101.706130,  0.000004,-35.069497,-102.083125
-101.987880,-67.863253,101.998226,  0.000004,-35.054811,-101.954965
-101.857242,-68.145149,102.289775,  0.000003,-35.039582,-101.824727
-101.724975,-68.426266,102.580771,  0.000002,-35.023810,-101.692387
-101.591071,-68.706702,102.871219,  0.000001,-35.007495,-101.557954
-101.455506,-68.986556,103.161118,  0.000001,-34.990646,-101.421424
-101.318268,-69.265929,103.450465,  0.000006,-34.973270,-101.282774
-101.179339,-69.544925,103.739262,  0.000005,-34.955360,-101.142010
-101.038702,-69.823650,104.027509,  0.000004,-34.936942,-100.999122
-100.896319,-70.102200,104.315208,  0.000004,-34.918008,-100.854107
-100.752182,-70.380683,104.602360,  0.000003,-34.898575,-100.706949
-100.606256,-70.659202,104.888962,  0.000002,-34.878636,-100.557657
-100.458511,-70.937859,105.175019,  0.000001,-34.858215,-100.406210
-100.308926,-71.216752,105.460533,  0.000006,-34.837306,-100.252619
-100.157464,-71.495979,105.745504,  0.000005,-34.815916,-100.096865
-100.004100,-71.775638,106.029932,  0.000004,-34.794053,-99.938946
-99.848790,-72.055821,106.313818,  0.000003,-34.771733,-99.778862
-99.691515,-72.336623,106.597166,  0.000002,-34.748957,-99.616598
-99.532231,-72.618129,106.879976,  0.000007,-34.725737,-99.452156
-99.370911,-72.900420,107.162254,  0.000006,-34.702073,-99.285534
-99.207516,-73.183577,107.443993,  0.000005,-34.677978,-99.116721
-99.042014,-73.467675,107.725201,  0.000004,-34.653451,-98.945716
-98.874369,-73.752783,108.005876,  0.000003,-34.628509,-98.772504
-98.704542,-74.038972,108.286023,  0.000007,-34.603151,-98.597096
-98.532510,-74.326293,108.565639,  0.000006,-34.577385,-98.419481
-98.358230,-74.614808,108.844727,  0.000005,-34.551224,-98.239649
-98.181677,-74.904565,109.123284,  0.000004,-34.524659,-98.057601
-98.002807,-75.195606,109.401320,  0.000008,-34.497715,-97.873329
-97.821599,-75.487970,109.678825,  0.000007,-34.470383,-97.686838
-97.638015,-75.781686,109.955808,  0.000006,-34.442670,-97.498110
-97.452031,-76.076775,110.232262,  0.000004,-34.414579,-97.307152
-97.263618,-76.373264,110.508188,  0.000009,-34.386126,-97.113958
-97.072748,-76.671160,110.783592,  0.000007,-34.357310,-96.918524
-96.879393,-76.970465,111.058467,  0.000006,-34.328119,-96.720838
-96.683536,-77.271189,111.332811,  0.000004,-34.298577,-96.520909
-96.485147,-77.573314,111.606628,  0.000008,-34.268684,-96.318723
-96.284210,-77.876833,111.879912,  0.000007,-34.238429,-96.114283
-96.080709,-78.181723,112.152665,  0.000005,-34.207827,-95.907579
-95.874617,-78.487956,112.424882,  0.000009,-34.176872,-95.698620
-95.665928,-78.795505,112.696561,  0.000007,-34.145577,-95.487384
-95.454624,-79.104327,112.967700,  0.000005,-34.113932,-95.273882
-95.240695,-79.414379,113.238298,  0.000010,-34.081941,-95.058107
-95.024128,-79.725608,113.508344,  0.000008,-34.049615,-94.840059
-94.804920,-80.037964,113.777844,  0.000006,-34.016938,-94.619726
-94.583065,-80.351380,114.046788,  0.000010,-33.983920,-94.397112
-94.358558,-80.665797,114.315171,  0.000008,-33.950568,-94.172211
-94.131399,-80.981137,114.582991,  0.000005,-33.916871,-93.945016
-93.901583,-81.297331,114.850241,  0.000009,-33.882840,-93.715540
-93.669117,-81.614300,115.116918,  0.000007,-33.848465,-93.483759
-93.434000,-81.931954,115.383014,  0.000005,-33.813754,-93.249689
-93.196243,-82.250209,115.648523,  0.000008,-33.778700,-93.013318
-92.955852,-82.568977,115.913440,  0.000006,-33.743309,-92.774638
-92.712830,-82.888165,116.177756,  0.000004,-33.707581,-92.533657
-92.467193,-83.207679,116.441464,  0.000007,-33.671519,-92.290370
-92.218951,-83.527412,116.704560,  0.000005,-33.635120,-92.044776
-91.968114,-83.847275,116.967036,  0.000003,-33.598391,-91.796874
-91.714701,-84.167161,117.228877,  0.000006,-33.561320,-91.546652
-91.458726,-84.486971,117.490085,  0.000004,-33.523927,-91.294115
-91.200206,-84.806595,117.750645,  0.000007,-33.486197,-91.039263
-90.939158,-85.125935,118.010549,  0.000005,-33.448140,-90.782091
-90.675604,-85.444888,118.269789,  0.000002,-33.409753,-90.522604
-90.409554,-85.763347,118.528354,  0.000005,-33.371044,-90.260786
-90.141040,-86.081214,118.786241,  0.000003,-33.332016,-89.996655
-89.870073,-86.398382,119.043430,  0.000006,-33.292664,-89.730192
-89.596677,-86.714751,119.299920,  0.000003,-33.252998,-89.461406
-89.320872,-87.030226,119.555696,  0.000001,-33.213026,-89.190290
-89.042682,-87.344711,119.810752,  0.000004,-33.172745,-88.916849
-88.762130,-87.658111,120.065072,  0.000001,-33.132153,-88.641083
-88.479233,-87.970333,120.318650,  0.000005,-33.091267,-88.362986
-88.194012,-88.281286,120.571473,  0.000002,-33.050092,-88.082563
-87.906491,-88.590890,120.823535,  0.000005,-33.008625,-87.799806
-87.616694,-88.899066,121.074820,  0.000002,-32.966874,-87.514725
-87.324634,-89.205728,121.325318,  0.000005,-32.924848,-87.227307
-87.030336,-89.510807,121.575019,  0.000003,-32.882553,-86.937562
-86.733819,-89.814235,121.823910, -0.000000,-32.839986,-86.645491
-86.435094,-90.115947,122.071986,  0.000003,-32.797164,-86.351082
-86.134190,-90.415874,122.319230,  0.000000,-32.754098,-86.054351
-85.831118,-90.713975,122.565633,  0.000003,-32.710776,-85.755293
-85.525892,-91.010187,122.811185,  0.000000,-32.667227,-85.453911
-85.218530,-91.304468,123.055875,  0.000003,-32.623445,-85.150196
-84.909048,-91.596783,123.299687,  0.000001,-32.579438,-84.844159
-84.597454,-91.887090,123.542620,  0.000004,-32.535218,-84.535796
-84.283763,-92.175359,123.784655,  0.000001,-32.490791,-84.225114
-83.967982,-92.461573,124.025783,  0.000004,-32.446170,-83.912106
-83.650125,-92.745704,124.265997,  0.000001,-32.401356,-83.596783
-83.330195,-93.027745,124.505283,  0.000004,-32.356358,-83.279146
-83.008206,-93.307685,124.743630,  0.000001,-32.311187,-82.959186
-82.684156,-93.585518,124.981032,  0.000004,-32.265847,-82.636923
-82.358050,-93.861246,125.217474,  0.000001,-32.220351,-82.312339
-82.029897,-94.134881,125.452949,  0.000004,-32.174706,-81.985450
-81.699697,-94.406432,125.687450,  0.000001,-32.128911,-81.656259
-81.367444,-94.675916,125.920962,  0.000004,-32.082983,-81.324764
-81.033149,-94.943352,126.153478,  0.000007,-32.036924,-80.990963
-80.696800,-95.208769,126.384986,  0.000004,-31.990751,-80.654875
-80.358401,-95.472200,126.615484,  0.000006,-31.944461,-80.316487
-80.017943,-95.733673,126.844955,  0.000003,-31.898065,-79.975807
-79.675422,-95.993235,127.073398,  0.000006,-31.851569,-79.632843
-79.330841,-96.250920,127.300797,  0.000003,-31.804977,-79.287590
-78.984178,-96.506778,127.527151,  0.000005,-31.758304,-78.940060
-78.635440,-96.760859,127.752447,  0.000002,-31.711541,-78.590254
-78.284615,-97.013213,127.976682,  0.000005,-31.664712,-78.238181
-77.931685,-97.263899,128.199842,  0.000007,-31.617816,-77.883836
-77.576652,-97.512973,128.421926,  0.000004,-31.570861,-77.527224
-77.219501,-97.760488,128.642923,  0.000007,-31.523841,-77.168354
-76.860227,-98.006513,128.862830,  0.000003,-31.476771,-76.807234
-76.498807,-98.251109,129.081635,  0.000006,-31.429654,-76.443853
-76.135245,-98.494343,129.299336,  0.000002,-31.382500,-76.078239
-75.769518,-98.736275,129.515926,  0.000005,-31.335302,-75.710377
-75.402925,-98.979868,129.734166,  0.000007,-31.289599,-75.342361
-75.036695,-99.228000,129.956727,  0.000004,-31.246842,-74.976134
-74.671944,-99.483430,130.186156,  0.000006,-31.208407,-74.613451
-74.309703,-99.748799,130.424872,  0.000002,-31.175562,-74.255903
-73.950898,-100.026616,130.675161,  0.000005,-31.149463,-73.904850
-73.596354,-100.319250,130.939170,  0.000007,-31.131152,-73.561479
-73.246789,-100.628910,131.218899,  0.000003,-31.121541,-73.226762
-72.902808,-100.957667,131.516207,  0.000005,-31.121426,-72.901455
-72.564923,-101.307407,131.832793,  0.000008,-31.131453,-72.586134
-72.233530,-101.679849,132.170205,  0.000004,-31.152145,-72.281136
-71.908922,-102.076541,132.529837,  0.000006,-31.183877,-71.986625
-71.591278,-102.498848,132.912911,  0.000008,-31.226889,-71.702559
-71.280684,-102.947933,133.320503,  0.000004,-31.281273,-71.428695
-70.977114,-103.424790,133.753514,  0.000006,-31.346986,-71.164619
-70.680449,-103.930202,134.212687,  0.000002,-31.423866,-70.909751
-70.390464,-104.464766,134.698600,  0.000004,-31.511597,-70.663326
-70.106849,-105.028877,135.211670,  0.000006,-31.609744,-70.424457
-69.829208,-105.622743,135.752154,  0.000002,-31.717766,-70.192096
-69.557047,-106.246367,136.320136,  0.000004,-31.834979,-69.965074
-69.289797,-106.899557,136.915560,  0.000006,-31.960611,-69.742119
-69.026819,-107.581933,137.538202,  0.000002,-32.093795,-69.521849
-68.767395,-108.292922,138.187684,  0.000004,-32.233561,-69.302811
-68.510750,-109.031768,138.863486,  0.000005,-32.378870,-69.083492
-68.256052,-109.797527,139.564937,  0.000007,-32.528606,-68.862305
-68.002399,-110.589085,140.291219,  0.000003,-32.681605,-68.637655
-67.748871,-111.405149,141.041385,  0.000005,-32.836639,-68.407915
-67.494484,-112.244266,141.814353,  0.000006,-32.992458,-68.171448
-67.238230,-113.104824,142.608912,  0.000002,-33.147776,-67.926641
-66.979086,-113.985062,143.423727,  0.000004,-33.301301,-67.671904
-66.715995,-114.883072,144.257349,  0.000005,-33.451737,-67.405685
-66.447889,-115.796818,145.108227,  0.000001,-33.597780,-67.126483
-66.173697,-116.724137,145.974693,  0.000003,-33.738166,-66.832874
-65.892360,-117.662751,146.854995,  0.000004,-33.871664,-66.523509
-65.602804,-118.610274,147.747282,  0.000006,-33.997065,-66.197122
-65.303990,-119.564232,148.649625,  0.000001,-34.113215,-65.852549
-64.994894,-120.522060,149.560022,  0.000003,-34.219025,-65.488753
-64.674506,-121.481132,150.476398,  0.000004,-34.313475,-65.104792
-64.341866,-122.438744,151.396626, -0.000000,-34.395614,-64.699852
-63.996048,-123.392152,152.318516,  0.000001,-34.464588,-64.273265
-63.636160,-124.338574,153.239845,  0.000003,-34.519607,-63.824484
-63.261371,-125.275198,154.158343,  0.000004,-34.560006,-63.353093
-62.870901,-126.199194,155.071721, -0.000000,-34.585194,-62.858845
-62.464030,-127.107733,155.977656,  0.000001,-34.594698,-62.341594
-62.040089,-127.997998,156.873826,  0.000003,-34.588155,-61.801376
-61.598493,-128.867175,157.757897,  0.000004,-34.565298,-61.238346
-61.138715,-129.712501,158.627536, -0.000000,-34.525984,-60.652782
-60.660310,-130.531243,159.480424,  0.000001,-34.470165,-60.045132
-60.162890,-131.320729,160.314252,  0.000002,-34.397913,-59.415939
-59.646174,-132.078341,161.126747,  0.000004,-34.309412,-58.765889
-59.109931,-132.801539,161.915659, -0.000001,-34.204933,-58.095792
-58.554030,-133.487881,162.678785,  0.000000,-34.084869,-57.406550
-57.978414,-134.134999,163.413956,  0.000002,-33.949701,-56.699171
-57.383114,-134.740639,164.119070,  0.000003,-33.799997,-55.974774
-56.768234,-135.302665,164.792076,  0.000004,-33.636426,-55.234554
-56.133965,-135.819051,165.430993, -0.000000,-33.459730,-54.479764
-55.480583,-136.287908,166.033904,  0.000001,-33.270731,-53.711755
-54.808434,-136.707480,166.598975,  0.000002,-33.070318,-52.931914
-54.117953,-137.076153,167.124456,  0.000004,-32.859433,-52.141669
-53.409641,-137.392469,167.608682,  0.000005,-32.639070,-51.342498
-52.684084,-137.655117,168.050078,  0.000000,-32.410275,-50.535888
-51.941922,-137.862948,168.447170,  0.000001,-32.174126,-49.723342
-51.183886,-138.014982,168.798584,  0.000003,-31.931720,-48.906371
-50.410753,-138.110409,169.103048,  0.000004,-31.684174,-48.086470
-49.623366,-138.148575,169.359400,  0.000005,-31.432631,-47.265126
-48.822632,-138.129019,169.566590,  0.000000,-31.178201,-46.443786
-48.009498,-138.051446,169.723686,  0.000001,-30.922018,-45.623867
-47.184979,-137.915733,169.829864,  0.000002,-30.665165,-44.806731
-46.350109,-137.721943,169.884424,  0.000004,-30.408722,-43.993706
-45.505976,-137.470314,169.886784,  0.000005,-30.153742,-43.186033
-44.653708,-137.161255,169.836485, -0.000000,-29.901212,-42.384894
-43.794448,-136.795350,169.733192,  0.000001,-29.652080,-41.591397
-42.929365,-136.373359,169.576692,  0.000002,-29.407257,-40.806568
-42.059661,-135.896204,169.366890,  0.000003,-29.167568,-40.031349
-41.186533,-135.364977,169.103822,  0.000004,-28.933796,-39.266584
-40.311194,-134.780932,168.787643, -0.000001,-28.706627,-38.513036
-39.434863,-134.145480,168.418629,  0.000000,-28.486701,-37.771354
-38.558752,-133.460174,167.997177,  0.000001,-28.274558,-37.042116
-37.684065,-132.726729,167.523809,  0.000002,-28.070661,-36.325762
-36.811993,-131.946979,166.999156,  0.000003,-27.875404,-35.622677
-35.943713,-131.122913,166.423969,  0.000004,-27.689074,-34.933110
-35.080380,-130.256625,165.799111, -0.000001,-27.511909,-34.257248
-34.223112,-129.350339,165.125555,  0.000000,-27.344017,-33.595160
-33.373004,-128.406386,164.404387,  0.000001,-27.185452,-32.946819
-32.531113,-127.427191,163.636784,  0.000002,-27.036192,-32.312138
-31.698455,-126.415288,162.824039,  0.000003,-26.896111,-31.690912
-30.875996,-125.373274,161.967530,  0.000004,-26.765028,-31.082879
-30.064669,-124.303841,161.068733,  0.000005,-26.642667,-30.487695
-29.265339,-123.209728,160.129217, -0.000000,-26.528696,-29.904944
-28.478824,-122.093742,159.150627,  0.000001,-26.422722,-29.334158
-27.705886,-120.958732,158.134696,  0.000002,-26.324291,-28.774791
-26.947224,-119.807579,157.083224,  0.000002,-26.232877,-28.226267
-26.203478,-118.643203,155.998092,  0.000003,-26.147928,-27.687967
-25.475218,-117.468522,154.881240,  0.000004,-26.068831,-27.159210
-24.762957,-116.286473,153.734665,  0.000005,-25.994949,-26.639304
-24.067138,-115.099992,152.560431, -0.000000,-25.925604,-26.127540
-23.388135,-113.911993,151.360640,  0.000000,-25.860114,-25.623183
-22.726246,-112.725373,150.137445,  0.000001,-25.797767,-25.125498
-22.081720,-111.542996,148.893044,  0.000002,-25.737837,-24.633724
-21.454721,-110.367691,147.629658,  0.000003,-25.679611,-24.147131
-20.845351,-109.202226,146.349542,  0.000003,-25.622358,-23.664991
-20.253637,-108.049320,145.054978,  0.000004,-25.565388,-23.186593
-19.679557,-106.911631,143.748261, -0.000001,-25.508006,-22.711249
-19.123005,-105.791723,142.431702, -0.000000,-25.449551,-22.238304
-18.583819,-104.692097,141.107620,  0.000000,-25.389376,-21.767114
-18.061776,-103.615155,139.778329,  0.000001,-25.326903,-21.297099
-17.556587,-102.563210,138.446153,  0.000002,-25.261561,-20.827724
-17.067922,-101.538466,137.113398,  0.000002,-25.192840,-20.358461
-16.595372,-100.543024,135.782363,  0.000003,-25.120276,-19.888880
-16.138489,-99.578871,134.455325,  0.000004,-25.043467,-19.418566
-15.696783,-98.647876,133.134542, -0.000002,-24.962060,-18.947173
-15.269696,-97.751778,131.822246, -0.000001,-24.875762,-18.474406
-14.856652,-96.892201,130.520637, -0.000000,-24.784350,-18.000026
-14.457013,-96.070635,129.231875,  0.000000,-24.687669,-17.523854
-14.070125,-95.288437,127.958091,  0.000001,-24.585612,-17.045762
-13.695280,-94.546828,126.701365,  0.000002,-24.478158,-16.565673
-13.331757,-93.846896,125.463732,  0.000002,-24.365339,-16.083583
-12.978809,-93.189590,124.247182,  0.000003,-24.247271,-15.599520
-12.635659,-92.575720,123.053639, -0.000002,-24.124115,-15.113578
-12.301516,-92.005967,121.884988, -0.000002,-23.996117,-14.625887
-11.975583,-91.480861,120.743044, -0.000001,-23.863562,-14.136629
-11.657046,-91.000805,119.629560, -0.000000,-23.726826,-13.646033
-11.345078,-90.566074,118.546231,  0.000000,-23.586312,-13.154361
-11.038865,-90.176797,117.494680,  0.000001,-23.442492,-12.661908
-10.737586,-89.832980,116.476466,  0.000001,-23.295899,-12.169009
-10.440421,-89.534513,115.493083,  0.000002,-23.147088,-11.676021
-10.146567,-89.281148,114.545944,  0.000003,-22.996675,-11.183316
 -9.855223,-89.072533,113.636401, -0.000003,-22.845305,-10.691298
 -9.565609,-88.908193,112.765725, -0.000002,-22.693663,-10.200361
 -9.276958,-88.787547,111.935117, -0.000001,-22.542450, -9.710933
 -8.988531,-88.709923,111.145706, -0.000001,-22.392404, -9.223427
 -8.699605,-88.674535,110.398549, -0.000000,-22.244275, -8.738264
 -8.409478,-88.680520,109.694624,  0.000001,-22.098811, -8.255860
 -8.117493,-88.726920,109.034839,  0.000001,-21.956785, -7.776601
 -7.823006,-88.812714,108.420029,  0.000002,-21.818973, -7.300877
 -7.525409,-88.936802,107.850960,  0.000002,-21.686126, -6.829051
 -7.224124,-89.098022,107.328328, -0.000003,-21.559006, -6.361462
 -6.918617,-89.295162,106.852750, -0.000002,-21.438354, -5.898422
 -6.608385,-89.526952,106.424789, -0.000002,-21.324898, -5.440201
 -6.292953,-89.792098,106.044928, -0.000001,-21.219337, -4.987040
 -5.971894,-90.089264,105.713599, -0.000000,-21.122337, -4.539155
 -5.644811,-90.417095,105.431161,  0.000000,-21.034540, -4.096688
 -5.311353,-90.774218,105.197917,  0.000001,-20.956553, -3.659769
 -4.971189,-91.159256,105.014114,  0.000002,-20.888942, -3.228468
 -4.624047,-91.570835,104.879941,  0.000002,-20.832239, -2.802789
 -4.269679,-92.007586,104.795535, -0.000003,-20.786934, -2.382718
 -3.907872,-92.468158,104.760984, -0.000002,-20.753441, -1.968176
 -3.538448,-92.951228,104.776329, -0.000002,-20.732171, -1.559012
 -3.161269,-93.455499,104.841563, -0.000001,-20.723459, -1.155058
 -2.776219,-93.979726,104.956645, -0.000000,-20.727599, -0.756076
 -2.383217,-94.522701,105.121493,  0.000000,-20.744824, -0.361760
 -1.982210,-95.081193,105.334048,  0.000001,-20.774358,  0.028217
 -1.573199,-95.652041,105.592226,  0.000002,-20.815398,  0.414220
 -1.156223,-96.232173,105.893951,  0.000002,-20.867086,  0.796620
 -0.731378,-96.818610,106.237146,  0.000003,-20.928567,  1.175779
 -0.298800,-97.408484,106.619740, -0.000002,-20.998970,  1.552090
  0.141326,-97.999035,107.039674, -0.000002,-21.077428,  1.925947
  0.588792,-98.587629,107.494906, -0.000001,-21.163044,  2.297745
  1.043334,-99.171750,107.983407, -0.000000,-21.254960,  2.667886
  1.504676,-99.749022,108.503171,  0.000000,-21.352317,  3.036778
  1.972500,-100.317209,109.052220,  0.000001,-21.454274,  3.404846
  2.446471,-100.874214,109.628592,  0.000002,-21.560006,  3.772495
  2.926227,-101.418096,110.230369,  0.000002,-21.668726,  4.140149
  3.411380,-101.947056,110.855664,  0.000003,-21.779691,  4.508230
  3.901552,-102.459468,111.502614, -0.000003,-21.892169,  4.877140
  4.396318,-102.953850,112.169413, -0.000002,-22.005488,  5.247312
  4.895276,-103.428884,112.854280, -0.000001,-22.119017,  5.619136
  5.398002,-103.883421,113.555491, -0.000001,-22.232169,  5.993037
  5.904075,-104.316468,114.271360,  0.000000,-22.344437,  6.369396
  6.413067,-104.727201,115.000255,  0.000001,-22.455320,  6.748606
  6.924567,-105.114954,115.740586,  0.000001,-22.564427,  7.131039
  7.438169,-105.479228,116.490823,  0.000002,-22.671377,  7.517077
  7.953464,-105.819676,117.249486,  0.000003,-22.775888,  7.907067
  8.470070,-106.136125,118.015154, -0.000003,-22.877703,  8.301348
  8.987622,-106.428541,118.786453, -0.000002,-22.976664,  8.700248
  9.505757,-106.697049,119.562074, -0.000001,-23.072631,  9.104076
 10.024148,-106.941925,120.340767, -0.000001,-23.165548,  9.513117
 10.542480,-107.163575,121.121339, -0.000000,-23.255418,  9.927658
 11.060469,-107.362565,121.902652,  0.000001,-23.342286, 10.347949
 11.577851,-107.539571,122.683635,  0.000001,-23.426255, 10.774214
 12.094400,-107.695411,123.463277,  0.000002,-23.507481, 11.206687
 12.609901,-107.831020,124.240624,  0.000002,-23.586159, 11.645556
 13.124183,-107.947442,125.014780, -0.000003,-23.662551, 12.090983
 13.637097,-108.045832,125.784917, -0.000002,-23.736926, 12.543133
 14.148535,-108.127441,126.550262, -0.000002,-23.809622, 13.002135
 14.658418,-108.193610,127.310097, -0.000001,-23.880981, 13.468094
 15.166686,-108.245767,128.063773, -0.000000,-23.951397, 13.941095
 15.673331,-108.285413,128.810685,  0.000000,-24.021267, 14.421204
 16.178363,-108.314109,129.550300,  0.000001,-24.091023, 14.908472
 16.681831,-108.333481,130.282123,  0.000002,-24.161103, 15.402912
 17.183809,-108.345197,131.005730, -0.000004,-24.231957, 15.904536
 17.684411,-108.350963,131.720739, -0.000003,-24.304035, 16.413324
 18.183770,-108.352525,132.426821, -0.000002,-24.377798, 16.929243
 18.682055,-108.351634,133.123696, -0.000001,-24.453692, 17.452240
 19.179461,-108.350065,133.811135, -0.000001,-24.532159, 17.982243
 19.676209,-108.349589,134.488951,  0.000000,-24.613627, 18.519159
 20.172537,-108.351968,135.157003,  0.000001,-24.698494, 19.062889
 20.668722,-108.358962,135.815195,  0.000001,-24.787157, 19.613315
 21.165047,-108.372286,136.463460, -0.000004,-24.879984, 20.170305
 21.661817,-108.393639,137.101784, -0.000003,-24.977287, 20.733721
 22.159356,-108.424670,137.730171, -0.000002,-25.079388, 21.303398
 22.658011,-108.466976,138.348672, -0.000002,-25.186536, 21.879172
 23.158127,-108.522108,138.957360, -0.000001,-25.298963, 22.460877
 23.660070,-108.591543,139.556342,  0.000000,-25.416870, 23.048316
 24.164210,-108.676682,140.145746,  0.000001,-25.540392, 23.641316
 24.670919,-108.778858,140.725727, -0.000004,-25.669625, 24.239663
 25.180589,-108.899313,141.296456, -0.000004,-25.804648, 24.843169
 25.693582,-109.039189,141.858127, -0.000003,-25.945470, 25.451616
 26.210296,-109.199547,142.410948, -0.000002,-26.092057, 26.064809
 26.731095,-109.381331,142.955137, -0.000001,-26.244337, 26.682526
 27.256350,-109.585386,143.490930, -0.000000,-26.402193, 27.304570
 27.786423,-109.812437,144.018565,  0.000001,-26.565470, 27.930723
 28.321661,-110.063107,144.538286, -0.000004,-26.733948, 28.560769
 28.862406,-110.337884,145.050346, -0.000003,-26.907399, 29.194499
 29.408977,-110.637146,145.554990, -0.000003,-27.085526, 29.831719
 29.961675,-110.961141,146.052471, -0.000002,-27.268018, 30.472204
 30.520788,-111.309994,146.543034, -0.000001,-27.454523, 31.115769
 31.086580,-111.683705,147.026920,  0.000000,-27.644654, 31.762206
 31.659284,-112.082141,147.504360, -0.000005,-27.837988, 32.411323
 32.239118,-112.505043,147.975574, -0.000004,-28.034088, 33.062923
 32.826277,-112.952027,148.440779, -0.000003,-28.232500, 33.716823
 33.420915,-113.422585,148.900164, -0.000002,-28.432735, 34.372842
 34.023164,-113.916076,149.353916, -0.000001,-28.634295, 35.030789
 34.633132,-114.431744,149.802195,  0.000000,-28.836684, 35.690506
 35.250876,-114.968703,150.245149, -0.000005,-29.039369, 36.351819
 35.876449,-115.525962,150.682901, -0.000004,-29.241845, 37.014551
