SHIH-XIAN-YANG/Robotic-vitual-system/run/exp1/log/tor.txt
# Joint1, Joint2, Joint3, Joint4, Joint5, Joint6
  0.000000,  0.000000,  0.000000,  0.000000,  0.000000,  0.000000
  0.000000,  0.000000,  0.000000,  0.000000,  0.000000,  0.000000
  0.000000,  0.000000,  0.000000,  0.000000,  0.000000,  0.000000
  0.000000,  0.000000,  0.000000,  0.000000,  0.000000,  0.000000
  0.000000,  0.000000,  0.000000,  0.000000,  0.000000,  0.000000
  0.000000,  0.000000,  0.000000,  0.000000,  0.000000,  0.000000
  0.000000,  0.000000,  0.000000,  0.000000,  0.000000,  0.000000
  0.000000,  0.000000,  0.000000,  0.000000,  0.000000,  0.000000
  0.000000,  0.000000,  0.000000,  0.000000,  0.000000,  0.000000
  0.000000,  0.000000,  0.000000,  0.000000,  0.000000,  0.000000
  0.000000,  0.000000,  0.000000,  0.000000,  0.000000,  0.000000
  0.000000,  0.000000,  0.000000,  0.000000,  0.000000,  0.000000
  0.000000,  0.000000,  0.000000,  0.000000,  0.000000,  0.000000
  0.000000,  0.000000,  0.000000,  0.000000,  0.000000,  0.000000
  0.000000,  0.000000,  0.000000,  0.000000,  0.000000,  0.000000
  0.000000,  0.000000,  0.000000,  0.000000,  0.000000,  0.000000
  0.000000,  0.000000,  0.000000,  0.000000,  0.000000,  0.000000
  0.000000,  0.000000,  0.000000,  0.000000,  0.000000,  0.000000
  0.000000,  0.000000,  0.000000,  0.000000,  0.000000,  0.000000
  0.014420,  0.000000,  0.000000,  0.000000,  0.000000,  0.000351
  0.057626,  0.000000,  0.000000,  0.000000,  0.000000,  0.001402
  0.143935,  0.000000,  0.000000,  0.000000,  0.000000,  0.003501
  0.287435,  0.000000,  0.000000,  0.000000,  0.000000,  0.006990
  0.502040,  0.000000,  0.000000,  0.000000,  0.000000,  0.012201
  0.801308,  0.000000,  0.000000,  0.000000,  0.000000,  0.019458
  1.198455,  0.000000, -0.000002,  0.000000,  0.000000,  0.029069
  1.706253,  0.000012, -0.000004,  0.000000,  0.000001,  0.041329
  2.337007,  0.000024, -0.000006,  0.000000,  0.000001,  0.056515
  3.102442,  0.000036, -0.000013,  0.000000,  0.000001,  0.074884
  4.013719,  0.000071, -0.000021,  0.000000,  0.000002,  0.096673
  5.081317,  0.000118, -0.000034,  0.000000,  0.000004,  0.122097
  6.315060,  0.000177, -0.000055,  0.000000,  0.000007,  0.151348
  7.724001,  0.000270, -0.000083,  0.000000,  0.000010,  0.184591
  9.316476,  0.000399, -0.000121,  0.000000,  0.000015,  0.221968
 11.099956,  0.000574, -0.000176,  0.000000,  0.000021,  0.263593
 13.081136,  0.000806, -0.000247,  0.000000,  0.000029,  0.309558
 15.265831,  0.001107, -0.000340,  0.000000,  0.000040,  0.359923
 17.659001,  0.001499, -0.000463,  0.000000,  0.000054,  0.414727
 20.264709,  0.002005, -0.000620,  0.000000,  0.000072,  0.473978
 23.086149,  0.002647, -0.000818,  0.000000,  0.000095,  0.537664
 26.125569,  0.003459, -0.001065,  0.000000,  0.000125,  0.605742
 29.384380,  0.004449, -0.001374,  0.000000,  0.000160,  0.678151
 32.863065,  0.005674, -0.001750,  0.000000,  0.000203,  0.754803
 36.561220,  0.007153, -0.002212,  0.000000,  0.000255,  0.835591
 40.477574,  0.008940, -0.002767,  0.000000,  0.000318,  0.920386
 44.610025,  0.011089, -0.003434,  0.000000,  0.000393,  1.009040
 48.955615,  0.013653, -0.004230,  0.000000,  0.000482,  1.101390
 53.510583,  0.016669, -0.005172,  0.000000,  0.000587,  1.197256
 58.270402,  0.020222, -0.006278,  0.000000,  0.000710,  1.296443
 63.229803,  0.024372, -0.007576,  0.000000,  0.000853,  1.398747
 68.382796,  0.029198, -0.009086,  0.000000,  0.001018,  1.503953
 73.722738,  0.034793, -0.010836,  0.000000,  0.001209,  1.611837
 79.242346,  0.041230, -0.012857,  0.000000,  0.001427,  1.722169
 84.933771,  0.048620, -0.015176,  0.000000,  0.001677,  1.834718
 90.788629,  0.057054, -0.017832,  0.000000,  0.001960,  1.949249
 96.798028,  0.066647, -0.020856,  0.000000,  0.002281,  2.065525
102.952681,  0.077531, -0.024291,  0.000000,  0.002643,  2.183313
109.242895,  0.089824, -0.028179,  0.000000,  0.003049,  2.302385
115.658663,  0.103661, -0.032562,  0.000000,  0.003505,  2.422517
122.189694,  0.119196, -0.037488, -0.000002,  0.004012,  2.543490
128.825482,  0.136566, -0.043012, -0.000002,  0.004578,  2.665097
135.555386,  0.155949, -0.049185, -0.000002,  0.005205,  2.787141
142.368635,  0.177514, -0.056064, -0.000002,  0.005898,  2.909434
149.254421,  0.201424, -0.063710, -0.000002,  0.006663,  3.031803
156.201922,  0.227908, -0.072190, -0.000002,  0.007504,  3.154089
163.200411,  0.257121, -0.081569, -0.000002,  0.008428,  3.276146
170.239254,  0.289308, -0.091921, -0.000002,  0.009438,  3.397847
177.307981,  0.324666, -0.103318, -0.000002,  0.010542,  3.519078
184.396369,  0.363443, -0.115842, -0.000002,  0.011746,  3.639744
191.494423,  0.405872, -0.129573, -0.000002,  0.013054,  3.759767
198.592486,  0.452187, -0.144600, -0.000002,  0.014474,  3.879086
205.681262,  0.502669, -0.161014, -0.000001,  0.016013,  3.997660
212.751842,  0.557583, -0.178908, -0.000001,  0.017675,  4.115461
219.795772,  0.617204, -0.198383, -0.000001,  0.019469,  4.232483
226.805063,  0.681838, -0.219541, -0.000001,  0.021402,  4.348736
233.772241,  0.751762, -0.242491, -0.000001,  0.023481,  4.464244
240.690396,  0.827305, -0.267342, -0.000001,  0.025712,  4.579051
247.553157,  0.908780, -0.294214, -0.000003,  0.028104,  4.693214
254.354771,  0.996513, -0.323222, -0.000003,  0.030664,  4.806806
261.090094,  1.090870, -0.354496, -0.000002,  0.033400,  4.919910
267.754626,  1.192180, -0.388164, -0.000002,  0.036321,  5.032628
274.344509,  1.300812, -0.424358, -0.000002,  0.039433,  5.145067
280.856557,  1.417142, -0.463217, -0.000002,  0.042745,  5.257350
287.288242,  1.541547, -0.504886, -0.000002,  0.046267,  5.369604
293.637709,  1.674412, -0.549510, -0.000001,  0.050005,  5.481969
299.903776,  1.816150, -0.597241, -0.000001,  0.053970,  5.594588
306.085958,  1.967173, -0.648237, -0.000001,  0.058170,  5.707611
312.184387,  2.127883, -0.702658, -0.000001,  0.062614,  5.821192
318.199898,  2.298733, -0.760670, -0.000000,  0.067312,  5.935487
324.133946,  2.480130, -0.822446, -0.000002,  0.072271,  6.050653
329.988602,  2.672556, -0.888157, -0.000002,  0.077503,  6.166850
335.766568,  2.876442, -0.957984, -0.000002,  0.083016,  6.284232
341.471124,  3.092252, -1.032112, -0.000002,  0.088821,  6.402955
347.106112,  3.320472, -1.110731, -0.000001,  0.094928,  6.523170
352.675923,  3.561571, -1.194031, -0.000001,  0.101345,  6.645021
358.185418,  3.816045, -1.282212, -0.000001,  0.108085,  6.768648
363.639986,  4.084385, -1.375478, -0.000001,  0.115157,  6.894186
369.045406,  4.367106, -1.474032, -0.000003,  0.122572,  7.021759
374.407918,  4.664700, -1.578090, -0.000002,  0.130340,  7.151484
379.734070,  4.977706, -1.687868, -0.000002,  0.138473,  7.283469
385.030803,  5.306639, -1.803584, -0.000002,  0.146981,  7.417810
390.305318,  5.652042, -1.925463, -0.000001,  0.155878,  7.554594
395.565081,  6.014444, -2.053738, -0.000001,  0.165171,  7.693898
400.817746,  6.394388, -2.188640, -0.000001,  0.174876,  7.835786
406.071174,  6.792445, -2.330411, -0.000003,  0.185003,  7.980310
411.333332,  7.209165, -2.479289, -0.000002,  0.195565,  8.127511
416.612274,  7.645121, -2.635525, -0.000002,  0.206573,  8.277418
421.916099,  8.100870, -2.799368, -0.000002,  0.218040,  8.430049
427.252910,  8.577005, -2.971075, -0.000001,  0.229979,  8.585408
432.630785,  9.074111, -3.150907, -0.000001,  0.242404,  8.743489
438.057700,  9.592768, -3.339127, -0.000003,  0.255327,  8.904276
443.541514, 10.133582, -3.536007, -0.000002,  0.268762,  9.067740
449.089956, 10.697139, -3.741815, -0.000002,  0.282722,  9.233841
454.710549, 11.284070, -3.956829, -0.000002,  0.297223,  9.402532
460.410554, 11.894971, -4.181332, -0.000001,  0.312277,  9.573756
466.197016, 12.530468, -4.415607, -0.000003,  0.327899,  9.747446
472.076663, 13.191173, -4.659946, -0.000003,  0.344105,  9.923527
478.055901, 13.877737, -4.914641, -0.000002,  0.360908, 10.101920
484.140768, 14.590778, -5.179991, -0.000002,  0.378325, 10.282537
490.336927, 15.330941, -5.456293, -0.000002,  0.396372, 10.465284
496.649660, 16.098883, -5.743858, -0.000003,  0.415063, 10.650065
503.083803, 16.895234, -6.042992, -0.000003,  0.434415, 10.836780
509.643736, 17.720658, -6.354009, -0.000002,  0.454445, 11.025323
516.333394, 18.575823, -6.677228, -0.000002,  0.475169, 11.215591
523.156237, 19.461405, -7.012967, -0.000004,  0.496605, 11.407476
530.115241, 20.378057, -7.361556, -0.000003,  0.518769, 11.600872
537.212852, 21.326469, -7.723322, -0.000003,  0.541678, 11.795673
544.451066, 22.307333, -8.098596, -0.000002,  0.565353, 11.991774
551.831327, 23.321325, -8.487720, -0.000004,  0.589809, 12.189075
559.354611, 24.369152, -8.891031, -0.000004,  0.615066, 12.387476
567.021345, 25.451517, -9.308876, -0.000003,  0.641142, 12.586882
574.831492, 26.569137, -9.741602, -0.000002,  0.668057, 12.787203
582.784500, 27.722712,-10.189565, -0.000004,  0.695830, 12.988355
590.879325, 28.912973,-10.653120, -0.000004,  0.724480, 13.190257
599.114485, 30.140642,-11.132628, -0.000003,  0.754028, 13.392836
607.487982, 31.406471,-11.628454, -0.000002,  0.784494, 13.596027
615.997415, 32.711198,-12.140967, -0.000004,  0.815898, 13.799768
624.639943, 34.055576,-12.670538, -0.000003,  0.848261, 14.004010
633.412301, 35.440350,-13.217544, -0.000003,  0.881604, 14.208706
642.310854, 36.866303,-13.782370, -0.000004,  0.915949, 14.413821
651.331605, 38.334194,-14.365395, -0.000004,  0.951316, 14.619325
660.470202, 39.844814,-14.967011, -0.000003,  0.987730, 14.825197
669.721986, 41.398950,-15.587612, -0.000005,  1.025210, 15.031426
679.082016, 42.997408,-16.227593, -0.000004,  1.063781, 15.238005
688.545101, 44.640985,-16.887354, -0.000003,  1.103465, 15.444937
698.105804, 46.330505,-17.567305, -0.000005,  1.144284, 15.652233
707.758494, 48.066790,-18.267852, -0.000004,  1.186263, 15.859909
717.497371, 49.850674,-18.989411, -0.000003,  1.229425, 16.067991
727.316515, 51.683007,-19.732399, -0.000005,  1.273793, 16.276509
737.209886, 53.564627,-20.497241, -0.000004,  1.319393, 16.485499
747.171365, 55.496417,-21.284360, -0.000003,  1.366248, 16.695005
757.194799, 57.479230,-22.094192, -0.000005,  1.414384, 16.905075
767.274021, 59.513979,-22.927168, -0.000004,  1.463825, 17.115760
777.402879, 61.601522,-23.783734, -0.000003,  1.514596, 17.327118
787.575294, 63.742790,-24.664330, -0.000005,  1.566723, 17.539209
797.785240, 65.938690,-25.569410, -0.000004,  1.620232, 17.752097
808.026797, 68.190147,-26.499424, -0.000005,  1.675149, 17.965846
818.294203, 70.498111,-27.454835, -0.000004,  1.731501, 18.180525
828.581861, 72.863505,-28.436102, -0.000003,  1.789313, 18.396202
838.884323, 75.287320,-29.443699, -0.000005,  1.848612, 18.612946
849.196404, 77.770495,-30.478096, -0.000004,  1.909427, 18.830828
859.513131, 80.314043,-31.539770, -0.000005,  1.971783, 19.049914
869.829789, 82.918944,-32.629206, -0.000004,  2.035710, 19.270274
880.141942, 85.586199,-33.746892, -0.000006,  2.101234, 19.491973
890.445438, 88.316842,-34.893322, -0.000005,  2.168385, 19.715074
900.736477, 91.111892,-36.068991, -0.000006,  2.237189, 19.939640
911.011527, 93.972393,-37.274405, -0.000005,  2.307677, 20.165727
921.267459, 96.899403,-38.510072, -0.000004,  2.379878, 20.393391
931.501450, 99.893991,-39.776507, -0.000005,  2.453820, 20.622681
941.682248,102.955194,-41.073602, -0.000004,  2.529457, 20.852943
951.779032,106.081926,-42.401216, -0.000005,  2.606741, 21.083520
961.761563,109.272938,-43.759155, -0.000004,  2.685614, 21.313755
971.600294,112.526838,-45.147188, -0.000005,  2.766015, 21.542999
981.266580,115.842116,-46.565040, -0.000004,  2.847881, 21.770611
990.732694,119.217121,-48.012397, -0.000005,  2.931143, 21.995970
999.972095,122.650089,-49.488901, -0.000004,  3.015727, 22.218474
1008.959420,126.139119,-50.994158, -0.000005,  3.101561, 22.437547
1017.670701,129.682199,-52.527731, -0.000004,  3.188566, 22.652641
1026.083385,133.277209,-54.089149, -0.000005,  3.276667, 22.863242
1034.176490,136.921940,-55.677903, -0.000007,  3.365783, 23.068873
1041.930643,140.614080,-57.293452, -0.000005,  3.455836, 23.269097
1049.328204,144.351221,-58.935218, -0.000006,  3.546746, 23.463516
1056.353285,148.130886,-60.602594, -0.000005,  3.638436, 23.651779
1062.991844,151.950534,-62.294937, -0.000006,  3.730829, 23.833583
1069.231721,155.807542,-64.011582, -0.000005,  3.823849, 24.008667
1075.062672,159.699242,-65.751831, -0.000006,  3.917425, 24.176825
1080.476386,163.622928,-67.514961, -0.000005,  4.011487, 24.337895
1085.466514,167.575827,-69.300229, -0.000006,  4.105968, 24.491767
1090.028676,171.555159,-71.106865, -0.000007,  4.200806, 24.638380
1094.160466,175.558136,-72.934084, -0.000005,  4.295942, 24.777722
1097.861419,179.581936,-74.781077, -0.000006,  4.391322, 24.909827
1101.133000,183.623729,-76.647021, -0.000005,  4.486897, 25.034776
1103.978553,187.680696,-78.531078, -0.000006,  4.582621, 25.152694
1106.403294,191.750056,-80.432395, -0.000007,  4.678455, 25.263749
1108.414238,195.829012,-82.350115, -0.000005,  4.774365, 25.368150
1110.020124,199.914813,-84.283367, -0.000006,  4.870322, 25.466141
1111.231390,204.004754,-86.231269, -0.000007,  4.966303, 25.558003
1112.060069,208.096178,-88.192940, -0.000005,  5.062288, 25.644048
1112.519711,212.186461,-90.167494, -0.000006,  5.158266, 25.724617
1112.625303,216.273049,-92.154045, -0.000005,  5.254227, 25.800073
1112.393156,220.353482,-94.151704, -0.000006,  5.350171, 25.870805
1111.840834,224.425333,-96.159588, -0.000006,  5.446100, 25.937216
1110.987021,228.486273,-98.176813, -0.000005,  5.542021, 25.999727
1109.851438,232.534092,-100.202507, -0.000006,  5.637945, 26.058765
1108.454693,236.566615,-102.235802, -0.000006,  5.733890, 26.114767
1106.818201,240.581812,-104.275837, -0.000005,  5.829874, 26.168173
1104.964066,244.577745,-106.321767, -0.000006,  5.925922, 26.219421
1102.914922,248.552556,-108.372757, -0.000006,  6.022061, 26.268946
1100.693851,252.504539,-110.427982, -0.000005,  6.118320, 26.317175
1098.324244,256.432075,-112.486639, -0.000005,  6.214731, 26.364525
1095.829646,260.333688,-114.547935, -0.000006,  6.311328, 26.411397
1093.233739,264.207986,-116.611101, -0.000007,  6.408148, 26.458177
1090.560070,268.053727,-118.675379, -0.000005,  6.505227, 26.505232
1087.832072,271.869795,-120.740036, -0.000006,  6.602601, 26.552906
1085.072863,275.655174,-122.804363, -0.000006,  6.700310, 26.601518
1082.305163,279.409015,-124.867667, -0.000005,  6.798390, 26.651361
1079.551175,283.130533,-126.929279, -0.000005,  6.896878, 26.702699
1076.832475,286.819141,-128.988559, -0.000006,  6.995811, 26.755770
1074.169955,290.474320,-131.044886, -0.000006,  7.095221, 26.810775
1071.583653,294.095688,-133.097661, -0.000005,  7.195143, 26.867888
1069.092702,297.683000,-135.146322, -0.000005,  7.295605, 26.927249
1066.715277,301.236105,-137.190320, -0.000006,  7.396635, 26.988963
1064.468446,304.754999,-139.229142, -0.000006,  7.498259, 27.053106
1062.368144,308.239752,-141.262297, -0.000005,  7.600497, 27.119716
1060.429097,311.690572,-143.289320, -0.000005,  7.703366, 27.188803
1058.664783,315.107769,-145.309777, -0.000006,  7.806883, 27.260343
1057.087313,318.491726,-147.323259, -0.000006,  7.911055, 27.334279
1055.707466,321.842962,-149.329380, -0.000005,  8.015891, 27.410529
1054.534630,325.162058,-151.327788, -0.000005,  8.121391, 27.488978
1053.576727,328.449678,-153.318152, -0.000006,  8.227553, 27.569486
1052.840258,331.706598,-155.300168, -0.000006,  8.334370, 27.651888
1052.330232,334.933624,-157.273561, -0.000004,  8.441831, 27.735995
1052.050219,338.131652,-159.238076, -0.000005,  8.549922, 27.821598
1052.002278,341.301642,-161.193490, -0.000005,  8.658621, 27.908466
1052.187025,344.444604,-163.139597, -0.000006,  8.767904, 27.996354
1052.603629,347.561587,-165.076220, -0.000006,  8.877745, 28.085001
1053.249839,350.653680,-167.003199, -0.000004,  8.988110, 28.174136
1054.121997,353.722023,-168.920407, -0.000005,  9.098962, 28.263476
1055.215093,356.767761,-170.827723, -0.000005,  9.210263, 28.352731
1056.522799,359.792081,-172.725059, -0.000006,  9.321970, 28.441609
1058.037530,362.796147,-174.612340, -0.000006,  9.434036, 28.529813
1059.750482,365.781170,-176.489512, -0.000004,  9.546412, 28.617048
1061.651698,368.748325,-178.356538, -0.000005,  9.659049, 28.703021
1063.730154,371.698785,-180.213398, -0.000005,  9.771890, 28.787445
1065.973781,374.633727,-182.060084, -0.000006,  9.884881, 28.870038
1068.369599,377.554275,-183.896607, -0.000006,  9.997966, 28.950530
1070.903734,380.461549,-185.722986, -0.000004, 10.111085, 29.028661
1073.561574,383.356617,-187.539255, -0.000005, 10.224180, 29.104184
1076.327752,386.240494,-189.345458, -0.000005, 10.337190, 29.176868
1079.186359,389.114174,-191.141649, -0.000005, 10.450058, 29.246496
1082.120894,391.978585,-192.927889, -0.000006, 10.562722, 29.312872
1085.114490,394.834601,-194.704243, -0.000006, 10.675124, 29.375815
1088.149884,397.683000,-196.470789, -0.000007, 10.787207, 29.435169
1091.209603,400.524518,-198.227603, -0.000005, 10.898912, 29.490795
1094.276000,403.359815,-199.974770, -0.000005, 11.010185, 29.542576
1097.331374,406.189466,-201.712367, -0.000006, 11.120971, 29.590419
1100.358043,409.013975,-203.440484, -0.000006, 11.231221, 29.634250
1103.338443,411.833719,-205.159202, -0.000006, 11.340885, 29.674021
1106.255212,414.649035,-206.868605, -0.000007, 11.449914, 29.709703
1109.091281,417.460145,-208.568772, -0.000005, 11.558267, 29.741292
1111.829939,420.267163,-210.259780, -0.000005, 11.665902, 29.768801
1114.454941,423.070121,-211.941697, -0.000005, 11.772780, 29.792270
1116.950582,425.868970,-213.614590, -0.000006, 11.878867, 29.811754
1119.301722,428.663504,-215.278515, -0.000006, 11.984132, 29.827330
1121.493928,431.453482,-216.933524, -0.000006, 12.088547, 29.839092
1123.513489,434.238532,-218.579656, -0.000007, 12.192086, 29.847151
1125.347486,437.018151,-220.216942, -0.000007, 12.294728, 29.851636
1126.983853,439.791795,-221.845403, -0.000005, 12.396456, 29.852687
1128.411433,442.558764,-223.465047, -0.000005, 12.497254, 29.850459
1129.620002,445.318310,-225.075870, -0.000005, 12.597112, 29.845118
1130.600345,448.069546,-226.677855, -0.000006, 12.696019, 29.836841
1131.344250,450.811517,-228.270972, -0.000006, 12.793973, 29.825811
1131.844554,453.543149,-229.855176, -0.000006, 12.890970, 29.812220
1132.095198,456.263303,-231.430409, -0.000007, 12.987010, 29.796262
1132.091172,458.970745,-232.996593, -0.000007, 13.082097, 29.778137
1131.828588,461.664156,-234.553639, -0.000007, 13.176236, 29.758044
1131.304685,464.342144,-236.101441, -0.000005, 13.269434, 29.736185
1130.517779,467.003217,-237.639872, -0.000005, 13.361700, 29.712758
1129.467308,469.645855,-239.168797, -0.000005, 13.453046, 29.687958
1128.153808,472.268427,-240.688052, -0.000006, 13.543483, 29.661976
1126.578859,474.869268,-242.197468, -0.000006, 13.633025, 29.634996
1124.745147,477.446651,-243.696853, -0.000006, 13.721686, 29.607196
1122.656345,479.998804,-245.185998, -0.000006, 13.809482, 29.578744
1120.317147,482.523880,-246.664673, -0.000007, 13.896426, 29.549798
1117.733201,485.020022,-248.132640, -0.000007, 13.982535, 29.520506
1114.911066,487.485333,-249.589636, -0.000007, 14.067824, 29.491004
1111.858189,489.917885,-251.035385, -0.000005, 14.152307, 29.461414
1108.582861,492.315723,-252.469593, -0.000005, 14.235997, 29.431847
1105.094125,494.676884,-253.891952, -0.000005, 14.318909, 29.402398
1101.401744,496.999392,-255.302135, -0.000005, 14.401053, 29.373149
1097.516171,499.281251,-256.699801, -0.000005, 14.482440, 29.344167
1093.448433,501.520500,-258.084595, -0.000006, 14.563078, 29.315504
1089.210110,503.715160,-259.456145, -0.000006, 14.642976, 29.287197
1084.813265,505.863252,-260.814067, -0.000006, 14.722136, 29.259268
1080.270357,507.962874,-262.157961, -0.000006, 14.800563, 29.231726
1075.594193,510.012089,-263.487418, -0.000006, 14.878258, 29.204562
1070.797852,512.009026,-264.802014, -0.000006, 14.955218, 29.177757
1065.894610,513.951823,-266.101314, -0.000007, 15.031440, 29.151277
1060.897885,515.838710,-267.384876, -0.000004, 15.106917, 29.125073
1055.821171,517.667903,-268.652238, -0.000005, 15.181641, 29.099088
1050.677927,519.437715,-269.902941, -0.000005, 15.255601, 29.073249
1045.481572,521.146507,-271.136510, -0.000005, 15.328782, 29.047477
1040.245386,522.792685,-272.352462, -0.000005, 15.401168, 29.021680
1034.982439,524.374736,-273.550311, -0.000005, 15.472740, 28.995759
1029.705541,525.891213,-274.729566, -0.000005, 15.543478, 28.969606
1024.427184,527.340745,-275.889724, -0.000005, 15.613358, 28.943108
1019.159459,528.722047,-277.030282, -0.000006, 15.682355, 28.916145
1013.914067,530.033902,-278.150739, -0.000006, 15.750441, 28.888595
1008.702152,531.275176,-279.250584, -0.000006, 15.817586, 28.860330
1003.534368,532.444819,-280.329303, -0.000006, 15.883761, 28.831221
998.420773,533.541893,-281.386391, -0.000006, 15.948931, 28.801138
993.370775,534.565522,-282.421337, -0.000004, 16.013063, 28.769952
988.393161,535.514921,-283.433628, -0.000004, 16.076123, 28.737534
983.495974,536.389432,-284.422760, -0.000004, 16.138073, 28.703758
978.686531,537.188450,-285.388228, -0.000004, 16.198876, 28.668500
973.971416,537.911490,-286.329529, -0.000005, 16.258496, 28.631640
969.356406,538.558141,-287.246174, -0.000005, 16.316893, 28.593067
964.846500,539.128109,-288.137667, -0.000005, 16.374030, 28.552670
960.445857,539.621167,-289.003526, -0.000005, 16.429868, 28.510349
956.171713,540.043027,-289.845042, -0.000005, 16.484582, 28.466348
952.040419,540.399599,-290.663563, -0.000005, 16.538349, 28.420916
948.067376,540.697011,-291.460471, -0.000005, 16.591352, 28.374310
944.266967,540.941560,-292.237201, -0.000006, 16.643776, 28.326787
940.652487,541.139727,-292.995214, -0.000006, 16.695807, 28.278608
937.236103,541.298070,-293.736008, -0.000004, 16.747630, 28.230029
934.028828,541.423276,-294.461104, -0.000004, 16.799428, 28.181306
931.040421,541.522096,-295.172045, -0.000004, 16.851380, 28.132687
928.279403,541.601330,-295.870388, -0.000004, 16.903662, 28.084414
925.753044,541.667799,-296.557707, -0.000004, 16.956440, 28.036720
923.467275,541.728297,-297.235576, -0.000005, 17.009875, 27.989828
921.426743,541.789608,-297.905572, -0.000005, 17.064118, 27.943945
919.634742,541.858423,-298.569272, -0.000005, 17.119310, 27.899270
918.093292,541.941385,-299.228239, -0.000005, 17.175580, 27.855982
916.803083,542.044993,-299.884033, -0.000005, 17.233046, 27.814247
915.763481,542.175610,-300.538185, -0.000005, 17.291815, 27.774212
914.972612,542.339442,-301.192213, -0.000006, 17.351976, 27.736009
914.427325,542.542537,-301.847607, -0.000006, 17.413608, 27.699747
914.123274,542.790680,-302.505826, -0.000004, 17.476773, 27.665520
914.054896,543.089480,-303.168292, -0.000004, 17.541520, 27.633401
914.215513,543.444250,-303.836397, -0.000004, 17.607881, 27.603443
914.597347,543.860089,-304.511483, -0.000004, 17.675874, 27.575681
915.191592,544.341763,-305.194857, -0.000005, 17.745504, 27.550129
915.988442,544.893753,-305.887763, -0.000005, 17.816757, 27.526783
916.977210,545.520213,-306.591409, -0.000005, 17.889607, 27.505621
918.146311,546.224989,-307.306939, -0.000005, 17.964014, 27.486602
919.483414,547.011554,-308.035443, -0.000005, 18.039924, 27.469667
920.975480,547.883024,-308.777950, -0.000006, 18.117270, 27.454743
922.608789,548.842178,-309.535427, -0.000006, 18.195972, 27.441740
924.369136,549.891402,-310.308779, -0.000006, 18.275941, 27.430554
926.241769,551.032677,-311.098845, -0.000004, 18.357076, 27.421068
928.211575,552.267638,-311.906392, -0.000004, 18.439265, 27.413152
930.263138,553.597512,-312.732119, -0.000004, 18.522390, 27.406666
932.380773,555.023123,-313.576661, -0.000005, 18.606325, 27.401463
934.548670,556.544929,-314.440577, -0.000005, 18.690938, 27.397385
936.750939,558.162967,-315.324351, -0.000005, 18.776090, 27.394268
938.971713,559.876909,-316.228397, -0.000005, 18.861641, 27.391945
941.195185,561.686023,-317.153062, -0.000005, 18.947448, 27.390243
943.405766,563.589215,-318.098610, -0.000006, 19.033364, 27.388991
945.588078,565.584993,-319.065241, -0.000006, 19.119245, 27.388011
947.727068,567.671533,-320.053074, -0.000006, 19.204947, 27.387132
949.808114,569.846622,-321.062165, -0.000006, 19.290326, 27.386183
951.817010,572.107743,-322.092494, -0.000004, 19.375245, 27.384996
953.740089,574.452003,-323.143970, -0.000004, 19.459569, 27.383407
955.564304,576.876233,-324.216438, -0.000005, 19.543168, 27.381261
957.277230,579.376951,-325.309672, -0.000005, 19.625922, 27.378407
958.867151,581.950345,-326.423377, -0.000005, 19.707714, 27.374705
960.323104,584.592405,-327.557201, -0.000005, 19.788439, 27.370022
961.634925,587.298817,-328.710726, -0.000005, 19.867996, 27.364236
962.793306,590.065045,-329.883474, -0.000006, 19.946300, 27.357236
963.789793,592.886344,-331.074905, -0.000006, 20.023271, 27.348921
964.616853,595.757776,-332.284433, -0.000006, 20.098842, 27.339205
965.267898,598.674223,-333.511412, -0.000006, 20.172958, 27.328010
965.737266,601.630417,-334.755144, -0.000004, 20.245573, 27.315276
966.020289,604.620952,-336.014888, -0.000004, 20.316654, 27.300951
966.113271,607.640339,-337.289855, -0.000005, 20.386179, 27.284999
966.013533,610.682983,-338.579216, -0.000005, 20.454140, 27.267397
965.719348,613.743219,-339.882103, -0.000005, 20.520537, 27.248134
965.230003,616.815340,-341.197612, -0.000005, 20.585384, 27.227213
964.545736,619.893663,-342.524806, -0.000005, 20.648705, 27.204647
963.667775,622.972441,-343.862718, -0.000006, 20.710535, 27.180464
962.598282,626.046013,-345.210354, -0.000006, 20.770921, 27.154702
961.340328,629.108737,-346.566702, -0.000006, 20.829917, 27.127410
959.897891,632.155033,-347.930723, -0.000006, 20.887589, 27.098648
958.275824,635.179449,-349.301372, -0.000004, 20.944008, 27.068486
956.479761,638.176603,-350.677583, -0.000004, 20.999256, 27.037001
954.516184,641.141284,-352.058283, -0.000004, 21.053421, 27.004281
952.392258,644.068400,-353.442393, -0.000005, 21.106598, 26.970417
950.115899,646.953047,-354.828832, -0.000005, 21.158884, 26.935510
947.695635,649.790511,-356.216521, -0.000005, 21.210386, 26.899666
945.140619,652.576287,-357.604379, -0.000005, 21.261209, 26.862993
942.460535,655.306075,-358.991341, -0.000005, 21.311465, 26.825603
939.665546,657.975825,-360.376342, -0.000006, 21.361263, 26.787613
936.766255,660.581753,-361.758339, -0.000006, 21.410717, 26.749138
933.773641,663.120310,-363.136299, -0.000004, 21.459938, 26.710296
930.698992,665.588237,-364.509210, -0.000004, 21.509038, 26.671202
927.553823,667.982566,-365.876082, -0.000004, 21.558125, 26.631971
924.349863,670.300642,-367.235950, -0.000004, 21.607304, 26.592717
921.098968,672.540070,-368.587875, -0.000005, 21.656678, 26.553547
917.813036,674.698819,-369.930947, -0.000005, 21.706343, 26.514568
914.503991,676.775145,-371.264291, -0.000005, 21.756392, 26.475879
911.183694,678.767639,-372.587058, -0.000005, 21.806912, 26.437576
907.863876,680.675201,-373.898443, -0.000005, 21.857980, 26.399748
904.556107,682.497096,-375.197678, -0.000006, 21.909669, 26.362476
901.271718,684.232885,-376.484031, -0.000004, 21.962044, 26.325835
898.021778,685.882461,-377.756812, -0.000004, 22.015161, 26.289893
894.816997,687.446048,-379.015378, -0.000004, 22.069069, 26.254709
891.667702,688.924216,-380.259126, -0.000004, 22.123805, 26.220333
888.583771,690.317811,-381.487500, -0.000005, 22.179400, 26.186808
885.574644,691.628033,-382.699990, -0.000005, 22.235876, 26.154167
882.649203,692.856351,-383.896134, -0.000005, 22.293244, 26.122435
879.815800,694.004561,-385.075517, -0.000005, 22.351508, 26.091627
877.082157,695.074740,-386.237777, -0.000005, 22.410661, 26.061752
874.455409,696.069234,-387.382595, -0.000006, 22.470688, 26.032807
871.942015,696.990670,-388.509705, -0.000004, 22.531567, 26.004783
869.547759,697.841912,-389.618890, -0.000004, 22.593266, 25.977662
867.277738,698.626102,-390.709982, -0.000004, 22.655743, 25.951418
865.136339,699.346556,-391.782865, -0.000004, 22.718955, 25.926018
863.127185,700.006866,-392.837467, -0.000005, 22.782846, 25.901423
861.253212,700.610776,-393.873769, -0.000005, 22.847356, 25.877585
859.516579,701.162228,-394.891800, -0.000005, 22.912418, 25.854451
857.918704,701.665330,-395.891632, -0.000005, 22.977963, 25.831965
856.460301,702.124343,-396.873390, -0.000006, 23.043914, 25.810062
855.141290,702.543636,-397.837238, -0.000004, 23.110192, 25.788677
853.960915,702.927717,-398.783389, -0.000004, 23.176712, 25.767738
852.917675,703.281178,-399.712095, -0.000004, 23.243393, 25.747172
852.009409,703.608691,-400.623654, -0.000004, 23.310145, 25.726903
851.233236,703.914959,-401.518400, -0.000005, 23.376881, 25.706854
850.585669,704.204751,-402.396711, -0.000005, 23.443514, 25.686945
850.062565,704.482846,-403.258997, -0.000005, 23.509956, 25.667099
849.659181,704.754012,-404.105706, -0.000006, 23.576121, 25.647238
849.370236,705.023024,-404.937318, -0.000006, 23.641925, 25.627283
849.189883,705.294598,-405.754348, -0.000004, 23.707285, 25.607159
849.111817,705.573385,-406.557335, -0.000004, 23.772125, 25.586792
849.129242,705.863976,-407.346851, -0.000004, 23.836369, 25.566111
849.234957,706.170874,-408.123488, -0.000005, 23.899947, 25.545050
849.421414,706.498487,-408.887867, -0.000005, 23.962794, 25.523541
849.680685,706.851042,-409.640627, -0.000005, 24.024849, 25.501528
850.004580,707.232699,-410.382428, -0.000005, 24.086060, 25.478953
850.384670,707.647403,-411.113944, -0.000006, 24.146376, 25.455767
850.812328,708.098971,-411.835863, -0.000006, 24.205759, 25.431923
851.278769,708.590997,-412.548889, -0.000004, 24.264171, 25.407381
851.775101,709.126910,-413.253734, -0.000004, 24.321585, 25.382107
852.292392,709.709905,-413.951119, -0.000004, 24.377980, 25.356073
852.821673,710.342983,-414.641765, -0.000005, 24.433343, 25.329254
853.354034,711.028896,-415.326404, -0.000005, 24.487666, 25.301635
853.880622,711.770168,-416.005761, -0.000005, 24.540950, 25.273204
854.392718,712.569056,-416.680566, -0.000006, 24.593200, 25.243955
854.881769,713.427575,-417.351542, -0.000006, 24.644432, 25.213890
855.339419,714.347493,-418.019409, -0.000006, 24.694666, 25.183013
855.757554,715.330281,-418.684873, -0.000004, 24.743928, 25.151338
856.128361,716.377163,-419.348638, -0.000004, 24.792252, 25.118881
856.444321,717.489094,-420.011394, -0.000005, 24.839674, 25.085664
856.698293,718.666734,-420.673811, -0.000005, 24.886240, 25.051712
856.883511,719.910481,-421.336554, -0.000005, 24.931996, 25.017057
856.993599,721.220446,-422.000262, -0.000005, 24.976996, 24.981735
857.022670,722.596485,-422.665560, -0.000006, 25.021297, 24.945783
856.965245,724.038170,-423.333049, -0.000006, 25.064956, 24.909243
856.816379,725.544810,-424.003309, -0.000004, 25.108038, 24.872161
856.571597,727.115440,-424.676898, -0.000004, 25.150607, 24.834583
856.226971,728.748864,-425.354347, -0.000004, 25.192728, 24.796558
855.779086,730.443614,-426.036158, -0.000005, 25.234470, 24.758137
855.225095,732.197971,-426.722813, -0.000005, 25.275900, 24.719371
854.562679,734.010015,-427.414758, -0.000005, 25.317085, 24.680314
853.790081,735.877559,-428.112415, -0.000005, 25.358093, 24.641017
852.906112,737.798225,-428.816170, -0.000006, 25.398990, 24.601533
851.910141,739.769432,-429.526385, -0.000004, 25.439839, 24.561914
850.802071,741.788409,-430.243381, -0.000004, 25.480703, 24.522211
849.582361,743.852170,-430.967454, -0.000004, 25.521640, 24.482472
848.252010,745.957600,-431.698865, -0.000005, 25.562707, 24.442746
846.812542,748.101419,-432.437838, -0.000005, 25.603956, 24.403076
845.265994,750.280208,-433.184571, -0.000005, 25.645436, 24.363508
843.614874,752.490402,-433.939224, -0.000005, 25.687191, 24.324081
841.862199,754.728350,-434.701922, -0.000003, 25.729259, 24.284831
840.011421,756.990281,-435.472755, -0.000004, 25.771677, 24.245792
838.066406,759.272372,-436.251790, -0.000004, 25.814474, 24.206996
836.031443,761.570725,-437.039045, -0.000004, 25.857673, 24.168469
833.911207,763.881368,-437.834518, -0.000004, 25.901295, 24.130234
831.710703,766.200324,-438.638170, -0.000005, 25.945352, 24.092311
829.435255,768.523587,-439.449928, -0.000005, 25.989852, 24.054713
827.090490,770.847153,-440.269691, -0.000005, 26.034798, 24.017454
824.682277,773.167031,-441.097326, -0.000003, 26.080188, 23.980540
822.216714,775.479253,-441.932671, -0.000004, 26.126012, 23.943974
819.700086,777.779906,-442.775537, -0.000004, 26.172258, 23.907756
817.138835,780.065118,-443.625701, -0.000004, 26.218906, 23.871882
814.539526,782.331128,-444.482919, -0.000005, 26.265933, 23.836344
811.908799,784.574228,-445.346921, -0.000005, 26.313313, 23.801131
809.253344,786.790831,-446.217406, -0.000005, 26.361012, 23.766227
806.579894,788.977451,-447.094058, -0.000003, 26.408996, 23.731615
803.895119,791.130737,-447.976536, -0.000004, 26.457224, 23.697273
801.205672,793.247490,-448.864475, -0.000004, 26.505654, 23.663179
798.518113,795.324666,-449.757492, -0.000004, 26.554241, 23.629306
795.838875,797.359353,-450.655191, -0.000005, 26.602936, 23.595625
793.174254,799.348834,-451.557151, -0.000005, 26.651690, 23.562107
790.530373,801.290593,-452.462941, -0.000005, 26.700452, 23.528719
787.913125,803.182282,-453.372117, -0.000003, 26.749168, 23.495429
785.328193,805.021742,-454.284219, -0.000004, 26.797788, 23.462201
782.780993,806.807047,-455.198780, -0.000004, 26.846257, 23.429002
780.276657,808.536473,-456.115323, -0.000004, 26.894523, 23.395796
777.819990,810.208505,-457.033361, -0.000005, 26.942533, 23.362546
775.415520,811.821874,-457.952404, -0.000005, 26.990236, 23.329219
773.067383,813.375505,-458.871955, -0.000005, 27.037583, 23.295778
770.779368,814.868576,-459.791517, -0.000004, 27.084526, 23.262188
768.554900,816.300496,-460.710593, -0.000004, 27.131020, 23.228418
766.396996,817.670871,-461.628679, -0.000004, 27.177022, 23.194434
764.308285,818.979576,-462.545279, -0.000005, 27.222492, 23.160206
762.291005,820.226704,-463.459896, -0.000005, 27.267394, 23.125704
760.346944,821.412554,-464.372044, -0.000005, 27.311693, 23.090902
758.477500,822.537687,-465.281236, -0.000003, 27.355362, 23.055773
756.683644,823.602863,-466.186994, -0.000004, 27.398373, 23.020296
754.965927,824.609047,-467.088853, -0.000004, 27.440707, 22.984448
753.324488,825.557442,-467.986352, -0.000005, 27.482344, 22.948212
751.759058,826.449432,-468.879044, -0.000005, 27.523272, 22.911572
750.268950,827.286613,-469.766496, -0.000005, 27.563482, 22.874514
748.853111,828.070763,-470.648282, -0.000006, 27.602969, 22.837028
747.510053,828.803852,-471.524003, -0.000004, 27.641733, 22.799106
746.237968,829.488016,-472.393260, -0.000004, 27.679777, 22.760743
745.034651,830.125552,-473.255684, -0.000004, 27.717109, 22.721935
743.897572,830.718904,-474.110917, -0.000005, 27.753741, 22.682683
742.823885,831.270670,-474.958617, -0.000005, 27.789688, 22.642989
741.810405,831.783592,-475.798465, -0.000006, 27.824970, 22.602859
740.853671,832.260487,-476.630165, -0.000004, 27.859610, 22.562299
739.949985,832.704340,-477.453434, -0.000004, 27.893634, 22.521320
739.095367,833.118173,-478.268015, -0.000004, 27.927069, 22.479932
738.285632,833.505117,-479.073671, -0.000005, 27.959948, 22.438150
737.516399,833.868397,-479.870184, -0.000005, 27.992304, 22.395988
736.783118,834.211238,-480.657364, -0.000005, 28.024175, 22.353466
736.081068,834.536957,-481.435040, -0.000004, 28.055595, 22.310600
735.405446,834.848891,-482.203064, -0.000004, 28.086605, 22.267410
734.751331,835.150372,-482.961310, -0.000004, 28.117245, 22.223920
734.113721,835.444759,-483.709677, -0.000005, 28.147555, 22.180148
733.487586,835.735383,-484.448086, -0.000005, 28.177576, 22.136120
732.867882,836.025576,-485.176480, -0.000005, 28.207349, 22.091857
732.249572,836.318612,-485.894826, -0.000004, 28.236915, 22.047383
731.627645,836.617718,-486.603113, -0.000004, 28.266313, 22.002723
730.997150,836.926087,-487.301352, -0.000004, 28.295583, 21.957899
730.353220,837.246807,-487.989577, -0.000005, 28.324762, 21.912935
729.691098,837.582904,-488.667839, -0.000005, 28.353886, 21.867853
729.006168,837.937300,-489.336217, -0.000005, 28.382990, 21.822676
728.293919,838.312802,-489.994807, -0.000004, 28.412104, 21.777425
727.550063,838.712110,-490.643722, -0.000004, 28.441259, 21.732120
726.770491,839.137816,-491.283100, -0.000004, 28.470482, 21.686781
725.951270,839.592340,-491.913097, -0.000005, 28.499797, 21.641426
725.088743,840.077970,-492.533879, -0.000005, 28.529226, 21.596072
724.179461,840.596870,-493.145638, -0.000003, 28.558787, 21.550734
723.220234,841.150997,-493.748582, -0.000004, 28.588495, 21.505425
722.208154,841.742191,-494.342929, -0.000004, 28.618362, 21.460158
721.140583,842.372076,-494.928914, -0.000004, 28.648395, 21.414943
720.015188,843.042134,-495.506790, -0.000005, 28.678603, 21.369788
718.829910,843.753643,-496.076816, -0.000005, 28.708985, 21.324702
717.583011,844.507698,-496.639267, -0.000003, 28.739541, 21.279688
716.273061,845.305218,-497.194428, -0.000004, 28.770266, 21.234751
714.898936,846.146921,-497.742595, -0.000004, 28.801152, 21.189891
713.459838,847.033335,-498.284070, -0.000005, 28.832189, 21.145108
711.955262,847.964796,-498.819166, -0.000005, 28.863362, 21.100401
710.385052,848.941448,-499.348199, -0.000003, 28.894656, 21.055766
708.749304,849.963222,-499.871496, -0.000004, 28.926052, 21.011198
707.048483,851.029906,-500.389382, -0.000004, 28.957528, 20.966689
705.283315,852.141043,-500.902193, -0.000004, 28.989061, 20.922233
703.454808,853.296037,-501.410261, -0.000005, 29.020625, 20.877819
701.564291,854.494080,-501.913922, -0.000003, 29.052194, 20.833437
699.613331,855.734210,-502.413513, -0.000003, 29.083737, 20.789075
697.603754,857.015270,-502.909371, -0.000004, 29.115226, 20.744720
695.537663,858.335963,-503.401832, -0.000004, 29.146630, 20.700359
693.417383,859.694797,-503.891224, -0.000005, 29.177916, 20.655976
691.245424,861.090152,-504.377879, -0.000003, 29.209054, 20.611557
689.024562,862.520265,-504.862119, -0.000003, 29.240011, 20.567087
686.757700,863.983221,-505.344263, -0.000004, 29.270755, 20.522549
684.447939,865.476982,-505.824622, -0.000004, 29.301255, 20.477928
682.098531,866.999375,-506.303505, -0.000005, 29.331480, 20.433206
679.712852,868.548156,-506.781208, -0.000003, 29.361400, 20.388369
677.294419,870.120918,-507.258016, -0.000003, 29.390985, 20.343400
674.846798,871.715227,-507.734210, -0.000004, 29.420209, 20.298284
672.373669,873.328532,-508.210059, -0.000004, 29.449045, 20.253004
669.878756,874.958211,-508.685824, -0.000005, 29.477469, 20.207548
667.365811,876.601587,-509.161744, -0.000003, 29.505458, 20.161900
664.838630,878.255933,-509.638060, -0.000004, 29.532993, 20.116047
662.300960,879.918486,-510.114990, -0.000004, 29.560054, 20.069976
659.756563,881.586470,-510.592743, -0.000005, 29.586627, 20.023677
657.209153,883.257069,-511.071512, -0.000005, 29.612698, 19.977139
654.662397,884.927467,-511.551482, -0.000003, 29.638256, 19.930351
652.119856,886.594864,-512.032816, -0.000004, 29.663294, 19.883306
649.585019,888.256481,-512.515664, -0.000004, 29.687803, 19.835995
647.061258,889.909545,-513.000166, -0.000005, 29.711783, 19.788414
644.551821,891.551345,-513.486442, -0.000005, 29.735233, 19.740557
642.059829,893.179222,-513.974598, -0.000003, 29.758153, 19.692419
639.588215,894.790530,-514.464725, -0.000004, 29.780549, 19.643999
637.139795,896.382764,-514.956896, -0.000004, 29.802428, 19.595295
634.717148,897.953429,-515.451173, -0.000005, 29.823799, 19.546307
632.322700,899.500163,-515.947600, -0.000003, 29.844672, 19.497036
629.958679,901.020695,-516.446202, -0.000004, 29.865062, 19.447484
627.627072,902.512819,-516.946994, -0.000004, 29.884984, 19.397653
625.329698,903.974495,-517.449974, -0.000005, 29.904456, 19.347549
623.068108,905.403778,-517.955126, -0.000005, 29.923495, 19.297176
620.843640,906.798837,-518.462416, -0.000003, 29.942123, 19.246540
618.657427,908.158003,-518.971801, -0.000004, 29.960361, 19.195648
616.510321,909.479707,-519.483215, -0.000004, 29.978231, 19.144508
614.402976,910.762562,-519.996590, -0.000005, 29.995758, 19.093127
612.335789,912.005296,-520.511833, -0.000003, 30.012963, 19.041515
610.308937,913.206824,-521.028845, -0.000004, 30.029874, 18.989682
608.322365,914.366194,-521.547516, -0.000004, 30.046514, 18.937636
606.375767,915.482600,-522.067717, -0.000005, 30.062908, 18.885388
604.468626,916.555411,-522.589315, -0.000003, 30.079080, 18.832948
602.600207,917.584169,-523.112162, -0.000004, 30.095056, 18.780327
600.769554,918.568542,-523.636098, -0.000004, 30.110858, 18.727536
598.975529,919.508412,-524.160958, -0.000005, 30.126509, 18.674584
597.216765,920.403760,-524.686567, -0.000005, 30.142032, 18.621482
595.491720,921.254767,-525.212737, -0.000003, 30.157446, 18.568241
593.798689,922.061783,-525.739278, -0.000004, 30.172773, 18.514869
592.135779,922.825271,-526.265991, -0.000004, 30.188029, 18.461378
590.500943,923.545867,-526.792670, -0.000005, 30.203232, 18.407776
588.892007,924.224374,-527.319102, -0.000003, 30.218397, 18.354071
587.306667,924.861726,-527.845071, -0.000004, 30.233536, 18.300272
585.742472,925.458976,-528.370359, -0.000004, 30.248661, 18.246386
584.196914,926.017350,-528.894737, -0.000005, 30.263781, 18.192420
582.667354,926.538178,-529.417983, -0.000003, 30.278905, 18.138381
581.151103,927.022919,-529.939864, -0.000004, 30.294037, 18.084272
579.645403,927.473133,-530.460152, -0.000004, 30.309181, 18.030100
578.147465,927.890531,-530.978617, -0.000005, 30.324338, 17.975867
576.654460,928.276901,-531.495023, -0.000003, 30.339509, 17.921578
575.163533,928.634104,-532.009142, -0.000003, 30.354691, 17.867234
573.671829,928.964111,-532.520747, -0.000004, 30.369878, 17.812837
572.176535,929.268987,-533.029608, -0.000005, 30.385066, 17.758387
570.674840,929.550830,-533.535502, -0.000003, 30.400246, 17.703884
569.163968,929.811812,-534.038208, -0.000003, 30.415408, 17.649327
567.641208,930.054183,-534.537509, -0.000004, 30.430541, 17.594715
566.103934,930.280188,-535.033191, -0.000005, 30.445634, 17.540045
564.549564,930.492142,-535.525051, -0.000003, 30.460671, 17.485315
562.975634,930.692376,-536.012880, -0.000003, 30.475637, 17.430519
561.379775,930.883223,-536.496490, -0.000004, 30.490517, 17.375655
559.759733,931.067035,-536.975688, -0.000002, 30.505292, 17.320717
558.113390,931.246162,-537.450292, -0.000003, 30.519946, 17.265699
556.438731,931.422906,-537.920130, -0.000003, 30.534459, 17.210596
554.733893,931.599609,-538.385036, -0.000004, 30.548813, 17.155402
552.997200,931.778522,-538.844851, -0.000002, 30.562989, 17.100110
551.227063,931.961895,-539.299427, -0.000003, 30.576966, 17.044713
549.422117,932.151908,-539.748624, -0.000004, 30.590727, 16.989203
547.581126,932.350708,-540.192312, -0.000004, 30.604252, 16.933574
545.703030,932.560343,-540.630372, -0.000003, 30.617521, 16.877819
543.786954,932.782816,-541.062690, -0.000003, 30.630518, 16.821930
541.832201,933.020050,-541.489166, -0.000004, 30.643224, 16.765899
539.838219,933.273861,-541.909713, -0.000002, 30.655623, 16.709719
537.804679,933.545996,-542.324249, -0.000003, 30.667699, 16.653384
535.731387,933.838080,-542.732705, -0.000003, 30.679437, 16.596885
533.618347,934.151661,-543.135020, -0.000004, 30.690824, 16.540217
531.465741,934.488150,-543.531147, -0.000003, 30.701847, 16.483373
529.273897,934.848849,-543.921047, -0.000003, 30.712495, 16.426346
527.043334,935.234951,-544.304697, -0.000004, 30.722759, 16.369131
524.774713,935.647529,-544.682076, -0.000002, 30.732630, 16.311723
522.468862,936.087505,-545.053179, -0.000003, 30.742101, 16.254116
520.126749,936.555688,-545.418009, -0.000004, 30.751168, 16.196306
517.749489,937.052754,-545.776582, -0.000004, 30.759827, 16.138290
515.338342,937.579261,-546.128921, -0.000003, 30.768076, 16.080063
512.894677,938.135598,-546.475059, -0.000003, 30.775914, 16.021623
510.420004,938.722055,-546.815041, -0.000004, 30.783341, 15.962967
507.915910,939.338753,-547.148918, -0.000003, 30.790363, 15.904094
505.384096,939.985704,-547.476752, -0.000003, 30.796981, 15.845003
502.826377,940.662764,-547.798611, -0.000004, 30.803200, 15.785691
500.244615,941.369691,-548.114577, -0.000005, 30.809029, 15.726160
497.640754,942.106069,-548.424732, -0.000003, 30.814475, 15.666409
495.016787,942.871391,-548.729175, -0.000004, 30.819548, 15.606440
492.374768,943.665000,-549.028003, -0.000004, 30.824257, 15.546253
489.716776,944.486121,-549.321326, -0.000003, 30.828615, 15.485850
487.044931,945.333875,-549.609257, -0.000004, 30.832633, 15.425233
484.361332,946.207256,-549.891916, -0.000004, 30.836323, 15.364406
481.668133,947.105153,-550.169429, -0.000003, 30.839701, 15.303370
478.967432,948.026353,-550.441928, -0.000003, 30.842779, 15.242131
476.261324,948.969545,-550.709548, -0.000004, 30.845573, 15.180689
473.551902,949.933314,-550.972428, -0.000003, 30.848098, 15.119050
470.841185,950.916163,-551.230709, -0.000003, 30.850367, 15.057219
468.131146,951.916539,-551.484542, -0.000004, 30.852398, 14.995198
465.423739,952.932781,-551.734071, -0.000002, 30.854204, 14.932993
462.720791,953.963187,-551.979450, -0.000003, 30.855800, 14.870608
460.024092,955.005976,-552.220831, -0.000004, 30.857201, 14.808048
457.335352,956.059327,-552.458369, -0.000002, 30.858420, 14.745318
454.656177,957.121386,-552.692216, -0.000003, 30.859472, 14.682421
451.988068,958.190221,-552.922530, -0.000004, 30.860368, 14.619363
449.332421,959.263929,-553.149464, -0.000002, 30.861121, 14.556148
446.690547,960.340528,-553.373172, -0.000003, 30.861742, 14.492781
444.063623,961.418073,-553.593806, -0.000004, 30.862241, 14.429265
441.452692,962.494566,-553.811521, -0.000002, 30.862628, 14.365605
438.858701,963.568062,-554.026462, -0.000003, 30.862910, 14.301805
436.282449,964.636579,-554.238779, -0.000004, 30.863095, 14.237868
433.724618,965.698178,-554.448612, -0.000002, 30.863188, 14.173797
431.185748,966.750934,-554.656105, -0.000003, 30.863196, 14.109597
428.666262,967.792980,-554.861393, -0.000004, 30.863120, 14.045268
426.166429,968.822444,-555.064611, -0.000002, 30.862963, 13.980813
423.686409,969.837524,-555.265886, -0.000003, 30.862727, 13.916236
421.226210,970.836484,-555.465341, -0.000004, 30.862412, 13.851536
418.785712,971.817640,-555.663096, -0.000003, 30.862016, 13.786716
416.364693,972.779350,-555.859266, -0.000003, 30.861537, 13.721777
413.962759,973.720069,-556.053955, -0.000004, 30.860971, 13.656718
411.579446,974.638318,-556.247269, -0.000003, 30.860314, 13.591541
409.214138,975.532705,-556.439301, -0.000003, 30.859561, 13.526245
406.866119,976.401923,-556.630144, -0.000004, 30.858703, 13.460830
404.534557,977.244763,-556.819878, -0.000003, 30.857736, 13.395294
402.218529,978.060110,-557.008580, -0.000003, 30.856649, 13.329637
399.916996,978.846927,-557.196322, -0.000004, 30.855434, 13.263858
397.628855,979.604318,-557.383163, -0.000003, 30.854082, 13.197954
395.352907,980.331447,-557.569164, -0.000004, 30.852581, 13.131923
393.087858,981.027635,-557.754367, -0.000002, 30.850922, 13.065764
390.832394,981.692279,-557.938820, -0.000003, 30.849093, 12.999473
388.585082,982.324888,-558.122554, -0.000004, 30.847083, 12.933049
386.344485,982.925112,-558.305599, -0.000002, 30.844881, 12.866487
384.109089,983.492678,-558.487970, -0.000003, 30.842475, 12.799785
381.877354,984.027453,-558.669684, -0.000004, 30.839854, 12.732941
379.647717,984.529395,-558.850746, -0.000003, 30.837005, 12.665950
377.418568,984.998600,-559.031155, -0.000003, 30.833918, 12.598808
375.188327,985.435252,-559.210901, -0.000002, 30.830582, 12.531514
372.955385,985.839650,-559.389969, -0.000003, 30.826987, 12.464063
370.718140,986.212222,-559.568340, -0.000004, 30.823121, 12.396453
368.474993,986.553472,-559.745982, -0.000002, 30.818976, 12.328678
366.224379,986.864016,-559.922864, -0.000003, 30.814543, 12.260737
363.964749,987.144575,-560.098941, -0.000004, 30.809814, 12.192626
361.694616,987.395964,-560.274171, -0.000002, 30.804781, 12.124342
359.412502,987.619096,-560.448497, -0.000003, 30.799438, 12.055882
357.116991,987.814946,-560.621863, -0.000002, 30.793777, 11.987243
354.806725,987.984600,-560.794204, -0.000003, 30.787796, 11.918422
352.480410,988.129212,-560.965455, -0.000004, 30.781489, 11.849417
350.136808,988.250011,-561.135538, -0.000002, 30.774854, 11.780226
347.774769,988.348283,-561.304379, -0.000003, 30.767887, 11.710846
345.393210,988.425393,-561.471894, -0.000002, 30.760589, 11.641276
342.991133,988.482749,-561.637996, -0.000003, 30.752958, 11.571514
340.567615,988.521825,-561.802597, -0.000003, 30.744995, 11.501558
338.121859,988.544118,-561.965607, -0.000002, 30.736703, 11.431407
335.653107,988.551177,-562.126924, -0.000003, 30.728082, 11.361061
333.160752,988.544584,-562.286456, -0.000002, 30.719136, 11.290519
330.644231,988.525948,-562.444096, -0.000003, 30.709871, 11.219780
328.103127,988.496877,-562.599746, -0.000003, 30.700290, 11.148845
325.537076,988.459004,-562.753299, -0.000002, 30.690398, 11.077712
322.945863,988.413981,-562.904651, -0.000003, 30.680203, 11.006383
320.329329,988.363439,-563.053695, -0.000002, 30.669712, 10.934858
317.687437,988.309015,-563.200323, -0.000003, 30.658930, 10.863138
315.020253,988.252323,-563.344425, -0.000001, 30.647868, 10.791223
312.327926,988.194958,-563.485898, -0.000002, 30.636532, 10.719115
309.610702,988.138494,-563.624630, -0.000003, 30.624932, 10.646815
306.868912,988.084484,-563.760516, -0.000002, 30.613075, 10.574324
304.102996,988.034411,-563.893451, -0.000003, 30.600973, 10.501644
301.313463,987.989741,-564.023330, -0.000002, 30.588633, 10.428777
298.500913,987.951892,-564.150048, -0.000003, 30.576065, 10.355724
295.666017,987.922194,-564.273504, -0.000001, 30.563278, 10.282488
292.809520,987.901970,-564.393601, -0.000002, 30.550280, 10.209070
289.932249,987.892443,-564.510238, -0.000001, 30.537082, 10.135472
287.035072,987.894760,-564.623325, -0.000002, 30.523692, 10.061696
284.118917,987.910045,-564.732768, -0.000003, 30.510117,  9.987745
281.184805,987.939275,-564.838477, -0.000002, 30.496366,  9.913620
278.233743,987.983424,-564.940371, -0.000003, 30.482446,  9.839324
275.266830,988.043312,-565.038364, -0.000002, 30.468364,  9.764858
272.285178,988.119723,-565.132381, -0.000003, 30.454127,  9.690224
269.289928,988.213322,-565.222346, -0.000001, 30.439740,  9.615425
266.282237,988.324719,-565.308188, -0.000002, 30.425208,  9.540461
263.263301,988.454390,-565.389846, -0.000001, 30.410537,  9.465336
260.234307,988.602740,-565.467253, -0.000002, 30.395729,  9.390049
257.196446,988.770087,-565.540355, -0.000001, 30.380788,  9.314604
254.150933,988.956641,-565.609099, -0.000002, 30.365716,  9.239000
251.098941,989.162533,-565.673434, -0.000003, 30.350516,  9.163240
248.041656,989.387766,-565.733322, -0.000002, 30.335187,  9.087324
244.980220,989.632276,-565.788722, -0.000003, 30.319731,  9.011253
241.915777,989.895917,-565.839598, -0.000002, 30.304146,  8.935029
238.849417,990.178408,-565.885925, -0.000003, 30.288431,  8.858650
235.782208,990.479429,-565.927679, -0.000002, 30.272585,  8.782119
232.715168,990.798524,-565.964839, -0.000003, 30.256605,  8.705435
229.649270,991.135189,-565.997393, -0.000002, 30.240487,  8.628598
226.585462,991.488806,-566.025330, -0.000003, 30.224230,  8.551608
223.524605,991.858711,-566.048647, -0.000002, 30.207826,  8.474466
220.467516,992.244119,-566.067342, -0.000003, 30.191273,  8.397169
217.414953,992.644200,-566.081424, -0.000002, 30.174565,  8.319720
214.367598,993.058051,-566.090901, -0.000003, 30.157695,  8.242115
211.326093,993.484699,-566.095785, -0.000002, 30.140658,  8.164355
208.290987,993.923108,-566.096096, -0.000003, 30.123449,  8.086438
205.262762,994.372189,-566.091856, -0.000002, 30.106060,  8.008365
202.241838,994.830790,-566.083093, -0.000003, 30.088485,  7.930132
199.228541,995.297725,-566.069840, -0.000002, 30.070716,  7.851740
196.223160,995.771759,-566.052128, -0.000003, 30.052748,  7.773187
193.225861,996.251606,-566.029997, -0.000002, 30.034573,  7.694472
190.236774,996.735964,-566.003489, -0.000003, 30.016185,  7.615592
187.255943,997.223517,-565.972648, -0.000002, 29.997577,  7.536548
184.283315,997.712883,-565.937524, -0.000003, 29.978741,  7.457336
181.318804,998.202691,-565.898168, -0.000002, 29.959673,  7.377956
178.362229,998.691571,-565.854634, -0.000003, 29.940366,  7.298406
175.413353,999.178128,-565.806979, -0.000002, 29.920815,  7.218685
172.471848,999.660982,-565.755263, -0.000003, 29.901015,  7.138791
169.537348,1000.138724,-565.699546, -0.000002, 29.880959,  7.058722
166.609402,1000.609995,-565.639889, -0.000003, 29.860645,  6.978477
163.687524,1001.073431,-565.576361, -0.000002, 29.840068,  6.898055
160.771164,1001.527702,-565.509026, -0.000001, 29.819224,  6.817454
157.859706,1001.971486,-565.437950, -0.000002, 29.798112,  6.736674
154.952489,1002.403505,-565.363206, -0.000001, 29.776727,  6.655712
152.048832,1002.822532,-565.284860, -0.000002, 29.755069,  6.574567
149.147990,1003.227335,-565.202981, -0.000001, 29.733137,  6.493240
146.249184,1003.616766,-565.117642, -0.000002, 29.710929,  6.411728
143.351603,1003.989717,-565.028913, -0.000001, 29.688446,  6.330031
140.454423,1004.345136,-564.936862, -0.000002, 29.665688,  6.248148
137.556774,1004.682007,-564.841561, -0.000001, 29.642656,  6.166078
134.657805,1004.999388,-564.743078, -0.000003, 29.619351,  6.083822
131.756604,1005.296405,-564.641483, -0.000002, 29.595776,  6.001378
128.852277,1005.572262,-564.536842, -0.000001, 29.571934,  5.918747
125.943937,1005.826191,-564.429225, -0.000002, 29.547827,  5.835928
123.030675,1006.057533,-564.318695, -0.000001, 29.523459,  5.752921
120.111588,1006.265681,-564.205315, -0.000002, 29.498834,  5.669726
117.185808,1006.450118,-564.089149, -0.000001, 29.473956,  5.586343
114.252446,1006.610396,-563.970257, -0.000002, 29.448830,  5.502773
111.310654,1006.746148,-563.848695, -0.000001, 29.423460,  5.419016
108.359610,1006.857088,-563.724523, -0.000000, 29.397853,  5.335073
105.398493,1006.943001,-563.597791, -0.000002, 29.372013,  5.250943
102.426537,1007.003742,-563.468554, -0.000001, 29.345945,  5.166627
 99.442998,1007.039274,-563.336857, -0.000002, 29.319656,  5.082128
 96.447172,1007.049616,-563.202748, -0.000001, 29.293151,  4.997443
 93.438392,1007.034883,-563.066269, -0.000000, 29.266436,  4.912576
 90.416036,1006.995256,-562.927466, -0.000001, 29.239517,  4.827526
 87.379530,1006.930974,-562.786367, -0.000000, 29.212400,  4.742295
 84.328345,1006.842388,-562.643014, -0.000002, 29.185089,  4.656883
 81.261992,1006.729889,-562.497435, -0.000001, 29.157591,  4.571292
 78.180059,1006.593965,-562.349657,  0.000000, 29.129910,  4.485522
 75.082150,1006.435152,-562.199709, -0.000001, 29.102052,  4.399574
 71.967962,1006.254056,-562.047607, -0.000000, 29.074021,  4.313450
 68.837221,1006.051359,-561.893372, -0.000002, 29.045823,  4.227149
 65.689725,1005.827769,-561.737019, -0.000001, 29.017460,  4.140675
 62.525312,1005.584092,-561.578560, -0.000000, 28.988937,  4.054027
 59.343894,1005.321151,-561.418001, -0.000001, 28.960257,  3.967205
 56.145424,1005.039847,-561.255347, -0.000001, 28.931423,  3.880212
 52.929913,1004.741093,-561.090603, -0.000002, 28.902438,  3.793048
 49.697437,1004.425870,-560.923765, -0.000001, 28.873304,  3.705713
 46.448128,1004.095188,-560.754826, -0.000000, 28.844021,  3.618209
 43.182146,1003.750079,-560.583782, -0.000002, 28.814594,  3.530536
 39.899716,1003.391621,-560.410619, -0.000001, 28.785020,  3.442695
 36.601134,1003.020906,-560.235324, -0.000000, 28.755303,  3.354686
 33.286708,1002.639048,-560.057881, -0.000002, 28.725439,  3.266510
 29.956804,1002.247156,-559.878266, -0.000001, 28.695430,  3.178168
 26.611843,1001.846389,-559.696462, -0.000000, 28.665276,  3.089658
 23.252273,1001.437867,-559.512438, -0.000001, 28.634974,  3.000983
 19.878567,1001.022738,-559.326170, -0.000001, 28.604522,  2.912142
 16.491270,1000.602149,-559.137623,  0.000000, 28.573920,  2.823135
 13.090910,1000.177221,-558.946769, -0.000001, 28.543163,  2.733963
  9.678089,999.749076,-558.753572, -0.000001, 28.512252,  2.644625
  6.253400,999.318812,-558.557993,  0.000000, 28.481180,  2.555121
  2.817481,998.887509,-558.359994, -0.000001, 28.449948,  2.465451
 -0.629037,998.456214,-558.159533, -0.000001, 28.418549,  2.375615
 -4.085484,998.025948,-557.956570,  0.000000, 28.386982,  2.285614
 -7.551191,997.597726,-557.751059, -0.000001, 28.355241,  2.195445
-11.025481,997.172471,-557.542953, -0.000001, 28.323325,  2.105110
-14.507686,996.751117,-557.332208, -0.000000, 28.291228,  2.014607
-17.997103,996.334534,-557.118777, -0.000002, 28.258947,  1.923937
-21.493064,995.923525,-556.902609, -0.000001, 28.226477,  1.833098
-24.994887,995.518884,-556.683654, -0.000000, 28.193817,  1.742091
-28.501923,995.121319,-556.461863, -0.000002, 28.160960,  1.650915
-32.013512,994.731499,-556.237184, -0.000001, 28.127904,  1.559569
-35.529021,994.350027,-556.009568, -0.000000, 28.094645,  1.468053
-39.047837,993.977453,-555.778965, -0.000002, 28.061180,  1.376367
-42.569358,993.614267,-555.545320, -0.000001, 28.027506,  1.284508
-46.093017,993.260890,-555.308585, -0.000001, 27.993619,  1.192478
-49.618276,992.917670,-555.068710,  0.000000, 27.959517,  1.100276
-53.144624,992.584930,-554.825640, -0.000002, 27.925198,  1.007901
-56.671561,992.262860,-554.579330, -0.000001, 27.890658,  0.915352
-60.198668,991.951648,-554.329728, -0.000000, 27.855898,  0.822629
-63.725499,991.651395,-554.076788, -0.000002, 27.820914,  0.729732
-67.251687,991.362104,-553.820462, -0.000001, 27.785706,  0.636661
-70.776910,991.083764,-553.560703, -0.000001, 27.750273,  0.543414
-74.300853,990.816253,-553.297466,  0.000000, 27.714614,  0.449991
-77.823254,990.559415,-553.030710, -0.000002, 27.678729,  0.356393
-81.343905,990.313010,-552.760387, -0.000001, 27.642618,  0.262619
-84.862626,990.076749,-552.486463, -0.000000, 27.606283,  0.168669
-88.379295,989.850277,-552.208893,  0.000000, 27.569722,  0.074542
-91.893794,989.633173,-551.927644, -0.000001, 27.532939, -0.019761
-95.406086,989.424971,-551.642677, -0.000001, 27.495934, -0.114241
-98.916175,989.225147,-551.353959, -0.000000, 27.458709, -0.208897
-102.424071,989.033115,-551.061461,  0.000000, 27.421267, -0.303730
-105.929862,988.848253,-550.765148, -0.000001, 27.383609, -0.398739
-109.433651,988.669876,-550.464997, -0.000001, 27.345738, -0.493924
-112.935594,988.497268,-550.160979, -0.000000, 27.307657, -0.589285
-116.435872,988.329667,-549.853073,  0.000001, 27.269370, -0.684821
-119.934714,988.166262,-549.541255, -0.000001, 27.230878, -0.780533
-123.432385,988.006239,-549.225507, -0.000001, 27.192187, -0.876420
-126.929147,987.848708,-548.905814, -0.000000, 27.153299, -0.972482
-130.425340,987.692802,-548.582159,  0.000000, 27.114218, -1.068717
-133.921299,987.537567,-548.254530,  0.000001, 27.074948, -1.165126
-137.417396,987.382100,-547.922917, -0.000001, 27.035492, -1.261708
-140.914043,987.225418,-547.587313, -0.000000, 26.995854, -1.358463
-144.411637,987.066564,-547.247710,  0.000000, 26.956038, -1.455390
-147.910629,986.904576,-546.904105,  0.000001, 26.916048, -1.552487
-151.411454,986.738446,-546.556501,  0.000001, 26.875887, -1.649756
-154.914588,986.567192,-546.204893, -0.000000, 26.835559, -1.747194
-158.420515,986.389849,-545.849288, -0.000000, 26.795068, -1.844802
-161.929709,986.205443,-545.489691,  0.000000, 26.754416, -1.942578
-165.442662,986.012989,-545.126106,  0.000001, 26.713608, -2.040522
-168.959882,985.811555,-544.758546,  0.000001, 26.672646, -2.138634
-172.481845,985.600196,-544.387018, -0.000000, 26.631532, -2.236911
-176.009048,985.378006,-544.011541, -0.000000, 26.590270, -2.335355
-179.541990,985.144082,-543.632123,  0.000000, 26.548862, -2.433964
-183.081148,984.897577,-543.248785,  0.000001, 26.507310, -2.532737
-186.626982,984.637656,-542.861545,  0.000001, 26.465616, -2.631674
-190.179966,984.363523,-542.470418,  0.000002, 26.423781, -2.730773
-193.740548,984.074397,-542.075432, -0.000000, 26.381807, -2.830036
-197.309153,983.769568,-541.676603,  0.000000, 26.339696, -2.929460
-200.886188,983.448357,-541.273959,  0.000000, 26.297448, -3.029045
-204.472041,983.110136,-540.867524,  0.000001, 26.255063, -3.128791
-208.067107,982.754278,-540.457322,  0.000001, 26.212542, -3.228697
-211.671708,982.380271,-540.043384,  0.000001, 26.169885, -3.328763
-215.286171,981.987608,-539.625735,  0.000002, 26.127092, -3.428987
-218.910796,981.575838,-539.204404, -0.000000, 26.084163, -3.529370
-222.545845,981.144591,-538.779421,  0.000000, 26.041097, -3.629912
-226.191569,980.693498,-538.350816,  0.000000, 25.997892, -3.730611
-229.848153,980.222295,-537.918619,  0.000001, 25.954549, -3.831467
-233.515789,979.730754,-537.482864,  0.000001, 25.911065, -3.932480
-237.194619,979.218686,-537.043577,  0.000001, 25.867440, -4.033650
-240.884768,978.685996,-536.600792,  0.000001, 25.823671, -4.134976
-244.586317,978.132592,-536.154542,  0.000002, 25.779758, -4.236459
-248.299309,977.558489,-535.704856, -0.000000, 25.735699, -4.338097
-252.023767,976.963740,-535.251765, -0.000000, 25.691490, -4.439890
-255.759675,976.348419,-534.795303,  0.000000, 25.647132, -4.541839
-259.507013,975.712710,-534.335499,  0.000000, 25.602621, -4.643943
-263.265670,975.056804,-533.872381,  0.000001, 25.557956, -4.746202
-267.035573,974.380974,-533.405982,  0.000001, 25.513135, -4.848616
-270.816581,973.685524,-532.936331,  0.000001, 25.468155, -4.951184
-274.608533,972.970799,-532.463455,  0.000001, 25.423016, -5.053908
-278.411227,972.237220,-531.987382,  0.000001, 25.377714, -5.156785
-282.224466,971.485233,-531.508141,  0.000002, 25.332248, -5.259816
-286.048005,970.715308,-531.025756,  0.000002, 25.286617, -5.363002
-289.881580,969.928009,-530.540251,  0.000002, 25.240818, -5.466341
-293.724897,969.123870,-530.051653, -0.000000, 25.194852, -5.569834
-297.577679,968.303514,-529.559983, -0.000000, 25.148715, -5.673481
-301.439578,967.467578,-529.065264,  0.000000, 25.102407, -5.777282
-305.310264,966.616708,-528.567513,  0.000000, 25.055928, -5.881236
-309.189387,965.751620,-528.066754,  0.000000, 25.009276, -5.985342
-313.076574,964.873000,-527.563001,  0.000000, 24.962451, -6.089602
-316.971457,963.981604,-527.056273,  0.000001, 24.915451, -6.194015
-320.873627,963.078168,-526.546582,  0.000001, 24.868278, -6.298580
-324.782706,962.163469,-526.033945,  0.000001, 24.820931, -6.403297
-328.698304,961.238289,-525.518374,  0.000001, 24.773411, -6.508167
-332.619995,960.303412,-524.999877,  0.000001, 24.725718, -6.613188
-336.547380,959.359621,-524.478465,  0.000001, 24.677852, -6.718360
-340.480064,958.407705,-523.954144,  0.000001, 24.629814, -6.823684
-344.417647,957.448469,-523.426923,  0.000001, 24.581606, -6.929158
-348.359725,956.482685,-522.896805,  0.000001, 24.533229, -7.034782
-352.305917,955.511144,-522.363792,  0.000001, 24.484685, -7.140557
-356.255830,954.534597,-521.827886,  0.000001, 24.435974, -7.246480
-360.209109,953.553812,-521.289090,  0.000001, 24.387099, -7.352553
-364.165366,952.569519,-520.747399,  0.000001, 24.338061, -7.458774
-368.124280,951.582424,-520.202811,  0.000001, 24.288863, -7.565142
-372.085499,950.593241,-519.655323,  0.000001, 24.239507, -7.671658
-376.048715,949.602614,-519.104927,  0.000001, 24.189995, -7.778321
-380.013632,948.611204,-518.551619,  0.000001, 24.140331, -7.885129
-383.979949,947.619610,-517.995389,  0.000001, 24.090516, -7.992083
-387.947417,946.628417,-517.436225,  0.000001, 24.040552, -8.099181
-391.915797,945.638170,-516.874119,  0.000001, 23.990443, -8.206424
-395.884853,944.649372,-516.309055,  0.000001, 23.940191, -8.313810
-399.854399,943.662491,-515.741024,  0.000001, 23.889799, -8.421338
-403.824241,942.677966,-515.170007,  0.000001, 23.839270, -8.529008
-407.794235,941.696171,-514.595994,  0.000001, 23.788606, -8.636819
-411.764256,940.717472,-514.018963,  0.000001, 23.737810, -8.744769
-415.734182,939.742146,-513.438897,  0.000001, 23.686885, -8.852860
-419.703930,938.770470,-512.855780,  0.000001, 23.635832, -8.961089
-423.673436,937.802655,-512.269590,  0.000003, 23.584656, -9.069455
-427.642675,936.838863,-511.680309,  0.000003, 23.533356, -9.177958
-431.611616,935.879213,-511.087914,  0.000003, 23.481937, -9.286597
-435.580279,934.923773,-510.492385,  0.000003, 23.430401, -9.395371
-439.548688,933.972581,-509.893701,  0.000003, 23.378748, -9.504280
-443.516894,933.025612,-509.291836,  0.000003, 23.326982, -9.613322
-447.484962,932.082800,-508.686771,  0.000002, 23.275104, -9.722496
-451.453008,931.144029,-508.078480,  0.000002, 23.223115, -9.831801
-455.421112,930.209141,-507.466940,  0.000002, 23.171018, -9.941237
-459.389426,929.277944,-506.852128,  0.000002, 23.118812,-10.050803
-463.358101,928.350194,-506.234019,  0.000002, 23.066500,-10.160498
-467.327276,927.425601,-505.612589,  0.000004, 23.014083,-10.270321
-471.297145,926.503828,-504.987814,  0.000003, 22.961561,-10.380271
-475.267897,925.584529,-504.359673,  0.000003, 22.908935,-10.490347
-479.239741,924.667291,-503.728138,  0.000003, 22.856205,-10.600549
-483.212890,923.751683,-503.093188,  0.000003, 22.803371,-10.710875
-487.187563,922.837225,-502.454799,  0.000002, 22.750435,-10.821325
-491.163991,921.923421,-501.812949,  0.000002, 22.697396,-10.931898
-495.142418,921.009727,-501.167613,  0.000002, 22.644254,-11.042593
-499.123091,920.095580,-500.518770,  0.000004, 22.591010,-11.153409
-503.106251,919.180411,-499.866399,  0.000003, 22.537661,-11.264345
-507.092151,918.263607,-499.210479,  0.000003, 22.484208,-11.375401
-511.081038,917.344532,-498.550989,  0.000003, 22.430652,-11.486576
-515.073178,916.422539,-497.887910,  0.000002, 22.376991,-11.597869
-519.068804,915.496970,-497.221221,  0.000002, 22.323224,-11.709279
-523.068167,914.567163,-496.550907,  0.000001, 22.269352,-11.820805
-527.071505,913.632416,-495.876949,  0.000003, 22.215372,-11.932447
-531.079047,912.692050,-495.199328,  0.000003, 22.161286,-12.044205
-535.091033,911.745364,-494.518032,  0.000003, 22.107091,-12.156076
-539.107666,910.791674,-493.833045,  0.000002, 22.052787,-12.268060
-543.129146,909.830267,-493.144351,  0.000002, 21.998373,-12.380157
-547.155691,908.860465,-492.451939,  0.000004, 21.943849,-12.492365
-551.187471,907.881565,-491.755799,  0.000003, 21.889213,-12.604685
-555.224657,906.892916,-491.055915,  0.000003, 21.834466,-12.717115
-559.267407,905.893838,-490.352280,  0.000002, 21.779607,-12.829655
-563.315868,904.883670,-489.644888,  0.000002, 21.724635,-12.942303
-567.370157,903.861797,-488.933727,  0.000003, 21.669550,-13.055058
-571.430394,902.827594,-488.218791,  0.000003, 21.614351,-13.167921
-575.496666,901.780463,-487.500076,  0.000002, 21.559038,-13.280891
-579.569052,900.719825,-486.777576,  0.000002, 21.503612,-13.393965
-583.647608,899.645140,-486.051287,  0.000004, 21.448071,-13.507145
-587.732370,898.555881,-485.321208,  0.000003, 21.392417,-13.620428
-591.823373,897.451568,-484.587340,  0.000003, 21.336650,-13.733814
-595.920611,896.331719,-483.849677,  0.000002, 21.280769,-13.847302
-600.024064,895.195916,-483.108221,  0.000002, 21.224775,-13.960891
-604.133729,894.043759,-482.362976,  0.000003, 21.168669,-14.074581
-608.249521,892.874883,-481.613946,  0.000003, 21.112451,-14.188370
-612.371392,891.688960,-480.861131,  0.000002, 21.056124,-14.302257
-616.499265,890.485699,-480.104537,  0.000004, 20.999686,-14.416243
-620.633017,889.264845,-479.344169,  0.000003, 20.943141,-14.530324
-624.772541,888.026174,-478.580032,  0.000003, 20.886488,-14.644501
-628.917701,886.769530,-477.812137,  0.000002, 20.829728,-14.758773
-633.068353,885.494745,-477.040491,  0.000004, 20.772865,-14.873139
-637.224326,884.201754,-476.265100,  0.000003, 20.715899,-14.987597
-641.385454,882.890467,-475.485977,  0.000002, 20.658831,-15.102146
-645.551533,881.560864,-474.703130,  0.000004, 20.601665,-15.216786
-649.722381,880.212981,-473.916570,  0.000003, 20.544400,-15.331516
-653.897766,878.846864,-473.126309,  0.000003, 20.487039,-15.446333
-658.077479,877.462615,-472.332361,  0.000002, 20.429585,-15.561238
-662.261276,876.060344,-471.534736,  0.000004, 20.372039,-15.676229
-666.448927,874.640226,-470.733448,  0.000003, 20.314403,-15.791304
-670.640181,873.202469,-469.928513,  0.000002, 20.256679,-15.906463
-674.834780,871.747308,-469.119941,  0.000004, 20.198870,-16.021705
-679.032481,870.275016,-468.307749,  0.000003, 20.140977,-16.137028
-683.233026,868.785885,-467.491952,  0.000002, 20.083003,-16.252430
-687.436127,867.280250,-466.672562,  0.000004, 20.024950,-16.367912
-691.641543,865.758460,-465.849598,  0.000003, 19.966819,-16.483471
-695.849004,864.220923,-465.023072,  0.000005, 19.908614,-16.599106
-700.058242,862.668039,-464.193002,  0.000004, 19.850335,-16.714816
-704.269000,861.100242,-463.359401,  0.000003, 19.791985,-16.830600
-708.481012,859.517977,-462.522288,  0.000005, 19.733566,-16.946456
-712.694025,857.921744,-461.681675,  0.000004, 19.675080,-17.062384
-716.907790,856.312016,-460.837577,  0.000003, 19.616527,-17.178380
-721.122064,854.689311,-459.990015,  0.000005, 19.557912,-17.294446
-725.336609,853.054146,-459.138997,  0.000004, 19.499233,-17.410578
-729.551194,851.407052,-458.284542,  0.000005, 19.440494,-17.526776
-733.765606,849.748565,-457.426666,  0.000004, 19.381697,-17.643038
-737.979618,848.079246,-456.565378,  0.000003, 19.322841,-17.759363
-742.193025,846.399640,-455.700697,  0.000005, 19.263928,-17.875750
-746.405654,844.710293,-454.832636,  0.000004, 19.204961,-17.992197
-750.617307,843.011765,-453.961206,  0.000005, 19.145939,-18.108702
-754.827833,841.304599,-453.086422,  0.000004, 19.086864,-18.225265
-759.037046,839.589349,-452.208294,  0.000003, 19.027737,-18.341884
-763.244818,837.866548,-451.326837,  0.000005, 18.968558,-18.458558
-767.451012,836.136711,-450.442064,  0.000004, 18.909328,-18.575285
-771.655513,834.400386,-449.553981,  0.000005, 18.850049,-18.692063
-775.858198,832.658055,-448.662600,  0.000004, 18.790719,-18.808892
-780.058991,830.910215,-447.767934,  0.000005, 18.731341,-18.925770
-784.257805,829.157351,-446.869988,  0.000004, 18.671914,-19.042696
-788.454557,827.399891,-445.968772,  0.000006, 18.612438,-19.159668
-792.649212,825.638282,-445.064296,  0.000005, 18.552914,-19.276684
-796.841711,823.872944,-444.156564,  0.000004, 18.493342,-19.393744
-801.032046,822.104258,-443.245586,  0.000005, 18.433723,-19.510846
-805.220172,820.332573,-442.331365,  0.000004, 18.374056,-19.627988
-809.406084,818.558253,-441.413909,  0.000005, 18.314341,-19.745169
-813.589810,816.781596,-440.493223,  0.000004, 18.254579,-19.862388
-817.771343,815.002875,-439.569307,  0.000005, 18.194769,-19.979643
-821.950724,813.222341,-438.642168,  0.000004, 18.134912,-20.096933
-826.127980,811.440234,-437.711806,  0.000005, 18.075008,-20.214256
-830.303150,809.656732,-436.778225,  0.000004, 18.015056,-20.331611
-834.476294,807.871990,-435.841427,  0.000005, 17.955057,-20.448997
-838.647481,806.086134,-434.901413,  0.000004, 17.895010,-20.566411
-842.816766,804.299279,-433.958180,  0.000005, 17.834917,-20.683853
-846.984235,802.511453,-433.011728,  0.000004, 17.774776,-20.801320
-851.149957,800.722717,-432.062060,  0.000005, 17.714589,-20.918813
-855.314009,798.933059,-431.109170,  0.000006, 17.654355,-21.036328
-859.476510,797.142427,-430.153057,  0.000005, 17.594075,-21.153865
-863.637511,795.350781,-429.193717,  0.000006, 17.533748,-21.271421
-867.797140,793.557996,-428.231150,  0.000005, 17.473376,-21.388996
-871.955481,791.763958,-427.265351,  0.000006, 17.412959,-21.506588
-876.112620,789.968503,-426.296311,  0.000004, 17.352497,-21.624196
-880.268661,788.171447,-425.324032,  0.000005, 17.291991,-21.741817
-884.423704,786.372557,-424.348504,  0.000004, 17.231441,-21.859451
-888.577819,784.571603,-423.369724,  0.000005, 17.170850,-21.977095
-892.731120,782.768313,-422.387683,  0.000006, 17.110216,-22.094749
-896.883689,780.962380,-421.402379,  0.000005, 17.049541,-22.212410
-901.035602,779.153484,-420.413801,  0.000006, 16.988827,-22.330077
-905.186938,777.341284,-419.421944,  0.000004, 16.928073,-22.447748
-909.337758,775.525415,-418.426803,  0.000005, 16.867282,-22.565422
-913.488146,773.705497,-417.428367,  0.000006, 16.806454,-22.683096
-917.638160,771.881127,-416.426627,  0.000005, 16.745591,-22.800770
-921.787839,770.051880,-415.421580,  0.000006, 16.684694,-22.918442
-925.937232,768.217332,-414.413214,  0.000004, 16.623764,-23.036110
-930.086372,766.377033,-413.401526,  0.000005, 16.562803,-23.153772
-934.235284,764.530535,-412.386502,  0.000006, 16.501812,-23.271426
-938.383992,762.677353,-411.368137,  0.000005, 16.440794,-23.389071
-942.532512,760.817038,-410.346425,  0.000005, 16.379749,-23.506705
-946.680819,758.949091,-409.321353,  0.000006, 16.318679,-23.624327
-950.828918,757.073054,-408.292916,  0.000005, 16.257586,-23.741934
-954.976785,755.188421,-407.261106,  0.000006, 16.196471,-23.859524
-959.124377,753.294721,-406.225915,  0.000006, 16.135336,-23.977096
-963.271658,751.391464,-405.187335,  0.000005, 16.074184,-24.094649
-967.418587,749.478194,-404.145359,  0.000006, 16.013015,-24.212179
-971.565081,747.554431,-403.099980,  0.000006, 15.951830,-24.329686
-975.711074,745.619695,-402.051192,  0.000005, 15.890634,-24.447168
-979.856485,743.673560,-400.998987,  0.000006, 15.829426,-24.564622
-984.001216,741.715566,-399.943358,  0.000006, 15.768208,-24.682046
-988.145163,739.745283,-398.884301,  0.000005, 15.706982,-24.799440
-992.288219,737.762302,-397.821808,  0.000005, 15.645750,-24.916800
-996.430260,735.766222,-396.755876,  0.000006, 15.584513,-25.034126
-1000.571149,733.756656,-395.686502,  0.000005, 15.523273,-25.151414
-1004.710744,731.733247,-394.613676,  0.000005, 15.462031,-25.268664
-1008.848902,729.695646,-393.537398,  0.000006, 15.400789,-25.385873
-1012.985477,727.643537,-392.457662,  0.000007, 15.339548,-25.503039
-1017.120288,725.576610,-391.374466,  0.000005, 15.278310,-25.620160
-1021.253186,723.494582,-390.287811,  0.000006, 15.217076,-25.737234
-1025.383979,721.397214,-389.197688,  0.000006, 15.155846,-25.854260
-1029.512495,719.284282,-388.104100,  0.000007, 15.094623,-25.971235
-1033.638543,717.155558,-387.007046,  0.000005, 15.033407,-26.088158
-1037.761943,715.010882,-385.906521,  0.000006, 14.972200,-26.205025
-1041.882498,712.850101,-384.802532,  0.000006, 14.911003,-26.321836
-1046.000011,710.673093,-383.695072,  0.000007, 14.849816,-26.438588
-1050.114292,708.479759,-382.584147,  0.000005, 14.788640,-26.555280
-1054.225117,706.270031,-381.469759,  0.000006, 14.727477,-26.671908
-1058.332307,704.043872,-380.351905,  0.000006, 14.666325,-26.788471
-1062.435651,701.801269,-379.230593,  0.000007, 14.605189,-26.904968
-1066.534948,699.542238,-378.105825,  0.000007, 14.544066,-27.021396
-1070.630002,697.266817,-376.977601,  0.000005, 14.482958,-27.137752
-1074.720604,694.975074,-375.845931,  0.000006, 14.421867,-27.254036
-1078.806565,692.667098,-374.710815,  0.000006, 14.360790,-27.370244
-1082.887683,690.343030,-373.572259,  0.000007, 14.299731,-27.486375
-1086.963777,688.002996,-372.430272,  0.000007, 14.238689,-27.602427
-1091.034643,685.647171,-371.284857,  0.000006, 14.177664,-27.718397
-1095.100101,683.275761,-370.136023,  0.000006, 14.116657,-27.834283
-1099.159969,680.888962,-368.983775,  0.000006, 14.055669,-27.950084
-1103.214068,678.487033,-367.828123,  0.000007, 13.994699,-28.065797
-1107.262232,676.070220,-366.669071,  0.000007, 13.933748,-28.181420
-1111.304310,673.638807,-365.506634,  0.000007, 13.872817,-28.296952
-1115.340115,671.193087,-364.340815,  0.000006, 13.811906,-28.412389
-1119.369524,668.733387,-363.171626,  0.000006, 13.751014,-28.527729
-1123.392358,666.260016,-361.999076,  0.000006, 13.690143,-28.642971
-1127.408512,663.773327,-360.823178,  0.000007, 13.629293,-28.758113
-1131.417825,661.273678,-359.643940,  0.000007, 13.568465,-28.873152
-1135.420189,658.761441,-358.461371,  0.000007, 13.507658,-28.988086
-1139.415486,656.236978,-357.275484,  0.000008, 13.446874,-29.102913
-1143.403580,653.700701,-356.086293,  0.000008, 13.386112,-29.217631
-1147.384400,651.152969,-354.893805,  0.000006, 13.325372,-29.332237
-1151.357842,648.594213,-353.698033,  0.000006, 13.264658,-29.446729
-1155.323794,646.024809,-352.498990,  0.000006, 13.203967,-29.561106
-1159.282200,643.445178,-351.296688,  0.000007, 13.143301,-29.675364
-1163.232981,640.855705,-350.091140,  0.000007, 13.082661,-29.789503
-1167.176052,638.256815,-348.882360,  0.000007, 13.022047,-29.903519
-1171.111367,635.648899,-347.670356,  0.000007, 12.961460,-30.017410
-1175.038864,633.032345,-346.455143,  0.000007, 12.900901,-30.131174
-1178.958493,630.407553,-345.236737,  0.000008, 12.840371,-30.244809
-1182.870221,627.774892,-344.015147,  0.000008, 12.779870,-30.358312
-1186.773997,625.134766,-342.790387,  0.000008, 12.719399,-30.471681
-1190.669806,622.487520,-341.562470,  0.000008, 12.658960,-30.584915
-1194.557604,619.833505,-340.331411,  0.000008, 12.598552,-30.698010
-1198.437369,617.173061,-339.097220,  0.000008, 12.538178,-30.810964
-1202.309087,614.506532,-337.859910,  0.000008, 12.477839,-30.923775
-1206.172755,611.834210,-336.619497,  0.000008, 12.417535,-31.036441
-1210.028336,609.156414,-335.375992,  0.000009, 12.357268,-31.148959
-1213.875844,606.473409,-334.129406,  0.000009, 12.297038,-31.261328
-1217.715257,603.785459,-332.879755,  0.000009, 12.236847,-31.373543
-1221.546579,601.092800,-331.627049,  0.000006, 12.176696,-31.485605
-1225.369801,598.395673,-330.371301,  0.000006, 12.116587,-31.597509
-1229.184928,595.694267,-329.112524,  0.000006, 12.056519,-31.709254
-1232.991952,592.988775,-327.850728,  0.000008, 11.996496,-31.820837
-1236.790875,590.279350,-326.585927,  0.000008, 11.936517,-31.932255
-1240.581688,587.566133,-325.318130,  0.000008, 11.876585,-32.043507
-1244.364403,584.849248,-324.047352,  0.000008, 11.816700,-32.154590
-1248.138996,582.128787,-322.773602,  0.000008, 11.756863,-32.265502
-1251.905475,579.404819,-321.496890,  0.000008, 11.697077,-32.376239
-1255.663823,576.677394,-320.217229,  0.000008, 11.637341,-32.486801
-1259.414043,573.946554,-318.934629,  0.000008, 11.577659,-32.597183
-1263.156113,571.212283,-317.649099,  0.000008, 11.518029,-32.707384
-1266.890006,568.474579,-316.360651,  0.000008, 11.458454,-32.817402
-1270.615716,565.733388,-315.069291,  0.000007, 11.398934,-32.927233
-1274.333221,562.988667,-313.775034,  0.000007, 11.339472,-33.036876
-1278.042483,560.240332,-312.477885,  0.000007, 11.280067,-33.146328
-1281.743461,557.488267,-311.177855,  0.000007, 11.220721,-33.255586
-1285.436130,554.732363,-309.874952,  0.000007, 11.161436,-33.364648
-1289.120453,551.972477,-308.569184,  0.000007, 11.102211,-33.473511
-1292.796362,549.208441,-307.260561,  0.000006, 11.043048,-33.582174
-1296.463820,546.440079,-305.949088,  0.000006, 10.983948,-33.690633
-1300.122750,543.667213,-304.634776,  0.000008, 10.924912,-33.798885
-1303.773107,540.889612,-303.317632,  0.000008, 10.865939,-33.906929
-1307.414814,538.107058,-301.997662,  0.000008, 10.807033,-34.014762
-1311.047782,535.319328,-300.674874,  0.000007, 10.748192,-34.122382
-1314.671948,532.526143,-299.349272,  0.000007, 10.689417,-34.229785
-1318.287213,529.727258,-298.020867,  0.000007, 10.630709,-34.336969
-1321.893494,526.922395,-296.689663,  0.000007, 10.572070,-34.443932
-1325.490669,524.111279,-295.355665,  0.000007, 10.513499,-34.550671
-1329.078649,521.293616,-294.018882,  0.000008, 10.454996,-34.657184
-1332.657327,518.469105,-292.679318,  0.000008, 10.396564,-34.763468
-1336.226593,515.637441,-291.336980,  0.000008, 10.338200,-34.869521
-1339.786296,512.798337,-289.991871,  0.000008, 10.279907,-34.975340
-1343.336345,509.951468,-288.643997,  0.000007, 10.221685,-35.080922
-1346.876594,507.096532,-287.293368,  0.000007, 10.163534,-35.186265
-1350.406897,504.233216,-285.939983,  0.000007, 10.105453,-35.291366
-1353.927141,501.361215,-284.583850,  0.000009, 10.047444,-35.396223
-1357.437161,498.480232,-283.224973,  0.000008,  9.989508,-35.500833
-1360.936830,495.589958,-281.863358,  0.000008,  9.931643,-35.605194
-1364.425968,492.690101,-280.499010,  0.000008,  9.873851,-35.709303
-1367.904455,489.780362,-279.131934,  0.000007,  9.816132,-35.813157
-1371.372112,486.860462,-277.762133,  0.000009,  9.758484,-35.916755
-1374.828794,483.930140,-276.389612,  0.000009,  9.700911,-36.020092
-1378.274333,480.989121,-275.014379,  0.000008,  9.643410,-36.123168
-1381.708574,478.037165,-273.636435,  0.000008,  9.585983,-36.225978
-1385.131349,475.074026,-272.255788,  0.000008,  9.528630,-36.328521
-1388.542483,472.099464,-270.872439,  0.000009,  9.471350,-36.430794
-1391.941835,469.113292,-269.486397,  0.000009,  9.414145,-36.532795
-1395.329221,466.115295,-268.097666,  0.000009,  9.357014,-36.634520
-1398.704494,463.105291,-266.706252,  0.000008,  9.299958,-36.735968
-1402.067463,460.083114,-265.312156,  0.000010,  9.242976,-36.837135
-1405.417989,457.048613,-263.915390,  0.000009,  9.186070,-36.938019
-1408.755888,454.001664,-262.515953,  0.000009,  9.129239,-37.038618
-1412.081015,450.942160,-261.113856,  0.000008,  9.072484,-37.138928
-1415.393208,447.869984,-259.709103,  0.000010,  9.015804,-37.238948
-1418.692309,444.785073,-258.301698,  0.000010,  8.959201,-37.338675
-1421.978152,441.687380,-256.891649,  0.000009,  8.902675,-37.438105
-1425.250603,438.576839,-255.478965,  0.000008,  8.846226,-37.537237
-1428.509496,435.453460,-254.063649,  0.000010,  8.789854,-37.636068
-1431.754696,432.317224,-252.645710,  0.000010,  8.733560,-37.734595
-1434.986062,429.168162,-251.225153,  0.000009,  8.677345,-37.832815
-1438.203436,426.006321,-249.801987,  0.000011,  8.621208,-37.930727
-1441.406702,422.831743,-248.376220,  0.000010,  8.565150,-38.028327
-1444.595717,419.644520,-246.947859,  0.000009,  8.509172,-38.125613
-1447.770355,416.444747,-245.516910,  0.000011,  8.453274,-38.222582
-1450.930488,413.232547,-244.083387,  0.000010,  8.397457,-38.319231
-1454.076004,410.008044,-242.647293,  0.000009,  8.341721,-38.415559
-1457.206790,406.771401,-241.208640,  0.000011,  8.286067,-38.511561
-1460.322727,403.522770,-239.767438,  0.000010,  8.230494,-38.607237
-1463.423716,400.262361,-238.323694,  0.000009,  8.175005,-38.702582
-1466.509643,396.990351,-236.877420,  0.000011,  8.119599,-38.797595
-1469.580424,393.706960,-235.428624,  0.000010,  8.064276,-38.892273
-1472.635947,390.412433,-233.977318,  0.000009,  8.009038,-38.986613
-1475.676146,387.107010,-232.523512,  0.000011,  7.953886,-39.080613
-1478.700925,383.790938,-231.067217,  0.000010,  7.898818,-39.174269
-1481.710195,380.464484,-229.608446,  0.000009,  7.843837,-39.267580
-1484.703888,377.127920,-228.147209,  0.000010,  7.788942,-39.360543
-1487.681931,373.781560,-226.683517,  0.000010,  7.734134,-39.453155
-1490.644247,370.425670,-225.217382,  0.000009,  7.679414,-39.545413
-1493.590777,367.060569,-223.748821,  0.000010,  7.624782,-39.637315
-1496.521457,363.686552,-222.277841,  0.000009,  7.570238,-39.728859
-1499.436232,360.303962,-220.804458,  0.000011,  7.515783,-39.820041
-1502.335039,356.913092,-219.328685,  0.000010,  7.461418,-39.910859
-1505.217834,353.514269,-217.850536,  0.000009,  7.407142,-40.001311
-1508.084546,350.107827,-216.370025,  0.000010,  7.352957,-40.091393
-1510.935154,346.694072,-214.887162,  0.000009,  7.298862,-40.181104
-1513.769586,343.273351,-213.401968,  0.000010,  7.244858,-40.270441
-1516.587809,339.845979,-211.914453,  0.000009,  7.190945,-40.359400
-1519.389773,336.412276,-210.424633,  0.000008,  7.137123,-40.447980
-1522.175446,332.972550,-208.932523,  0.000010,  7.083393,-40.536178
-1524.944785,329.527123,-207.438140,  0.000009,  7.029755,-40.623991
-1527.697744,326.076303,-205.941497,  0.000010,  6.976209,-40.711417
-1530.434279,322.620399,-204.442610,  0.000009,  6.922755,-40.798453
-1533.154361,319.159691,-202.941495,  0.000010,  6.869393,-40.885097
-1535.857955,315.694459,-201.438168,  0.000009,  6.816124,-40.971346
-1538.545005,312.225000,-199.932648,  0.000010,  6.762946,-41.057197
-1541.215481,308.751569,-198.424948,  0.000009,  6.709861,-41.142647
-1543.869346,305.274415,-196.915086,  0.000008,  6.656869,-41.227696
-1546.506539,301.793783,-195.403077,  0.000009,  6.603969,-41.312338
-1549.127041,298.309929,-193.888940,  0.000008,  6.551161,-41.396574
-1551.730796,294.823032,-192.372691,  0.000009,  6.498445,-41.480399
-1554.317754,291.333331,-190.854346,  0.000008,  6.445821,-41.563811
-1556.887874,287.841009,-189.333923,  0.000010,  6.393289,-41.646807
-1559.441110,284.346226,-187.811442,  0.000008,  6.340848,-41.729386
-1561.977401,280.849165,-186.286914,  0.000010,  6.288499,-41.811544
-1564.496703,277.349975,-184.760362,  0.000009,  6.236242,-41.893280
-1566.998947,273.848770,-183.231802,  0.000010,  6.184075,-41.974590
-1569.484090,270.345683,-181.701248,  0.000009,  6.131999,-42.055472
-1571.952054,266.840805,-180.168722,  0.000010,  6.080013,-42.135924
-1574.402797,263.334221,-178.634241,  0.000009,  6.028117,-42.215943
-1576.836232,259.826016,-177.097819,  0.000010,  5.976312,-42.295527
-1579.252295,256.316240,-175.559477,  0.000009,  5.924596,-42.374672
-1581.650923,252.804916,-174.019233,  0.000010,  5.872968,-42.453378
-1584.032041,249.292079,-172.477099,  0.000009,  5.821430,-42.531641
-1586.395551,245.777738,-170.933099,  0.000010,  5.769981,-42.609459
-1588.741406,242.261890,-169.387247,  0.000011,  5.718620,-42.686829
-1591.069495,238.744508,-167.839563,  0.000010,  5.667346,-42.763750
-1593.379748,235.225552,-166.290061,  0.000011,  5.616160,-42.840218
-1595.672068,231.704993,-164.738762,  0.000010,  5.565061,-42.916231
-1597.946361,228.182744,-163.185679,  0.000011,  5.514049,-42.991787
-1600.202557,224.658754,-161.630834,  0.000010,  5.463124,-43.066884
-1602.440527,221.132928,-160.074241,  0.000011,  5.412285,-43.141518
-1604.660202,217.605168,-158.515918,  0.000009,  5.361532,-43.215689
-1606.861479,214.075370,-156.955881,  0.000010,  5.310864,-43.289393
-1609.044231,210.543408,-155.394151,  0.000011,  5.260281,-43.362627
-1611.208381,207.009160,-153.830740,  0.000010,  5.209783,-43.435391
-1613.353817,203.472507,-152.265668,  0.000011,  5.159370,-43.507680
-1615.480440,199.933290,-150.698948,  0.000010,  5.109042,-43.579494
-1617.588116,196.391364,-149.130602,  0.000011,  5.058797,-43.650829
-1619.676774,192.846569,-147.560643,  0.000010,  5.008635,-43.721684
-1621.746271,189.298763,-145.989087,  0.000011,  4.958558,-43.792056
-1623.799634,185.738968,-144.413968,  0.000011,  4.908447,-43.862018
-1625.839742,182.158431,-142.833368,  0.000010,  4.858189,-43.931642
-1627.869250,178.548670,-141.245428,  0.000011,  4.807677,-44.000992
-1629.890662,174.901484,-139.648351,  0.000010,  4.756806,-44.070130
-1631.906266,171.208996,-138.040410,  0.000011,  4.705479,-44.139109
-1633.918149,167.463683,-136.419952,  0.000012,  4.653607,-44.207981
-1635.928176,163.658434,-134.785403,  0.000010,  4.601107,-44.276788
-1637.937973,159.786497,-133.135270,  0.000011,  4.547904,-44.345567
-1639.948966,155.841622,-131.468152,  0.000012,  4.493933,-44.414349
-1641.962327,151.818003,-129.782738,  0.000010,  4.439137,-44.483157
-1643.978999,147.710310,-128.077806,  0.000011,  4.383470,-44.552009
-1645.999668,143.513723,-126.352246,  0.000012,  4.326894,-44.620914
-1648.024803,139.223991,-124.605037,  0.000011,  4.269384,-44.689874
-1650.054611,134.837339,-122.835268,  0.000011,  4.210924,-44.758887
-1652.089082,130.350610,-121.042133,  0.000010,  4.151506,-44.827941
-1654.127943,125.761183,-119.224936,  0.000011,  4.091136,-44.897020
-1656.170720,121.067029,-117.383087,  0.000012,  4.029828,-44.966099
-1658.216713,116.266677,-115.516107,  0.000010,  3.967605,-45.035151
-1660.264983,111.359273,-113.623636,  0.000011,  3.904503,-45.104139
-1662.314387,106.344551,-111.705414,  0.000012,  3.840563,-45.173024
-1664.363601,101.222812,-109.761300,  0.000010,  3.775838,-45.241759
-1666.411085, 95.994967,-107.791264,  0.000011,  3.710387,-45.310296
-1668.455136, 90.662484,-105.795385,  0.000011,  3.644280,-45.378581
-1670.493887, 85.227428,-103.773852,  0.000012,  3.577589,-45.446557
-1672.525276, 79.692405,-101.726965,  0.000011,  3.510397,-45.514164
-1674.547161, 74.060596,-99.655129,  0.000011,  3.442790,-45.581339
-1676.557209, 68.335695,-97.558850,  0.000012,  3.374860,-45.648018
-1678.552997, 62.521930,-95.438742,  0.000010,  3.306702,-45.714134
-1680.532030, 56.624020,-93.295519,  0.000011,  3.238416,-45.779622
-1682.491685, 50.647181,-91.129990,  0.000012,  3.170102,-45.844415
-1684.429283, 44.597064,-88.943052,  0.000010,  3.101864,-45.908446
-1686.342085, 38.479775,-86.735706,  0.000011,  3.033806,-45.971648
-1688.227348, 32.301819,-84.509025,  0.000011,  2.966031,-46.033958
-1690.082250, 26.070102,-82.264177,  0.000012,  2.898641,-46.095313
-1691.904010, 19.791853,-80.002403,  0.000010,  2.831738,-46.155652
-1693.689843, 13.474658,-77.725017,  0.000011,  2.765420,-46.214917
-1695.436958,  7.126358,-75.433408,  0.000011,  2.699782,-46.273054
-1697.142644,  0.755097,-73.129024,  0.000010,  2.634915,-46.330011
-1698.804235, -5.630773,-70.813382,  0.000010,  2.570905,-46.385741
-1700.419106,-12.022707,-68.488044,  0.000011,  2.507834,-46.440200
-1701.984745,-18.411998,-66.154633,  0.000011,  2.445775,-46.493350
-1703.498730,-24.789796,-63.814809,  0.000010,  2.384800,-46.545155
-1704.958748,-31.147179,-61.470280,  0.000010,  2.324969,-46.595587
-1706.362582,-37.475177,-59.122780,  0.000011,  2.266337,-46.644621
-1707.708190,-43.764752,-56.774078,  0.000011,  2.208951,-46.692238
-1708.993640,-50.006932,-54.425965,  0.000010,  2.152849,-46.738422
-1710.217179,-56.192771,-52.080249,  0.000010,  2.098064,-46.783165
-1711.377165,-62.313416,-49.738758,  0.000011,  2.044619,-46.826462
-1712.472208,-68.360106,-47.403317,  0.000011,  1.992526,-46.868316
-1713.501011,-74.324248,-45.075761,  0.000009,  1.941794,-46.908731
-1714.462512,-80.197464,-42.757916,  0.000010,  1.892420,-46.947719
-1715.355823,-85.971532,-40.451607,  0.000011,  1.844394,-46.985294
-1716.180255,-91.638514,-38.158635,  0.000011,  1.797699,-47.021478
-1716.935299,-97.190757,-35.880790,  0.000012,  1.752309,-47.056295
-1717.620652,-102.620886,-33.619834,  0.000010,  1.708191,-47.089773
-1718.236227,-107.921875,-31.377502,  0.000010,  1.665306,-47.121945
-1718.782103,-113.087058,-29.155494,  0.000011,  1.623607,-47.152845
-1719.258590,-118.110140,-26.955470,  0.000011,  1.583042,-47.182513
-1719.666174,-122.985252,-24.779048,  0.000012,  1.543555,-47.210991
-1720.005556,-127.706936,-22.627799,  0.000010,  1.505081,-47.238323
-1720.277589,-132.270182,-20.503244,  0.000010,  1.467554,-47.264554
-1720.483369,-136.670455,-18.406842,  0.000011,  1.430904,-47.289733
-1720.624126,-140.903711,-16.340001,  0.000011,  1.395056,-47.313908
-1720.701275,-144.966359,-14.304060,  0.000012,  1.359933,-47.337131
-1720.716426,-148.855362,-12.300295,  0.000010,  1.325458,-47.359451
-1720.671303,-152.568189,-10.329906,  0.000011,  1.291549,-47.380921
-1720.567837,-156.102805, -8.394027,  0.000011,  1.258128,-47.401590
-1720.408043,-159.457743, -6.493715,  0.000011,  1.225114,-47.421509
-1720.194105,-162.632063, -4.629950,  0.000012,  1.192427,-47.440729
-1719.928336,-165.625358, -2.803628,  0.000010,  1.159989,-47.459297
-1719.613135,-168.437751, -1.015565,  0.000010,  1.127725,-47.477261
-1719.251004,-171.069925,  0.733507,  0.000011,  1.095561,-47.494666
-1718.844571,-173.523067,  2.442938,  0.000011,  1.063425,-47.511555
-1718.396495,-175.798910,  4.112169,  0.000012,  1.031251,-47.527969
-1717.909521,-177.899702,  5.740729,  0.000010,  0.998975,-47.543948
-1717.386453,-179.828211,  7.328231,  0.000010,  0.966540,-47.559527
-1716.830130,-181.587670,  8.874380,  0.000011,  0.933891,-47.574741
-1716.243409,-183.181844, 10.378973,  0.000011,  0.900980,-47.589617
-1715.629175,-184.614915, 11.841890,  0.000011,  0.867763,-47.604186
-1714.990315,-185.891581, 13.263104,  0.000012,  0.834205,-47.618469
-1714.329719,-187.016913, 14.642676,  0.000010,  0.800270,-47.632489
-1713.650221,-187.996440, 15.980754,  0.000010,  0.765937,-47.646263
-1712.954657,-188.836074, 17.277577,  0.000011,  0.731185,-47.659805
-1712.245805,-189.542085, 18.533463,  0.000011,  0.696000,-47.673128
-1711.526392,-190.121131, 19.748821,  0.000011,  0.660375,-47.686238
-1710.799064,-190.580143, 20.924139,  0.000012,  0.624308,-47.699141
-1710.066427,-190.926410, 22.059986,  0.000012,  0.587806,-47.711840
-1709.330957,-191.167441, 23.157017,  0.000010,  0.550879,-47.724332
-1708.595058,-191.311026, 24.215956,  0.000011,  0.513541,-47.736616
-1707.861029,-191.365162, 25.237609,  0.000011,  0.475814,-47.748684
-1707.131053,-191.338034, 26.222846,  0.000011,  0.437724,-47.760528
-1706.407193,-191.238013, 27.172616,  0.000012,  0.399302,-47.772137
-1705.691374,-191.073556, 28.087933,  0.000012,  0.360583,-47.783499
-1704.985413,-190.853261, 28.969869,  0.000012,  0.321604,-47.794598
-1704.290974,-190.585801, 29.819567,  0.000010,  0.282410,-47.805419
-1703.609576,-190.279872, 30.638220,  0.000011,  0.243042,-47.815945
-1702.942574,-189.944201, 31.427080,  0.000011,  0.203549,-47.826156
-1702.291219,-189.587493, 32.187453,  0.000011,  0.163981,-47.836034
-1701.656564,-189.218435, 32.920689,  0.000011,  0.124386,-47.845557
-1701.039528,-188.845604, 33.628185,  0.000012,  0.084818,-47.854705
-1700.440854,-188.477515, 34.311379,  0.000012,  0.045328,-47.863458
-1699.861169,-188.122567, 34.971747,  0.000010,  0.005966,-47.871795
-1699.300902,-187.788958, 35.610801,  0.000010, -0.033216,-47.879695
-1698.760342,-187.484769, 36.230080,  0.000011, -0.072167,-47.887139
-1698.239627,-187.217843, 36.831152,  0.000011, -0.110841,-47.894106
-1697.738738,-186.995832, 37.415611,  0.000011, -0.149190,-47.900579
-1697.257535,-186.826120, 37.985066,  0.000011, -0.187172,-47.906540
-1696.795688,-186.715842, 38.541148,  0.000012, -0.224745,-47.911973
-1696.352756,-186.671848, 39.085494,  0.000012, -0.261872,-47.916864
-1695.928176,-186.700691, 39.619755,  0.000010, -0.298519,-47.921198
-1695.521216,-186.808580, 40.145588,  0.000010, -0.334657,-47.924964
-1695.131066,-187.001427, 40.664651,  0.000010, -0.370260,-47.928151
-1694.756760,-187.284782, 41.178597,  0.000011, -0.405308,-47.930752
-1694.397259,-187.663840, 41.689084,  0.000011, -0.439783,-47.932761
-1694.051381,-188.143419, 42.197755,  0.000011, -0.473676,-47.934171
-1693.717875,-188.727972, 42.706246,  0.000011, -0.506978,-47.934982
-1693.395410,-189.421558, 43.216179,  0.000012, -0.539691,-47.935191
-1693.082545,-190.227848, 43.729158,  0.000010, -0.571817,-47.934800
-1692.777789,-191.150141, 44.246773,  0.000010, -0.603366,-47.933811
-1692.479597,-192.191304, 44.770588,  0.000010, -0.634352,-47.932230
-1692.186352,-193.353829, 45.302145,  0.000010, -0.664795,-47.930063
-1691.896382,-194.639833, 45.842960,  0.000011, -0.694718,-47.927318
-1691.608010,-196.051002, 46.394517,  0.000011, -0.724152,-47.924004
-1691.319510,-197.588652, 46.958276,  0.000011, -0.753130,-47.920132
-1691.029126,-199.253746, 47.535662,  0.000011, -0.781690,-47.915716
-1690.735117,-201.046830, 48.128065,  0.000012, -0.809875,-47.910768
-1690.435708,-202.968124, 48.736841,  0.000010, -0.837731,-47.905303
-1690.129150,-205.017470, 49.363308,  0.000010, -0.865308,-47.899336
-1689.813688,-207.194370, 50.008745,  0.000010, -0.892659,-47.892885
-1689.487611,-209.498042, 50.674395,  0.000010, -0.919841,-47.885964
-1689.149210,-211.927330, 51.361461,  0.000010, -0.946912,-47.878593
-1688.796803,-214.480832, 52.071101,  0.000011, -0.973931,-47.870788
-1688.428785,-217.156827, 52.804436,  0.000011, -1.000964,-47.862566
-1688.043561,-219.953381, 53.562542,  0.000011, -1.028072,-47.853945
-1687.639592,-222.868286, 54.346459,  0.000011, -1.055322,-47.844942
-1687.215386,-225.899122, 55.157181,  0.000009, -1.082779,-47.835573
-1686.769538,-229.043279, 55.995655,  0.000010, -1.110508,-47.825855
-1686.300691,-232.297940, 56.862800,  0.000010, -1.138577,-47.815801
-1685.807537,-235.660175, 57.759480,  0.000010, -1.167050,-47.805427
-1685.288868,-239.126897, 58.686529,  0.000010, -1.195991,-47.794744
-1684.743522,-242.694916, 59.644734,  0.000011, -1.225463,-47.783765
-1684.170435,-246.360953, 60.634846,  0.000011, -1.255528,-47.772500
-1683.568578,-250.121679, 61.657581,  0.000011, -1.286246,-47.760957
-1682.937049,-253.973732, 62.713613,  0.000011, -1.317674,-47.749143
-1682.274991,-257.913725, 63.803586,  0.000009, -1.349868,-47.737063
-1681.581620,-261.938291, 64.928106,  0.000010, -1.382880,-47.724721
-1680.856227,-266.044105, 66.087749,  0.000010, -1.416759,-47.712118
-1680.098194,-270.227885, 67.283057,  0.000010, -1.451553,-47.699252
-1679.306945,-274.486469, 68.514547,  0.000010, -1.487305,-47.686121
-1678.481988,-278.816768, 69.782707,  0.000011, -1.524055,-47.672720
-1677.622888,-283.209516, 71.086607,  0.000011, -1.561765,-47.659042
-1676.729341,-287.655584, 72.425288,  0.000011, -1.600396,-47.645079
-1675.801130,-292.146030, 73.797771,  0.000011, -1.639902,-47.630820
-1674.838179,-296.672099, 75.203057,  0.000012, -1.680237,-47.616258
-1673.840507,-301.225297, 76.640126,  0.000010, -1.721352,-47.601382
-1672.808253,-305.797367, 78.107947,  0.000010, -1.763196,-47.586181
-1671.741623,-310.380353, 79.605474,  0.000010, -1.805715,-47.570642
-1670.640959,-314.966591, 81.131653,  0.000010, -1.848857,-47.554754
-1669.506644,-319.548760, 82.685420,  0.000011, -1.892567,-47.538504
-1668.339168,-324.119899, 84.265709,  0.000011, -1.936791,-47.521878
-1667.139078,-328.673401, 85.871449,  0.000011, -1.981474,-47.504863
-1665.906995,-333.203073, 87.501572,  0.000011, -2.026563,-47.487442
-1664.643616,-337.703101, 89.155015,  0.000012, -2.072008,-47.469602
-1663.349630,-342.168133, 90.830710,  0.000010, -2.117756,-47.451326
-1662.025851,-346.593214, 92.527611,  0.000010, -2.163759,-47.432600
-1660.673057,-350.973842, 94.244667,  0.000010, -2.209972,-47.413406
-1659.292088,-355.305986, 95.980851,  0.000010, -2.256349,-47.393729
-1657.883799,-359.586061, 97.735142,  0.000011, -2.302853,-47.373551
-1656.449076,-363.810957, 99.506539,  0.000011, -2.349443,-47.352856
-1654.988783,-367.978025,101.294056,  0.000011, -2.396088,-47.331628
-1653.503782,-372.085098,103.096728,  0.000011, -2.442756,-47.309849
-1651.994962,-376.130461,104.913612,  0.000011, -2.489422,-47.287502
-1650.463166,-380.112904,106.743789,  0.000010, -2.536063,-47.264572
-1648.909205,-384.031646,108.586358,  0.000010, -2.582661,-47.241041
-1647.333907,-387.886378,110.440452,  0.000010, -2.629202,-47.216894
-1645.738023,-391.677255,112.305227,  0.000010, -2.675676,-47.192114
-1644.122288,-395.404834,114.179868,  0.000010, -2.722078,-47.166686
-1642.487378,-399.070162,116.063589,  0.000011, -2.768407,-47.140594
-1640.833931,-402.674644,117.955633,  0.000011, -2.814665,-47.113824
-1639.162507,-406.220129,119.855279,  0.000011, -2.860858,-47.086361
-1637.473649,-409.708840,121.761834,  0.000011, -2.906999,-47.058192
-1635.767801,-413.143367,123.674636,  0.000009, -2.953100,-47.029303
-1634.045361,-416.526653,125.593060,  0.000010, -2.999180,-46.999682
-1632.306637,-419.861972,127.516513,  0.000010, -3.045260,-46.969316
-1630.551875,-423.152909,129.444432,  0.000010, -3.091364,-46.938195
-1628.781278,-426.403342,131.376294,  0.000010, -3.137519,-46.906306
-1626.994921,-429.617417,133.311604,  0.000011, -3.183753,-46.873641
-1625.192849,-432.799499,135.249906,  0.000011, -3.230098,-46.840190
-1623.375002,-435.954202,137.190770,  0.000011, -3.276587,-46.805944
-1621.541268,-439.086310,139.133808,  0.000009, -3.323255,-46.770894
-1619.691430,-442.200767,141.078659,  0.000009, -3.370137,-46.735035
-1617.825229,-445.302685,143.024995,  0.000010, -3.417271,-46.698359
-1615.942309,-448.397251,144.972519,  0.000010, -3.464692,-46.660860
-1614.042249,-451.489762,146.920968,  0.000010, -3.512438,-46.622533
-1612.124557,-454.585562,148.870105,  0.000010, -3.560546,-46.583374
-1610.188697,-457.690017,150.819725,  0.000011, -3.609050,-46.543378
-1608.234027,-460.808533,152.769651,  0.000011, -3.657988,-46.502543
-1606.259879,-463.946435,154.719730,  0.000009, -3.707392,-46.460866
-1604.265526,-467.109048,156.669843,  0.000009, -3.757294,-46.418345
-1602.250180,-470.301588,158.619883,  0.000010, -3.807726,-46.374978
