SHIH-XIAN-YANG/Robotic-vitual-system/run/exp8/log/joint_pos.txt
# Joint1, Joint2, Joint3, Joint4, Joint5, Joint6
  0.000000,  0.000000,  0.000000,  0.000000,  0.000000,  0.000000
  0.005229,  0.004110,  0.000085,  0.000000, -0.003109,  0.000000
  0.026103,  0.020531,  0.000424,  0.000000, -0.015509,  0.000000
  0.067682,  0.053296,  0.001100,  0.000000, -0.040169,  0.000000
  0.129674,  0.102270,  0.002106,  0.000000, -0.076847,  0.000000
  0.211746,  0.167300,  0.003434,  0.000000, -0.125266,  0.000000
  0.313572,  0.248235,  0.005077,  0.000000, -0.185161,  0.000000
  0.434831,  0.344924,  0.007026,  0.000000, -0.256267,  0.000000
  0.575206,  0.457219,  0.009270,  0.000000, -0.338330,  0.000000
  0.734386,  0.584972,  0.011800,  0.000000, -0.431098,  0.000000
  0.912065,  0.728037,  0.014602,  0.000000, -0.534328,  0.000000
  1.107943,  0.886270,  0.017666,  0.000000, -0.647780,  0.000000
  1.321723,  1.059527,  0.020979,  0.000000, -0.771220,  0.000000
  1.553114,  1.247667,  0.024527,  0.000000, -0.904421,  0.000000
  1.801830,  1.450549,  0.028296,  0.000000, -1.047160,  0.000000
  2.067588,  1.668033,  0.032273,  0.000000, -1.199218,  0.000000
  2.350112,  1.899982,  0.036443,  0.000000, -1.360382,  0.000000
  2.649128,  2.146260,  0.040790,  0.000000, -1.530445,  0.000000
  2.964368,  2.406730,  0.045299,  0.000000, -1.709204,  0.000000
  3.295569,  2.681259,  0.049954,  0.000000, -1.896458,  0.000000
  3.642471,  2.969715,  0.054740,  0.000000, -2.092016,  0.000000
  4.004817,  3.271964,  0.059641,  0.000000, -2.295686,  0.000000
  4.382358,  3.587879,  0.064639,  0.000000, -2.507284,  0.000000
  4.774845,  3.917328,  0.069719,  0.000000, -2.726628,  0.000001
  5.182036,  4.260185,  0.074865,  0.000000, -2.953541,  0.000001
  5.603692,  4.616322,  0.080059,  0.000000, -3.187851,  0.000003
  6.039576,  4.985615,  0.085286,  0.000000, -3.429388,  0.000005
  6.489458,  5.367940,  0.090530,  0.000000, -3.677987,  0.000008
  6.953110,  5.763172,  0.095775,  0.000000, -3.933487,  0.000012
  7.430307,  6.171190,  0.101004,  0.000000, -4.195731,  0.000019
  7.920830,  6.591874,  0.106203,  0.000000, -4.464564,  0.000028
  8.424462,  7.025104,  0.111356,  0.000000, -4.739835,  0.000040
  8.940988,  7.470761,  0.116448,  0.000000, -5.021398,  0.000056
  9.470201,  7.928728,  0.121465,  0.000000, -5.309109,  0.000077
 10.011892,  8.398889,  0.126393,  0.000000, -5.602827,  0.000103
 10.565860,  8.881128,  0.131217,  0.000000, -5.902416,  0.000136
 11.131904,  9.375332,  0.135926,  0.000000, -6.207740,  0.000176
 11.709828,  9.881388,  0.140506,  0.000000, -6.518670,  0.000225
 12.299438, 10.399183,  0.144945,  0.000000, -6.835076,  0.000284
 12.900545, 10.928606,  0.149232,  0.000000, -7.156834,  0.000354
 13.512962, 11.469549,  0.153356,  0.000000, -7.483821,  0.000438
 14.136504, 12.021902,  0.157307,  0.000000, -7.815919,  0.000535
 14.770990, 12.585557,  0.161075,  0.000000, -8.153010,  0.000648
 15.416243, 13.160407,  0.164652,  0.000000, -8.494980,  0.000779
 16.072088, 13.746348,  0.168028,  0.000000, -8.841717,  0.000929
 16.738351, 14.343274,  0.171197,  0.000000, -9.193114,  0.001100
 17.414863, 14.951081,  0.174152,  0.000000, -9.549063,  0.001293
 18.101458, 15.569667,  0.176887,  0.000000, -9.909460,  0.001511
 18.797972, 16.198929,  0.179396,  0.000000,-10.274204,  0.001756
 19.504243, 16.838768,  0.181675,  0.000000,-10.643195,  0.002029
 20.220113, 17.489083,  0.183721,  0.000000,-11.016336,  0.002333
 20.945425, 18.149775,  0.185529,  0.000000,-11.393534,  0.002669
 21.680025, 18.820747,  0.187099,  0.000000,-11.774694,  0.003039
 22.423764, 19.501900,  0.188428,  0.000000,-12.159726,  0.003446
 23.176491, 20.193140,  0.189515,  0.000000,-12.548542,  0.003891
 23.938061, 20.894370,  0.190361,  0.000000,-12.941056,  0.004376
 24.708330, 21.605496,  0.190966,  0.000000,-13.337183,  0.004904
 25.487156, 22.326426,  0.191332,  0.000000,-13.736840,  0.005477
 26.274400, 23.057066,  0.191461,  0.000000,-14.139947,  0.006096
 27.069925, 23.797324,  0.191355, -0.000000,-14.546424,  0.006762
 27.873597, 24.547111,  0.191017, -0.000000,-14.956196,  0.007479
 28.685283, 25.306335,  0.190453, -0.000000,-15.369186,  0.008248
 29.504852, 26.074908,  0.189667, -0.000000,-15.785322,  0.009071
 30.332176, 26.852741,  0.188663, -0.000000,-16.204530,  0.009950
 31.167129, 27.639747,  0.187448, -0.000000,-16.626742,  0.010885
 32.009588, 28.435840,  0.186029, -0.000000,-17.051888,  0.011879
 32.859429, 29.240933,  0.184412, -0.000000,-17.479902,  0.012934
 33.716533, 30.054941,  0.182605, -0.000000,-17.910717,  0.014051
 34.580781, 30.877781,  0.180615, -0.000000,-18.344271,  0.015231
 35.452058, 31.709369,  0.178452, -0.000000,-18.780499,  0.016476
 36.330249, 32.549622,  0.176123, -0.000000,-19.219342,  0.017787
 37.215241, 33.398459,  0.173639, -0.000000,-19.660740,  0.019166
 38.106925, 34.255798,  0.171008, -0.000000,-20.104633,  0.020613
 39.005190, 35.121559,  0.168241, -0.000000,-20.550966,  0.022131
 39.909930, 35.995663,  0.165347, -0.000000,-20.999681,  0.023719
 40.821039, 36.878030,  0.162337, -0.000000,-21.450726,  0.025379
 41.738415, 37.768583,  0.159222, -0.000000,-21.904047,  0.027113
 42.661954, 38.667245,  0.156011, -0.000000,-22.359591,  0.028920
 43.591557, 39.573938,  0.152717, -0.000000,-22.817308,  0.030803
 44.527126, 40.488588,  0.149350, -0.000000,-23.277148,  0.032761
 45.468562, 41.411118,  0.145921, -0.000000,-23.739063,  0.034796
 46.415771, 42.341455,  0.142441, -0.000000,-24.203006,  0.036908
 47.368658, 43.279525,  0.138921, -0.000000,-24.668929,  0.039099
 48.327132, 44.225254,  0.135372, -0.000000,-25.136789,  0.041368
 49.291101, 45.178571,  0.131806, -0.000000,-25.606539,  0.043717
 50.260476, 46.139403,  0.128233, -0.000000,-26.078138,  0.046146
 51.235169, 47.107681,  0.124663, -0.000000,-26.551543,  0.048656
 52.215093, 48.083332,  0.121108, -0.000000,-27.026713,  0.051248
 53.200164, 49.066289,  0.117578, -0.000000,-27.503608,  0.053922
 54.190297, 50.055671,  0.114082, -0.000000,-27.982188,  0.056680
 55.185411, 51.048829,  0.110632, -0.000000,-28.462414,  0.059520
 56.185424, 52.042000,  0.107236, -0.000000,-28.944249,  0.062445
 57.190256, 53.031289,  0.103904, -0.000000,-29.427657,  0.065455
 58.199830, 54.012846,  0.100645, -0.000000,-29.912600,  0.068551
 59.214067, 54.982875,  0.097468, -0.000000,-30.399045,  0.071733
 60.232893, 55.937654,  0.094380, -0.000000,-30.886957,  0.075003
 61.256232, 56.873548,  0.091390, -0.000000,-31.376302,  0.078360
 62.284011, 57.787203,  0.088505, -0.000000,-31.867048,  0.081806
 63.316158, 58.676448,  0.085733, -0.000000,-32.359163,  0.085341
 64.352602, 59.540779,  0.083080, -0.000000,-32.852615,  0.088967
 65.393272, 60.380428,  0.080552, -0.000000,-33.347374,  0.092684
 66.438101, 61.195630,  0.078155, -0.000000,-33.843409,  0.096494
 67.487020, 61.986614,  0.075893, -0.000000,-34.340693,  0.100396
 68.539963, 62.753609,  0.073773, -0.000000,-34.839196,  0.104393
 69.596864, 63.496843,  0.071797, -0.000000,-35.338890,  0.108486
 70.657659, 64.216538,  0.069970, -0.000000,-35.839748,  0.112674
 71.722285, 64.912918,  0.068295, -0.000000,-36.341744,  0.116960
 72.790679, 65.586203,  0.066775, -0.000000,-36.844852,  0.121345
 73.862780, 66.236611,  0.065411, -0.000000,-37.349046,  0.125830
 74.938528, 66.864358,  0.064205, -0.000000,-37.854301,  0.130417
 76.017864, 67.469658,  0.063159, -0.000000,-38.360594,  0.135105
 77.100728, 68.052722,  0.062273, -0.000000,-38.867900,  0.139898
 78.187064, 68.613762,  0.061547, -0.000000,-39.376196,  0.144795
 79.276815, 69.152984,  0.060981, -0.000000,-39.885460,  0.149800
 80.369925, 69.670596,  0.060573, -0.000000,-40.395669,  0.154912
 81.466341, 70.166800,  0.060323, -0.000000,-40.906803,  0.160134
 82.566007, 70.641800,  0.060229, -0.000000,-41.418839,  0.165467
 83.668872, 71.095795,  0.060287, -0.000000,-41.931758,  0.170912
 84.774883, 71.528984,  0.060496, -0.000000,-42.445538,  0.176471
 85.883989, 71.941563,  0.060851, -0.000000,-42.960161,  0.182146
 86.995872, 72.333727,  0.061350, -0.000000,-43.475607,  0.187938
 88.108562, 72.705669,  0.061988, -0.000000,-43.991858,  0.193848
 89.217598, 73.057580,  0.062761, -0.000000,-44.508894,  0.199878
 90.317460, 73.389648,  0.063664, -0.000000,-45.026698,  0.206031
 91.402738, 73.702062,  0.064691, -0.000000,-45.545253,  0.212306
 92.468165, 73.995007,  0.065837, -0.000000,-46.064541,  0.218706
 93.508644, 74.268666,  0.067096, -0.000000,-46.584546,  0.225233
 94.519269, 74.523223,  0.068462, -0.000000,-47.105251,  0.231888
 95.495875, 74.758856,  0.069928, -0.000000,-47.626640,  0.238672
 96.436252, 74.975746,  0.071487, -0.000000,-48.148697,  0.245587
 97.340246, 75.174069,  0.073133, -0.000000,-48.671408,  0.252635
 98.208445, 75.354000,  0.074859, -0.000000,-49.194757,  0.259816
 99.041429, 75.515713,  0.076656, -0.000000,-49.718730,  0.267133
 99.839772, 75.659380,  0.078517, -0.000000,-50.243313,  0.274587
100.604037, 75.785172,  0.080435, -0.000000,-50.768491,  0.282180
101.334779, 75.893257,  0.082402, -0.000000,-51.294251,  0.289912
102.032544, 75.983803,  0.084409, -0.000000,-51.820580,  0.297785
102.697867, 76.056974,  0.086449, -0.000000,-52.346659,  0.305800
103.331277, 76.112936,  0.088514, -0.000000,-52.869803,  0.313960
103.933292, 76.151851,  0.090595, -0.000000,-53.386022,  0.322264
104.504424, 76.173880,  0.092684, -0.000000,-53.891161,  0.330715
105.045175, 76.179182,  0.094774, -0.000000,-54.381211,  0.339313
105.556039, 76.167915,  0.096856, -0.000000,-54.852349,  0.348060
106.037503, 76.140236,  0.098922, -0.000000,-55.301742,  0.356957
106.490044, 76.096299,  0.100965, -0.000000,-55.728487,  0.366005
106.914134, 76.036259,  0.102976, -0.000000,-56.132903,  0.375205
107.310235, 75.960267,  0.104947, -0.000000,-56.515498,  0.384559
107.678803, 75.868474,  0.106871, -0.000000,-56.876772,  0.394067
108.020285, 75.761029,  0.108742, -0.000000,-57.217212,  0.403730
108.335123, 75.638080,  0.110550, -0.000000,-57.537293,  0.413550
108.623749, 75.499774,  0.112290, -0.000000,-57.837480,  0.423528
108.886590, 75.346255,  0.113955, -0.000000,-58.118228,  0.433664
109.124066, 75.177667,  0.115537, -0.000000,-58.379981,  0.443960
109.336590, 74.994152,  0.117031, -0.000000,-58.623174,  0.454416
109.524566, 74.795852,  0.118430, -0.000000,-58.848229,  0.465033
109.688396, 74.582906,  0.119728, -0.000000,-59.055562,  0.475814
109.828471, 74.355452,  0.120920, -0.000000,-59.245578,  0.486757
109.945177, 74.113628,  0.122001, -0.000000,-59.418671,  0.497865
110.038896, 73.857568,  0.122965, -0.000000,-59.575230,  0.509138
110.110002, 73.587408,  0.123808, -0.000000,-59.715630,  0.520577
110.158861, 73.303281,  0.124525, -0.000000,-59.840243,  0.532184
110.185836, 73.005318,  0.125111, -0.000000,-59.949427,  0.543958
110.191283, 72.693651,  0.125565, -0.000000,-60.043537,  0.555902
110.175553, 72.368408,  0.125881, -0.000000,-60.122915,  0.568016
110.138989, 72.029718,  0.126056, -0.000000,-60.187900,  0.580300
110.081931, 71.677708,  0.126088, -0.000000,-60.238819,  0.592757
110.004713, 71.312503,  0.125974, -0.000000,-60.275994,  0.605386
109.907661, 70.934229,  0.125713, -0.000000,-60.299739,  0.618190
109.791100, 70.543008,  0.125301, -0.000000,-60.310361,  0.631168
109.655346, 70.138963,  0.124738, -0.000000,-60.308160,  0.644322
109.500711, 69.722216,  0.124022, -0.000000,-60.293428,  0.657653
109.327503, 69.292885,  0.123152, -0.000000,-60.266452,  0.671163
109.136024, 68.851090,  0.122128, -0.000000,-60.227512,  0.684851
108.926571, 68.396949,  0.120949, -0.000000,-60.176881,  0.698719
108.699437, 67.930577,  0.119616, -0.000000,-60.114825,  0.712767
108.454909, 67.452092,  0.118128, -0.000000,-60.041607,  0.726997
108.193270, 66.961606,  0.116486, -0.000000,-59.957482,  0.741409
107.914799, 66.459234,  0.114691, -0.000000,-59.862697,  0.756003
107.619769, 65.945088,  0.112744, -0.000000,-59.757497,  0.770781
107.308450, 65.419278,  0.110647, -0.000000,-59.642120,  0.785741
106.981107, 64.881915,  0.108400, -0.000000,-59.516799,  0.800885
106.638000, 64.333109,  0.106005, -0.000000,-59.381760,  0.816212
106.279387, 63.772966,  0.103465, -0.000000,-59.237226,  0.831723
105.905519, 63.201595,  0.100782, -0.000000,-59.083413,  0.847416
105.516644, 62.619101,  0.097958, -0.000000,-58.920533,  0.863291
105.113007, 62.025589,  0.094996, -0.000000,-58.748794,  0.879347
104.694848, 61.421164,  0.091898, -0.000000,-58.568399,  0.895585
104.262403, 60.805927,  0.088668, -0.000000,-58.379544,  0.912001
103.815904, 60.179983,  0.085308, -0.000000,-58.182423,  0.928597
103.355581, 59.543431,  0.081822, -0.000000,-57.977225,  0.945369
102.881657, 58.896372,  0.078212, -0.000000,-57.764134,  0.962316
102.394355, 58.238905,  0.074483, -0.000000,-57.543332,  0.979438
101.893892, 57.571128,  0.070637, -0.000000,-57.314993,  0.996731
101.380482, 56.893139,  0.066678, -0.000000,-57.079290,  1.014195
100.854336, 56.205512,  0.062610, -0.000000,-56.836392,  1.031826
100.315661, 55.509972,  0.058436, -0.000000,-56.586463,  1.049623
 99.764661, 54.809117,  0.054160, -0.000000,-56.329663,  1.067583
 99.201536, 54.105740,  0.049786, -0.000000,-56.066150,  1.085704
 98.626483, 53.402624,  0.045316, -0.000000,-55.796076,  1.103984
 98.039698, 52.702533,  0.040756, -0.000000,-55.519592,  1.122420
 97.441369, 52.008201,  0.036107, -0.000000,-55.236844,  1.141008
 96.831686, 51.322318,  0.031374, -0.000000,-54.947975,  1.159747
 96.210833, 50.647524,  0.026560, -0.000000,-54.653126,  1.178634
 95.578992, 49.986395,  0.021669, -0.000000,-54.352432,  1.197666
 94.936461, 49.341437,  0.016703, -0.000000,-54.046158,  1.216840
 94.284486, 48.715076,  0.011666, -0.000000,-53.735315,  1.236153
 93.625865, 48.109405,  0.006561, -0.000000,-53.422025,  1.255603
 92.964108, 47.525598,  0.001391, -0.000000,-53.108885,  1.275187
 92.302703, 46.963822, -0.003841, -0.000000,-52.798461,  1.294902
 91.645088, 46.423870, -0.009134, -0.000000,-52.493259,  1.314746
 90.994643, 45.905535, -0.014483, -0.000000,-52.195703,  1.334716
 90.354665, 45.408615, -0.019887, -0.000000,-51.908120,  1.354809
 89.728359, 44.932906, -0.025344, -0.000000,-51.632723,  1.375023
 89.118818, 44.478208, -0.030851, -0.000000,-51.371587,  1.395355
 88.529013, 44.044323, -0.036408, -0.000000,-51.126643,  1.415804
 87.961775, 43.631054, -0.042011, -0.000000,-50.899203,  1.436367
 87.419787, 43.238207, -0.047660, -0.000000,-50.689493,  1.457042
 86.905389, 42.865589, -0.053354, -0.000000,-50.497154,  1.477827
 86.419916, 42.513008, -0.059092, -0.000000,-50.321791,  1.498720
 85.963425, 42.180276, -0.064872, -0.000000,-50.163014,  1.519719
 85.535450, 41.867205, -0.070694, -0.000000,-50.020446,  1.540823
 85.135528, 41.573609, -0.076557, -0.000000,-49.893715,  1.562030
 84.763200, 41.299304, -0.082463, -0.000000,-49.782461,  1.583339
 84.418020, 41.044108, -0.088409, -0.000000,-49.686329,  1.604748
 84.099544, 40.807842, -0.094398, -0.000000,-49.604974,  1.626257
 83.807339, 40.590325, -0.100428, -0.000000,-49.538058,  1.647863
 83.540977, 40.391381, -0.106501, -0.000000,-49.485252,  1.669567
 83.300037, 40.210835, -0.112618, -0.000000,-49.446233,  1.691366
 83.084107, 40.048512, -0.118779, -0.000000,-49.420687,  1.713261
 82.892778, 39.904242, -0.124986, -0.000000,-49.408304,  1.735251
 82.725652, 39.777852, -0.131241, -0.000000,-49.408785,  1.757334
 82.582333, 39.669175, -0.137545, -0.000000,-49.421836,  1.779511
 82.462436, 39.578042, -0.143899, -0.000000,-49.447169,  1.801781
 82.365578, 39.504289, -0.150306, -0.000000,-49.484504,  1.824143
 82.291385, 39.447752, -0.156769, -0.000000,-49.533567,  1.846597
 82.239488, 39.408266, -0.163288, -0.000000,-49.594090,  1.869143
 82.209525, 39.385673, -0.169868, -0.000000,-49.665810,  1.891780
 82.201138, 39.379812, -0.176510, -0.000000,-49.748473,  1.914508
 82.213977, 39.390524, -0.183218, -0.000000,-49.841827,  1.937327
 82.247696, 39.417654, -0.189993, -0.000000,-49.945630,  1.960236
 82.301955, 39.461047, -0.196841, -0.000000,-50.059641,  1.983235
 82.376421, 39.520549, -0.203762, -0.000000,-50.183629,  2.006324
 82.470764, 39.596007, -0.210762, -0.000000,-50.317364,  2.029502
 82.584662, 39.687271, -0.217843, -0.000000,-50.460624,  2.052769
 82.717795, 39.794193, -0.225009, -0.000000,-50.613193,  2.076125
 82.869852, 39.916623, -0.232264, -0.000000,-50.774856,  2.099570
 83.040524, 40.054416, -0.239611, -0.000000,-50.945406,  2.123102
 83.229508, 40.207426, -0.247053, -0.000000,-51.124640,  2.146722
 83.436507, 40.375510, -0.254595, -0.000000,-51.312360,  2.170428
 83.661227, 40.558525, -0.262240, -0.000000,-51.508240,  2.194221
 83.903380, 40.756330, -0.269993, -0.000000,-51.711420,  2.218099
 84.162682, 40.968786, -0.277857, -0.000000,-51.920353,  2.242061
 84.438855, 41.195755, -0.285835, -0.000000,-52.133204,  2.266108
 84.731624, 41.437099, -0.293933, -0.000000,-52.348126,  2.290237
 85.040719, 41.692682, -0.302153, -0.000000,-52.563285,  2.314449
 85.365874, 41.962370, -0.310500, -0.000000,-52.776868,  2.338741
 85.706828, 42.246030, -0.318977, -0.000000,-52.987103,  2.363113
 86.063324, 42.543530, -0.327588, -0.000000,-53.192268,  2.387564
 86.435109, 42.854739, -0.336337, -0.000000,-53.390711,  2.412091
 86.821935, 43.179528, -0.345228, -0.000000,-53.580855,  2.436695
 87.223556, 43.517768, -0.354263, -0.000000,-53.761218,  2.461373
 87.639732, 43.869333, -0.363447, -0.000000,-53.930415,  2.486125
 88.070227, 44.234096, -0.372783, -0.000000,-54.087177,  2.510947
 88.514806, 44.611933, -0.382274, -0.000000,-54.230352,  2.535839
 88.972993, 45.002721, -0.391923, -0.000000,-54.358924,  2.560800
 89.443517, 45.406336, -0.401734, -0.000000,-54.472289,  2.585826
 89.924256, 45.822659, -0.411710, -0.000000,-54.570488,  2.610917
 90.412778, 46.251569, -0.421853, -0.000000,-54.653861,  2.636071
 90.906637, 46.692947, -0.432165, -0.000000,-54.722750,  2.661286
 91.403394, 47.146675, -0.442651, -0.000000,-54.777484,  2.686559
 91.900627, 47.612637, -0.453312, -0.000000,-54.818386,  2.711890
 92.395942, 48.090718, -0.464149, -0.000000,-54.845774,  2.737275
 92.886986, 48.580802, -0.475167, -0.000000,-54.859955,  2.762713
 93.371460, 49.082776, -0.486366, -0.000000,-54.861231,  2.788203
 93.847126, 49.596305, -0.497748, -0.000000,-54.849898,  2.813741
 94.311821, 50.120329, -0.509315, -0.000000,-54.826243,  2.839327
 94.763464, 50.653019, -0.521069, -0.000000,-54.790548,  2.864957
 95.200068, 51.192255, -0.533010, -0.000000,-54.743087,  2.890631
 95.619748, 51.735907, -0.545140, -0.000000,-54.684130,  2.916345
 96.020730, 52.281843, -0.557461, -0.000000,-54.613940,  2.942099
 96.401356, 52.827937, -0.569971, -0.000000,-54.532772,  2.967890
 96.760093, 53.372077, -0.582673, -0.000000,-54.440879,  2.993717
 97.095538, 53.912176, -0.595567, -0.000000,-54.338504,  3.019577
 97.406427, 54.446177, -0.608653, -0.000000,-54.225887,  3.045468
 97.691876, 54.972060, -0.621931, -0.000000,-54.103263,  3.071390
 97.951701, 55.487853, -0.635400, -0.000000,-53.970887,  3.097340
 98.186212, 55.991639, -0.649062, -0.000000,-53.829297,  3.123316
 98.395818, 56.481559, -0.662915, -0.000000,-53.679528,  3.149317
 98.580924, 56.955824, -0.676959, -0.000000,-53.522883,  3.175342
 98.741930, 57.412718, -0.691193, -0.000000,-53.360703,  3.201389
 98.879228, 57.850608, -0.705616, -0.000000,-53.194357,  3.227455
 98.993202, 58.268336, -0.720227, -0.000000,-53.025226,  3.253541
 99.084233, 58.665621, -0.735025, -0.000000,-52.854695,  3.279644
 99.152694, 59.042636, -0.750009, -0.000000,-52.684139,  3.305764
 99.198953, 59.399572, -0.765177, -0.000000,-52.514913,  3.331898
 99.223369, 59.736618, -0.780528, -0.000000,-52.348342,  3.358047
 99.226299, 60.053962, -0.796059, -0.000000,-52.185708,  3.384207
 99.208093, 60.351790, -0.811769, -0.000000,-52.028242,  3.410380
 99.169093, 60.630288, -0.827656, -0.000000,-51.877116,  3.436562
 99.109639, 60.889636, -0.843718, -0.000000,-51.733429,  3.462754
 99.030064, 61.130017, -0.859953, -0.000000,-51.598206,  3.488954
 98.930693, 61.351608, -0.876358, -0.000000,-51.472383,  3.515162
 98.811851, 61.554589, -0.892931, -0.000000,-51.356807,  3.541376
 98.673852, 61.739133, -0.909669, -0.000000,-51.252228,  3.567595
 98.517010, 61.905416, -0.926570, -0.000000,-51.159293,  3.593819
 98.341631, 62.053610, -0.943631, -0.000000,-51.078543,  3.620047
 98.148015, 62.183886, -0.960850, -0.000000,-51.010412,  3.646278
 97.936461, 62.296413, -0.978224, -0.000000,-50.955220,  3.672510
 97.707358, 62.391358, -0.995749, -0.000000,-50.913179,  3.698744
 97.461520, 62.468888, -1.013424, -0.000000,-50.884380,  3.724979
 97.200324, 62.529168, -1.031245, -0.000000,-50.868751,  3.751213
 96.925421, 62.572359, -1.049209, -0.000000,-50.866060,  3.777445
 96.638511, 62.598623, -1.067313, -0.000000,-50.876010,  3.803676
 96.341331, 62.608121, -1.085555, -0.000000,-50.898314,  3.829904
 96.035648, 62.601011, -1.103931, -0.000000,-50.932653,  3.856128
 95.723252, 62.577449, -1.122438, -0.000000,-50.978592,  3.882347
 95.405939, 62.537590, -1.141074, -0.000000,-51.035548,  3.908561
 95.085512, 62.481590, -1.159835, -0.000000,-51.102832,  3.934768
 94.763761, 62.409599, -1.178718, -0.000000,-51.179677,  3.960969
 94.442464, 62.321770, -1.197721, -0.000000,-51.265250,  3.987161
 94.123372, 62.218251, -1.216841, -0.000000,-51.358655,  4.013343
 93.808201, 62.099192, -1.236074, -0.000000,-51.458946,  4.039516
 93.498628, 61.964738, -1.255418, -0.000000,-51.565133,  4.065677
 93.196276, 61.815035, -1.274870, -0.000000,-51.676192,  4.091826
 92.902714, 61.650227, -1.294428, -0.000000,-51.791072,  4.117962
 92.619444, 61.470457, -1.314088, -0.000000,-51.908705,  4.144084
 92.347898, 61.275866, -1.333848, -0.000000,-52.028018,  4.170191
 92.089429, 61.066593, -1.353706, -0.000000,-52.147936,  4.196282
 91.845308, 60.842779, -1.373660, -0.000000,-52.267397,  4.222357
 91.616714, 60.604559, -1.393706, -0.000000,-52.385355,  4.248414
 91.404735, 60.352071, -1.413842, -0.000000,-52.500795,  4.274452
 91.210360, 60.085448, -1.434068, -0.000000,-52.612732,  4.300472
 91.034476, 59.804825, -1.454379, -0.000000,-52.720229,  4.326472
 90.877865, 59.510332, -1.474776, -0.000000,-52.822394,  4.352451
 90.741201, 59.202103, -1.495255, -0.000000,-52.918395,  4.378410
 90.625049, 58.880265, -1.515815, -0.000000,-53.007462,  4.404347
 90.529862, 58.544949, -1.536455, -0.000000,-53.088891,  4.430263
 90.455982, 58.196280, -1.557173, -0.000000,-53.162053,  4.456157
 90.403639, 57.834447, -1.577967, -0.000000,-53.226394,  4.482028
 90.372924, 57.460071, -1.598838, -0.000000,-53.281442,  4.507877
 90.363731, 57.074457, -1.619783, -0.000000,-53.326808,  4.533704
 90.375777, 56.679244, -1.640801, -0.000000,-53.362186,  4.559507
 90.408716, 56.276098, -1.661893, -0.000000,-53.387360,  4.585288
 90.462208, 55.866706, -1.683056, -0.000000,-53.402197,  4.611046
 90.535919, 55.452766, -1.704291, -0.000000,-53.406654,  4.636781
 90.629519, 55.035984, -1.725598, -0.000000,-53.400772,  4.662494
 90.742589, 54.618064, -1.746975, -0.000000,-53.384678,  4.688185
 90.874505, 54.200703, -1.768424, -0.000000,-53.358578,  4.713854
 91.024487, 53.785584, -1.789943, -0.000000,-53.322760,  4.739501
 91.191673, 53.374371, -1.811533, -0.000000,-53.277587,  4.765126
 91.375125, 52.968699, -1.833194, -0.000000,-53.223493,  4.790731
 91.573835, 52.570171, -1.854927, -0.000000,-53.160980,  4.816315
 91.786730, 52.180352, -1.876732, -0.000000,-53.090609,  4.841879
 92.012681, 51.800761, -1.898609, -0.000000,-53.013000,  4.867424
 92.250505, 51.432866, -1.920559, -0.000000,-52.928824,  4.892950
 92.498975, 51.078079, -1.942584, -0.000000,-52.838793,  4.918456
 92.756827, 50.737753, -1.964683, -0.000000,-52.743660,  4.943945
 93.022763, 50.413172, -1.986858, -0.000000,-52.644205,  4.969416
 93.295464, 50.105551, -2.009111, -0.000000,-52.541236,  4.994870
 93.573593, 49.816032, -2.031441, -0.000000,-52.435575,  5.020307
 93.855800, 49.545402, -2.053851, -0.000000,-52.328056,  5.045728
 94.140735, 49.293829, -2.076341, -0.000000,-52.219514,  5.071134
 94.427049, 49.061149, -2.098913, -0.000000,-52.110782,  5.096524
 94.713406, 48.847186, -2.121569, -0.000000,-52.002680,  5.121899
 94.998485, 48.651763, -2.144310, -0.000000,-51.896012,  5.147260
 95.280989, 48.474703, -2.167138, -0.000000,-51.791558,  5.172607
 95.559650, 48.315835, -2.190053, -0.000000,-51.690067,  5.197940
 95.833237, 48.174985, -2.213059, -0.000000,-51.592255,  5.223260
 96.100559, 48.051984, -2.236156, -0.000000,-51.498794,  5.248567
 96.360473, 47.946664, -2.259347, -0.000000,-51.410312,  5.273860
 96.611888, 47.858857, -2.282632, -0.000000,-51.327386,  5.299141
 96.853769, 47.788398, -2.306014, -0.000000,-51.250537,  5.324409
 97.085144, 47.735123, -2.329495, -0.000000,-51.180230,  5.349664
 97.305105, 47.698870, -2.353076, -0.000000,-51.116869,  5.374907
 97.512815, 47.679478, -2.376759, -0.000000,-51.060792,  5.400137
 97.707509, 47.676788, -2.400547, -0.000000,-51.012275,  5.425354
 97.888497, 47.690642, -2.424439, -0.000000,-50.971525,  5.450559
 98.055167, 47.720883, -2.448440, -0.000000,-50.938683,  5.475750
 98.206988, 47.767358, -2.472549, -0.000000,-50.913821,  5.500929
 98.343512, 47.829913, -2.496769, -0.000000,-50.896944,  5.526094
 98.464371, 47.908395, -2.521101, -0.000000,-50.887993,  5.551246
 98.569283, 48.002656, -2.545548, -0.000000,-50.886841,  5.576384
 98.658051, 48.112544, -2.570110, -0.000000,-50.893301,  5.601507
 98.730559, 48.237914, -2.594790, -0.000000,-50.907122,  5.626616
 98.786778, 48.378618, -2.619588, -0.000000,-50.928000,  5.651710
 98.826759, 48.534513, -2.644506, -0.000000,-50.955573,  5.676789
 98.850637, 48.705453, -2.669546, -0.000000,-50.989432,  5.701852
 98.858623, 48.891298, -2.694708, -0.000000,-51.029118,  5.726898
 98.851010, 49.091907, -2.719994, -0.000000,-51.074134,  5.751928
 98.828163, 49.307140, -2.745406, -0.000000,-51.123943,  5.776941
 98.790519, 49.536859, -2.770943, -0.000000,-51.177977,  5.801936
 98.738586, 49.780927, -2.796608, -0.000000,-51.235643,  5.826912
 98.672937, 50.039209, -2.822401, -0.000000,-51.296322,  5.851870
 98.594205, 50.311571, -2.848323, -0.000000,-51.359383,  5.876809
 98.503085, 50.597879, -2.874374, -0.000000,-51.424181,  5.901728
 98.400321, 50.897801, -2.900556, -0.000000,-51.490068,  5.926626
 98.286709, 51.210521, -2.926869, -0.000000,-51.556395,  5.951505
 98.163090, 51.534857, -2.953313, -0.000000,-51.622518,  5.976362
 98.030341, 51.869519, -2.979889, -0.000000,-51.687805,  6.001197
 97.889378, 52.213184, -3.006597, -0.000000,-51.751638,  6.026011
 97.741144, 52.564506, -3.033438, -0.000000,-51.813421,  6.050802
 97.586608, 52.922117, -3.060411, -0.000000,-51.872583,  6.075570
 97.426757, 53.284636, -3.087517, -0.000000,-51.928581,  6.100315
 97.262594, 53.650670, -3.114755, -0.000000,-51.980908,  6.125037
 97.095127, 54.018826, -3.142125, -0.000000,-52.029094,  6.149735
 96.925372, 54.387708, -3.169628, -0.000000,-52.072706,  6.174409
 96.754342, 54.755931, -3.197263, -0.000000,-52.111360,  6.199059
 96.583040, 55.122123, -3.225029, -0.000000,-52.144715,  6.223684
 96.412463, 55.484926, -3.252926, -0.000000,-52.172479,  6.248285
 96.243586, 55.843009, -3.280953, -0.000000,-52.194409,  6.272861
 96.077366, 56.195067, -3.309111, -0.000000,-52.210315,  6.297412
 95.914734, 56.539828, -3.337397, -0.000000,-52.220058,  6.321938
 95.756589, 56.876061, -3.365812, -0.000000,-52.223552,  6.346439
 95.603797, 57.202572, -3.394354, -0.000000,-52.220763,  6.370914
 95.457184, 57.518219, -3.423023, -0.000000,-52.211710,  6.395365
 95.317537, 57.821907, -3.451817, -0.000000,-52.196461,  6.419790
 95.185595, 58.112599, -3.480736, -0.000000,-52.175137,  6.444191
 95.062049, 58.389314, -3.509778, -0.000000,-52.147904,  6.468566
 94.947538, 58.651133, -3.538943, -0.000000,-52.114976,  6.492916
 94.842648, 58.897206, -3.568228, -0.000000,-52.076609,  6.517242
 94.747909, 59.126745, -3.597634, -0.000000,-52.033101,  6.541543
 94.663790, 59.339038, -3.627157, -0.000000,-51.984787,  6.565819
 94.590704, 59.533473, -3.656798, -0.000000,-51.932037,  6.590071
 94.528999, 59.709709, -3.686555, -0.000000,-51.875252,  6.614298
 94.478965, 59.867763, -3.716426, -0.000000,-51.814860,  6.638501
 94.440824, 60.007805, -3.746410, -0.000000,-51.751313,  6.662681
 94.414739, 60.130006, -3.776506, -0.000000,-51.685079,  6.686836
 94.400809, 60.234534, -3.806712, -0.000000,-51.616645,  6.710968
 94.399068, 60.321556, -3.837026, -0.000000,-51.546508,  6.735076
 94.409491, 60.391238, -3.867447, -0.000000,-51.475169,  6.759161
 94.431988, 60.443743, -3.897973, -0.000000,-51.403134,  6.783223
 94.466413, 60.479234, -3.928604, -0.000000,-51.330906,  6.807262
 94.512558, 60.497870, -3.959337, -0.000000,-51.258983,  6.831278
 94.570160, 60.499812, -3.990171, -0.000000,-51.187851,  6.855271
 94.638901, 60.485217, -4.021104, -0.000000,-51.117984,  6.879242
 94.718411, 60.454241, -4.052136, -0.000000,-51.049839,  6.903190
 94.808270, 60.407039, -4.083264, -0.000000,-50.983848,  6.927116
 94.908010, 60.343764, -4.114487, -0.000000,-50.920424,  6.951019
 95.017120, 60.264568, -4.145803, -0.000000,-50.859948,  6.974900
 95.135048, 60.169601, -4.177212, -0.000000,-50.802773,  6.998759
 95.261204, 60.059012, -4.208712, -0.000000,-50.749220,  7.022596
 95.394964, 59.932949, -4.240302, -0.000000,-50.699574,  7.046410
 95.535674, 59.791557, -4.271979, -0.000000,-50.654084,  7.070202
 95.682652, 59.635025, -4.303744, -0.000000,-50.612960,  7.093972
 95.835194, 59.463756, -4.335594, -0.000000,-50.576373,  7.117720
 95.992577, 59.278480, -4.367530, -0.000000,-50.544454,  7.141445
 96.154061, 59.080096, -4.399548, -0.000000,-50.517295,  7.165147
 96.318897, 58.869550, -4.431649, -0.000000,-50.494943,  7.188827
 96.486326, 58.647829, -4.463831, -0.000000,-50.477408,  7.212484
 96.655588, 58.415958, -4.496094, -0.000000,-50.464658,  7.236118
 96.825923, 58.174993, -4.528437, -0.000000,-50.456624,  7.259729
 96.996573, 57.926019, -4.560857, -0.000000,-50.453196,  7.283316
 97.166790, 57.670146, -4.593356, -0.000000,-50.454228,  7.306880
 97.335839, 57.408503, -4.625932, -0.000000,-50.459540,  7.330420
 97.502996, 57.142233, -4.658584, -0.000000,-50.468919,  7.353937
 97.667561, 56.872491, -4.691312, -0.000000,-50.482121,  7.377428
 97.828851, 56.600435, -4.724116, -0.000000,-50.498873,  7.400896
 97.986213, 56.327227, -4.756993, -0.000000,-50.518877,  7.424338
 98.139018, 56.054025, -4.789946, -0.000000,-50.541812,  7.447756
 98.286670, 55.781977, -4.822972, -0.000000,-50.567338,  7.471148
 98.428608, 55.512221, -4.856071, -0.000000,-50.595097,  7.494515
 98.564304, 55.245876, -4.889244, -0.000000,-50.624718,  7.517856
 98.693269, 54.984043, -4.922490, -0.000000,-50.655821,  7.541170
 98.815057, 54.727794, -4.955808, -0.000000,-50.688016,  7.564458
 98.929260, 54.478175, -4.989200, -0.000000,-50.720913,  7.587719
 99.035517, 54.236197, -5.022664, -0.000000,-50.754119,  7.610954
 99.133508, 54.002835, -5.056201, -0.000000,-50.787244,  7.634161
 99.222962, 53.779023, -5.089811, -0.000000,-50.819906,  7.657340
 99.303654, 53.565652, -5.123493, -0.000000,-50.851730,  7.680492
 99.375404, 53.363564, -5.157249, -0.000000,-50.882354,  7.703615
 99.438081, 53.173554, -5.191078, -0.000000,-50.911431,  7.726710
 99.491602, 52.996362, -5.224981, -0.000000,-50.938631,  7.749777
 99.535931, 52.832674, -5.258958, -0.000000,-50.963643,  7.772815
 99.571076, 52.683117, -5.293009, -0.000000,-50.986182,  7.795824
 99.597096, 52.548260, -5.327135, -0.000000,-51.005983,  7.818803
 99.614092, 52.428609, -5.361336, -0.000000,-51.022809,  7.841754
 99.622209, 52.324609, -5.395612, -0.000000,-51.036450,  7.864674
 99.621638, 52.236638, -5.429965, -0.000000,-51.046728,  7.887565
 99.612607, 52.165012, -5.464394, -0.000000,-51.053490,  7.910427
 99.595387, 52.109978, -5.498900, -0.000000,-51.056618,  7.933258
 99.570285, 52.071712, -5.533484, -0.000000,-51.056024,  7.956059
 99.537645, 52.050263, -5.568146, -0.000000,-51.051652,  7.978830
 99.497844, 52.045536, -5.602887, -0.000000,-51.043476,  8.001570
 99.451291, 52.057371, -5.637708, -0.000000,-51.031505,  8.024281
 99.398421, 52.085614, -5.672609, -0.000000,-51.015775,  8.046960
 99.339699, 52.130108, -5.707591, -0.000000,-50.996355,  8.069610
 99.275610, 52.190701, -5.742655, -0.000000,-50.973343,  8.092228
 99.206662, 52.267241, -5.777801, -0.000000,-50.946863,  8.114816
 99.133381, 52.359546, -5.813029, -0.000000,-50.917067,  8.137374
 99.056306, 52.467332, -5.848342, -0.000000,-50.884132,  8.159901
 98.975990, 52.590183, -5.883738, -0.000000,-50.848257,  8.182397
 98.892993, 52.727595, -5.919220, -0.000000,-50.809664,  8.204862
 98.807885, 52.879013, -5.954787, -0.000000,-50.768593,  8.227297
 98.721235, 53.043829, -5.990441, -0.000000,-50.725299,  8.249701
 98.633614, 53.221389, -6.026182, -0.000000,-50.680054,  8.272075
 98.545591, 53.410993, -6.062010, -0.000000,-50.633140,  8.294418
 98.457729, 53.611898, -6.097926, -0.000000,-50.584851,  8.316730
 98.370582, 53.823324, -6.133931, -0.000000,-50.535484,  8.339012
 98.284695, 54.044453, -6.170025, -0.000000,-50.485344,  8.361263
 98.200597, 54.274438, -6.206210, -0.000000,-50.434736,  8.383484
 98.118804, 54.512401, -6.242484, -0.000000,-50.383963,  8.405674
 98.039809, 54.757440, -6.278850, -0.000000,-50.333328,  8.427833
 97.964090, 55.008633, -6.315307, -0.000000,-50.283125,  8.449962
 97.892098, 55.265037, -6.351855, -0.000000,-50.233642,  8.472060
 97.824260, 55.525700, -6.388496, -0.000000,-50.185155,  8.494128
 97.760977, 55.789657, -6.425229, -0.000000,-50.137930,  8.516165
 97.702622, 56.055938, -6.462055, -0.000000,-50.092217,  8.538172
 97.649536, 56.323572, -6.498974, -0.000000,-50.048248,  8.560147
 97.602032, 56.591588, -6.535986, -0.000000,-50.006240,  8.582092
 97.560388, 56.859021, -6.573092, -0.000000,-49.966389,  8.604007
 97.524849, 57.124918, -6.610292, -0.000000,-49.928870,  8.625890
 97.495626, 57.388334, -6.647586, -0.000000,-49.893837,  8.647743
 97.472897, 57.648345, -6.684973, -0.000000,-49.861419,  8.669565
 97.456801, 57.904044, -6.722455, -0.000000,-49.831725,  8.691356
 97.447446, 58.154550, -6.760030, -0.000000,-49.804835,  8.713115
 97.444899, 58.399007, -6.797700, -0.000000,-49.780808,  8.734844
 97.449197, 58.636590, -6.835463, -0.000000,-49.759678,  8.756541
 97.460338, 58.866507, -6.873320, -0.000000,-49.741452,  8.778206
 97.478287, 59.088001, -6.911271, -0.000000,-49.726116,  8.799840
 97.502974, 59.300353, -6.949315, -0.000000,-49.713630,  8.821443
 97.534296, 59.502888, -6.987452, -0.000000,-49.703930,  8.843013
 97.572117, 59.694971, -7.025682, -0.000000,-49.696933,  8.864552
 97.616271, 59.876016, -7.064005, -0.000000,-49.692531,  8.886058
 97.666562, 60.045481, -7.102420, -0.000000,-49.690599,  8.907532
 97.722762, 60.202877, -7.140926, -0.000000,-49.690992,  8.928973
 97.784621, 60.347764, -7.179524, -0.000000,-49.693547,  8.950382
 97.851860, 60.479754, -7.218213, -0.000000,-49.698086,  8.971758
 97.924176, 60.598513, -7.256993, -0.000000,-49.704417,  8.993101
 98.001247, 60.703763, -7.295862, -0.000000,-49.712336,  9.014410
 98.082728, 60.795278, -7.334820, -0.000000,-49.721628,  9.035686
 98.168256, 60.872891, -7.373868, -0.000000,-49.732071,  9.056929
 98.257455, 60.936489, -7.413003, -0.000000,-49.743434,  9.078137
 98.349932, 60.986014, -7.452226, -0.000000,-49.755483,  9.099312
 98.445284, 61.021467, -7.491535, -0.000000,-49.767983,  9.120452
 98.543098, 61.042901, -7.530931, -0.000000,-49.780696,  9.141558
 98.642954, 61.050426, -7.570411, -0.000000,-49.793387,  9.162630
 98.744425, 61.044205, -7.609977, -0.000000,-49.805823,  9.183666
 98.847084, 61.024454, -7.649626, -0.000000,-49.817778,  9.204668
 98.950502, 60.991441, -7.689358, -0.000000,-49.829032,  9.225634
 99.054251, 60.945484, -7.729173, -0.000000,-49.839373,  9.246565
 99.157908, 60.886950, -7.769069, -0.000000,-49.848602,  9.267461
 99.261055, 60.816253, -7.809045, -0.000000,-49.856528,  9.288320
 99.363281, 60.733852, -7.849102, -0.000000,-49.862978,  9.309144
 99.464186, 60.640248, -7.889237, -0.000000,-49.867789,  9.329932
 99.563381, 60.535983, -7.929450, -0.000000,-49.870816,  9.350684
 99.660491, 60.421639, -7.969741, -0.000000,-49.871932,  9.371399
 99.755155, 60.297831, -8.010108, -0.000000,-49.871023,  9.392078
 99.847031, 60.165207, -8.050551, -0.000000,-49.867997,  9.412720
 99.935794, 60.024448, -8.091069, -0.000000,-49.862780,  9.433326
100.021138, 59.876259, -8.131660, -0.000000,-49.855316,  9.453894
100.102779, 59.721372, -8.172324, -0.000000,-49.845568,  9.474426
100.180456, 59.560538, -8.213061, -0.000000,-49.833519,  9.494920
100.253929, 59.394528, -8.253870, -0.000000,-49.819171,  9.515377
100.322984, 59.224127, -8.294748, -0.000000,-49.802544,  9.535797
100.387432, 59.050133, -8.335697, -0.000000,-49.783677,  9.556179
100.447108, 58.873351, -8.376715, -0.000000,-49.762626,  9.576524
100.501875, 58.694592, -8.417801, -0.000000,-49.739466,  9.596831
100.551621, 58.514671, -8.458955, -0.000000,-49.714285,  9.617100
100.596260, 58.334400, -8.500175, -0.000000,-49.687189,  9.637332
100.635735, 58.154586, -8.541462, -0.000000,-49.658296,  9.657525
100.670015, 57.976032, -8.582814, -0.000000,-49.627738,  9.677681
100.699094, 57.799527, -8.624231, -0.000000,-49.595660,  9.697799
100.722994, 57.625850, -8.665712, -0.000000,-49.562214,  9.717878
100.741760, 57.455760, -8.707257, -0.000000,-49.527563,  9.737919
100.755467, 57.290000, -8.748865, -0.000000,-49.491877,  9.757923
100.764209, 57.129289, -8.790534, -0.000000,-49.455333,  9.777887
100.768107, 56.974322, -8.832266, -0.000000,-49.418110,  9.797814
100.767305, 56.825766, -8.874059, -0.000000,-49.380392,  9.817702
100.761966, 56.684260, -8.915913, -0.000000,-49.342364,  9.837551
100.752276, 56.550409, -8.957827, -0.000000,-49.304208,  9.857362
100.738441, 56.424786, -8.999801, -0.000000,-49.266108,  9.877134
100.720682, 56.307926, -9.041835, -0.000000,-49.228243,  9.896868
100.699239, 56.200326, -9.083927, -0.000000,-49.190786,  9.916562
100.674368, 56.102446, -9.126079, -0.000000,-49.153907,  9.936218
100.646337, 56.014702, -9.168289, -0.000000,-49.117767,  9.955835
100.615427, 55.937469, -9.210557, -0.000000,-49.082516,  9.975413
100.581930, 55.871077, -9.252882, -0.000000,-49.048299,  9.994952
100.546148, 55.815813, -9.295266, -0.000000,-49.015247, 10.014452
100.508388, 55.771917, -9.337707, -0.000000,-48.983481, 10.033912
100.468966, 55.739584, -9.380205, -0.000000,-48.953107, 10.053333
100.428198, 55.718961, -9.422760, -0.000000,-48.924221, 10.072715
100.386408, 55.710151, -9.465372, -0.000000,-48.896904, 10.092057
100.343915, 55.713208, -9.508040, -0.000000,-48.871221, 10.111359
100.301041, 55.728139, -9.550766, -0.000000,-48.847224, 10.130622
100.258106, 55.754905, -9.593548, -0.000000,-48.824951, 10.149845
100.215422, 55.793421, -9.636386, -0.000000,-48.804424, 10.169027
100.173300, 55.843559, -9.679281, -0.000000,-48.785650, 10.188170
100.132041, 55.905142, -9.722233, -0.000000,-48.768621, 10.207272
100.091938, 55.977954, -9.765241, -0.000000,-48.753316, 10.226334
100.053277, 56.061734, -9.808306, -0.000000,-48.739698, 10.245356
100.016328, 56.156180, -9.851428, -0.000000,-48.727719, 10.264336
 99.981352, 56.260951, -9.894606, -0.000000,-48.717315, 10.283276
 99.948596, 56.375670, -9.937841, -0.000000,-48.708413, 10.302175
 99.918291, 56.499921, -9.981133, -0.000000,-48.700925, 10.321033
 99.890655, 56.633254,-10.024482, -0.000000,-48.694755, 10.339850
 99.865886, 56.775189,-10.067888, -0.000000,-48.689798, 10.358625
 99.844168, 56.925213,-10.111351, -0.000000,-48.685937, 10.377359
 99.825665, 57.082788,-10.154872, -0.000000,-48.683051, 10.396051
 99.810523, 57.247348,-10.198450, -0.000000,-48.681011, 10.414701
 99.798868, 57.418304,-10.242086, -0.000000,-48.679682, 10.433309
 99.790809, 57.595048,-10.285780, -0.000000,-48.678926, 10.451875
 99.786433, 57.776951,-10.329532, -0.000000,-48.678603, 10.470399
 99.785807, 57.963371,-10.373342, -0.000000,-48.678570, 10.488880
 99.788980, 58.153653,-10.417210, -0.000000,-48.678684, 10.507318
 99.795977, 58.347128,-10.461137, -0.000000,-48.678801, 10.525714
 99.806808, 58.543124,-10.505123, -0.000000,-48.678782, 10.544066
 99.821461, 58.740962,-10.549168, -0.000000,-48.678490, 10.562376
 99.839902, 58.939959,-10.593272, -0.000000,-48.677790, 10.580642
 99.862083, 59.139436,-10.637434, -0.000000,-48.676554, 10.598864
 99.887934, 59.338714,-10.681657, -0.000000,-48.674661, 10.617043
 99.917369, 59.537121,-10.725938, -0.000000,-48.671995, 10.635178
 99.950282, 59.733995,-10.770280, -0.000000,-48.668450, 10.653269
 99.986554, 59.928681,-10.814681, -0.000000,-48.663926, 10.671317
100.026049, 60.120540,-10.859142, -0.000000,-48.658335, 10.689319
100.068615, 60.308949,-10.903663, -0.000000,-48.651598, 10.707278
100.114088, 60.493301,-10.948244, -0.000000,-48.643646, 10.725192
100.162290, 60.673013,-10.992885, -0.000000,-48.634421, 10.743061
100.213032, 60.847520,-11.037586, -0.000000,-48.623876, 10.760885
100.266113, 61.016284,-11.082348, -0.000000,-48.611978, 10.778665
100.321325, 61.178795,-11.127170, -0.000000,-48.598701, 10.796399
100.378449, 61.334567,-11.172052, -0.000000,-48.584035, 10.814088
100.437262, 61.483148,-11.216994, -0.000000,-48.567978, 10.831732
100.497531, 61.624116,-11.261997, -0.000000,-48.550542, 10.849330
100.559022, 61.757081,-11.307060, -0.000000,-48.531749, 10.866883
100.621496, 61.881689,-11.352184, -0.000000,-48.511631, 10.884390
100.684712, 61.997621,-11.397367, -0.000000,-48.490231, 10.901851
100.748429, 62.104594,-11.442611, -0.000000,-48.467603, 10.919266
100.812405, 62.202363,-11.487914, -0.000000,-48.443809, 10.936635
100.876400, 62.290719,-11.533278, -0.000000,-48.418919, 10.953958
100.940177, 62.369494,-11.578701, -0.000000,-48.393013, 10.971234
101.003503, 62.438558,-11.624184, -0.000000,-48.366176, 10.988464
101.066151, 62.497820,-11.669726, -0.000000,-48.338500, 11.005648
101.127898, 62.547227,-11.715327, -0.000000,-48.310083, 11.022785
101.188529, 62.586768,-11.760987, -0.000000,-48.281027, 11.039875
101.247838, 62.616469,-11.806706, -0.000000,-48.251439, 11.056918
101.305628, 62.636394,-11.852483, -0.000000,-48.221426, 11.073914
101.361710, 62.646648,-11.898319, -0.000000,-48.191100, 11.090864
101.415909, 62.647369,-11.944212, -0.000000,-48.160571, 11.107766
101.468059, 62.638735,-11.990163, -0.000000,-48.129952, 11.124621
101.518008, 62.620958,-12.036171, -0.000000,-48.099352, 11.141428
101.565615, 62.594286,-12.082237, -0.000000,-48.068881, 11.158188
101.610753, 62.558998,-12.128358, -0.000000,-48.038643, 11.174900
101.653311, 62.515407,-12.174536, -0.000000,-48.008742, 11.191565
101.693190, 62.463854,-12.220770, -0.000000,-47.979275, 11.208181
101.730306, 62.404713,-12.267059, -0.000000,-47.950335, 11.224750
101.764590, 62.338382,-12.313402, -0.000000,-47.922009, 11.241271
101.795987, 62.265285,-12.359801, -0.000000,-47.894377, 11.257743
101.824459, 62.185871,-12.406253, -0.000000,-47.867515, 11.274168
101.849983, 62.100608,-12.452759, -0.000000,-47.841486, 11.290544
101.872548, 62.009988,-12.499318, -0.000000,-47.816350, 11.306871
101.892160, 61.914517,-12.545930, -0.000000,-47.792157, 11.323149
101.908841, 61.814719,-12.592594, -0.000000,-47.768949, 11.339379
101.922625, 61.711129,-12.639310, -0.000000,-47.746756, 11.355560
101.933560, 61.604295,-12.686077, -0.000000,-47.725604, 11.371692
101.941709, 61.494774,-12.732894, -0.000000,-47.705507, 11.387775
101.947148, 61.383129,-12.779762, -0.000000,-47.686471, 11.403808
101.949963, 61.269929,-12.826679, -0.000000,-47.668491, 11.419792
101.950255, 61.155742,-12.873645, -0.000000,-47.651557, 11.435727
101.948134, 61.041140,-12.920660, -0.000000,-47.635648, 11.451611
101.943722, 60.926689,-12.967722, -0.000000,-47.620734, 11.467446
101.937150, 60.812954,-13.014833, -0.000000,-47.606780, 11.483231
101.928559, 60.700491,-13.061990, -0.000000,-47.593741, 11.498966
101.918095, 60.589847,-13.109193, -0.000000,-47.581566, 11.514650
101.905916, 60.481561,-13.156443, -0.000000,-47.570197, 11.530284
101.892183, 60.376156,-13.203737, -0.000000,-47.559572, 11.545868
101.877063, 60.274142,-13.251077, -0.000000,-47.549621, 11.561400
101.860729, 60.176011,-13.298461, -0.000000,-47.540271, 11.576882
101.843356, 60.082237,-13.345888, -0.000000,-47.531445, 11.592313
101.825123, 59.993273,-13.393359, -0.000000,-47.523061, 11.607692
101.806211, 59.909553,-13.440872, -0.000000,-47.515038, 11.623020
101.786800, 59.831483,-13.488428, -0.000000,-47.507290, 11.638297
101.767071, 59.759448,-13.536026, -0.000000,-47.499731, 11.653522
101.747204, 59.693804,-13.583664, -0.000000,-47.492274, 11.668695
101.727378, 59.634882,-13.631343, -0.000000,-47.484834, 11.683817
101.707768, 59.582981,-13.679063, -0.000000,-47.477325, 11.698886
101.688546, 59.538376,-13.726822, -0.000000,-47.469664, 11.713903
101.669879, 59.501305,-13.774621, -0.000000,-47.461770, 11.728867
101.651929, 59.471980,-13.822459, -0.000000,-47.453566, 11.743779
101.634853, 59.450579,-13.870335, -0.000000,-47.444976, 11.758638
101.618799, 59.437248,-13.918249, -0.000000,-47.435932, 11.773445
101.603910, 59.432101,-13.966200, -0.000000,-47.426367, 11.788198
101.590320, 59.435218,-14.014189, -0.000000,-47.416222, 11.802898
101.578155, 59.446649,-14.062215, -0.000000,-47.405442, 11.817544
101.567530, 59.466408,-14.110277, -0.000000,-47.393978, 11.832138
101.558553, 59.494477,-14.158375, -0.000000,-47.381789, 11.846677
101.551320, 59.530807,-14.206509, -0.000000,-47.368837, 11.861163
101.545918, 59.575317,-14.254678, -0.000000,-47.355096, 11.875595
101.542423, 59.627893,-14.302883, -0.000000,-47.340541, 11.889972
101.540900, 59.688392,-14.351122, -0.000000,-47.325159, 11.904296
101.541403, 59.756640,-14.399396, -0.000000,-47.308941, 11.918565
101.543973, 59.832434,-14.447704, -0.000000,-47.291886, 11.932780
101.548644, 59.915544,-14.496045, -0.000000,-47.274000, 11.946940
101.555434, 60.005713,-14.544421, -0.000000,-47.255295, 11.961045
101.564352, 60.102655,-14.592829, -0.000000,-47.235790, 11.975095
101.575397, 60.206065,-14.641271, -0.000000,-47.215511, 11.989090
101.588554, 60.315611,-14.689746, -0.000000,-47.194489, 12.003030
101.603800, 60.430940,-14.738253, -0.000000,-47.172760, 12.016915
101.621100, 60.551680,-14.786793, -0.000000,-47.150368, 12.030744
101.640409, 60.677440,-14.835366, -0.000000,-47.127358, 12.044517
101.661672, 60.807813,-14.883970, -0.000000,-47.103782, 12.058235
101.684825, 60.942374,-14.932606, -0.000000,-47.079696, 12.071897
101.709795, 61.080689,-14.981275, -0.000000,-47.055158, 12.085503
101.736500, 61.222309,-15.029974, -0.000000,-47.030230, 12.099052
101.764850, 61.366776,-15.078706, -0.000000,-47.004975, 12.112546
101.794748, 61.513627,-15.127468, -0.000000,-46.979460, 12.125983
101.826090, 61.662388,-15.176262, -0.000000,-46.953750, 12.139363
101.858765, 61.812586,-15.225087, -0.000000,-46.927913, 12.152687
101.892658, 61.963743,-15.273944, -0.000000,-46.902016, 12.165954
101.927647, 62.115381,-15.322831, -0.000000,-46.876127, 12.179163
101.963608, 62.267024,-15.371748, -0.000000,-46.850311, 12.192316
102.000412, 62.418199,-15.420697, -0.000000,-46.824632, 12.205412
102.037926, 62.568439,-15.469676, -0.000000,-46.799153, 12.218450
102.076018, 62.717284,-15.518686, -0.000000,-46.773933, 12.231431
102.114552, 62.864282,-15.567726, -0.000000,-46.749028, 12.244354
102.153391, 63.008993,-15.616797, -0.000000,-46.724492, 12.257219
102.192399, 63.150988,-15.665898, -0.000000,-46.700375, 12.270027
102.231442, 63.289851,-15.715029, -0.000000,-46.676720, 12.282776
102.270383, 63.425184,-15.764190, -0.000000,-46.653570, 12.295467
102.309092, 63.556603,-15.813382, -0.000000,-46.630959, 12.308100
102.347439, 63.683744,-15.862603, -0.000000,-46.608920, 12.320674
102.385296, 63.806262,-15.911855, -0.000000,-46.587476, 12.333190
102.422541, 63.923832,-15.961136, -0.000000,-46.566650, 12.345647
102.459055, 64.036152,-16.010447, -0.000000,-46.546455, 12.358046
102.494726, 64.142940,-16.059788, -0.000000,-46.526902, 12.370385
102.529445, 64.243943,-16.109159, -0.000000,-46.507995, 12.382665
102.563109, 64.338927,-16.158559, -0.000000,-46.489732, 12.394885
102.595624, 64.427687,-16.207989, -0.000000,-46.472107, 12.407047
102.626899, 64.510043,-16.257448, -0.000000,-46.455109, 12.419148
102.656854, 64.585840,-16.306936, -0.000000,-46.438720, 12.431190
102.685414, 64.654953,-16.356453, -0.000000,-46.422919, 12.443172
102.712511, 64.717281,-16.406000, -0.000000,-46.407681, 12.455094
102.738087, 64.772753,-16.455575, -0.000000,-46.392974, 12.466955
102.762092, 64.821323,-16.505180, -0.000000,-46.378765, 12.478757
102.784482, 64.862975,-16.554813, -0.000000,-46.365016, 12.490497
102.805224, 64.897718,-16.604475, -0.000000,-46.351686, 12.502177
102.824293, 64.925590,-16.654165, -0.000000,-46.338730, 12.513796
102.841671, 64.946656,-16.703884, -0.000000,-46.326104, 12.525355
102.857350, 64.961004,-16.753630, -0.000000,-46.313757, 12.536852
102.871329, 64.968753,-16.803405, -0.000000,-46.301640, 12.548288
102.883617, 64.970042,-16.853207, -0.000000,-46.289703, 12.559662
102.894229, 64.965038,-16.903038, -0.000000,-46.277892, 12.570975
102.903191, 64.953931,-16.952895, -0.000000,-46.266156, 12.582225
102.910534, 64.936931,-17.002780, -0.000000,-46.254444, 12.593414
102.916297, 64.914274,-17.052692, -0.000000,-46.242702, 12.604541
102.920526, 64.886214,-17.102630, -0.000000,-46.230882, 12.615606
102.923276, 64.853024,-17.152596, -0.000000,-46.218934, 12.626608
102.924606, 64.814997,-17.202587, -0.000000,-46.206810, 12.637548
102.924582, 64.772442,-17.252605, -0.000000,-46.194466, 12.648425
102.923276, 64.725684,-17.302649, -0.000000,-46.181859, 12.659239
102.920763, 64.675062,-17.352718, -0.000000,-46.168949, 12.669990
102.917127, 64.620928,-17.402813, -0.000000,-46.155700, 12.680678
102.912453, 64.563646,-17.452932, -0.000000,-46.142077, 12.691303
102.906831, 64.503588,-17.503077, -0.000000,-46.128052, 12.701864
102.900354, 64.441137,-17.553246, -0.000000,-46.113598, 12.712361
102.893118, 64.376680,-17.603439, -0.000000,-46.098693, 12.722795
102.885220, 64.310613,-17.653656, -0.000000,-46.083319, 12.733165
102.876761, 64.243331,-17.703896, -0.000000,-46.067463, 12.743470
102.867843, 64.175233,-17.754160, -0.000000,-46.051114, 12.753711
102.858566, 64.106721,-17.804447, -0.000000,-46.034267, 12.763888
102.849033, 64.038193,-17.854756, -0.000000,-46.016922, 12.774000
102.839346, 63.970043,-17.905087, -0.000000,-45.999081, 12.784048
102.829604, 63.902666,-17.955441, -0.000000,-45.980750, 12.794031
102.819909, 63.836445,-18.005816, -0.000000,-45.961942, 12.803948
102.810357, 63.771761,-18.056211, -0.000000,-45.942671, 12.813800
102.801044, 63.708984,-18.106628, -0.000000,-45.922955, 12.823588
102.792062, 63.648474,-18.157065, -0.000000,-45.902816, 12.833309
102.783500, 63.590580,-18.207522, -0.000000,-45.882280, 12.842965
102.775444, 63.535639,-18.257999, -0.000000,-45.861374, 12.852555
102.767976, 63.483972,-18.308495, -0.000000,-45.840130, 12.862079
102.761174, 63.435888,-18.359010, -0.000000,-45.818580, 12.871537
102.755109, 63.391677,-18.409543, -0.000000,-45.796759, 12.880929
102.749850, 63.351615,-18.460094, -0.000000,-45.774705, 12.890255
102.745459, 63.315956,-18.510663, -0.000000,-45.752457, 12.899514
102.741992, 63.284938,-18.561249, -0.000000,-45.730052, 12.908706
102.739501, 63.258778,-18.611853, -0.000000,-45.707533, 12.917831
102.738031, 63.237673,-18.662472, -0.000000,-45.684939, 12.926890
102.737620, 63.221799,-18.713108, -0.000000,-45.662311, 12.935881
102.738303, 63.211309,-18.763759, -0.000000,-45.639691, 12.944805
102.740104, 63.206336,-18.814426, -0.000000,-45.617117, 12.953661
102.743045, 63.206988,-18.865107, -0.000000,-45.594628, 12.962450
102.747140, 63.213353,-18.915803, -0.000000,-45.572263, 12.971172
102.752395, 63.225494,-18.966513, -0.000000,-45.550058, 12.979825
102.758812, 63.243451,-19.017237, -0.000000,-45.528048, 12.988410
102.766386, 63.267242,-19.067974, -0.000001,-45.506264, 12.996927
102.775106, 63.296863,-19.118723, -0.000001,-45.484736, 13.005376
102.784954, 63.332284,-19.169486, -0.000001,-45.463494, 13.013756
102.795908, 63.373455,-19.220260, -0.000001,-45.442561, 13.022068
102.807938, 63.420305,-19.271046, -0.000001,-45.421959, 13.030311
102.821011, 63.472737,-19.321844, -0.000001,-45.401709, 13.038485
102.835088, 63.530638,-19.372653, -0.000001,-45.381825, 13.046590
102.850123, 63.593870,-19.423472, -0.000001,-45.362321, 13.054625
102.866069, 63.662279,-19.474301, -0.000001,-45.343206, 13.062591
102.882872, 63.735688,-19.525140, -0.000001,-45.324486, 13.070488
102.900475, 63.813905,-19.575989, -0.000001,-45.306165, 13.078315
102.918817, 63.896719,-19.626847, -0.000001,-45.288243, 13.086072
102.937834, 63.983902,-19.677714, -0.000001,-45.270715, 13.093759
102.957458, 64.075213,-19.728589, -0.000001,-45.253575, 13.101376
102.977621, 64.170393,-19.779473, -0.000001,-45.236814, 13.108922
102.998250, 64.269173,-19.830364, -0.000001,-45.220419, 13.116398
103.019272, 64.371270,-19.881263, -0.000001,-45.204375, 13.123803
103.040612, 64.476390,-19.932169, -0.000001,-45.188663, 13.131138
103.062193, 64.584230,-19.983081, -0.000001,-45.173264, 13.138401
103.083939, 64.694479,-20.034001, -0.000001,-45.158155, 13.145594
103.105774, 64.806818,-20.084927, -0.000001,-45.143311, 13.152715
103.127619, 64.920922,-20.135858, -0.000001,-45.128706, 13.159765
103.149401, 65.036462,-20.186795, -0.000001,-45.114313, 13.166743
103.171042, 65.153105,-20.237738, -0.000001,-45.100102, 13.173649
103.192470, 65.270518,-20.288686, -0.000001,-45.086044, 13.180483
103.213613, 65.388363,-20.339639, -0.000001,-45.072107, 13.187246
103.234399, 65.506309,-20.390596, -0.000001,-45.058260, 13.193936
103.254761, 65.624022,-20.441558, -0.000001,-45.044472, 13.200553
103.274635, 65.741172,-20.492523, -0.000001,-45.030712, 13.207098
103.293958, 65.857437,-20.543493, -0.000001,-45.016947, 13.213571
103.312670, 65.972497,-20.594466, -0.000001,-45.003149, 13.219970
103.330717, 66.086041,-20.645442, -0.000001,-44.989286, 13.226297
103.348046, 66.197766,-20.696422, -0.000001,-44.975331, 13.232550
103.364609, 66.307377,-20.747404, -0.000001,-44.961256, 13.238730
103.380364, 66.414591,-20.798389, -0.000001,-44.947035, 13.244836
103.395270, 66.519135,-20.849377, -0.000001,-44.932643, 13.250869
103.409292, 66.620751,-20.900366, -0.000001,-44.918059, 13.256828
103.422399, 66.719191,-20.951358, -0.000001,-44.903262, 13.262712
103.434567, 66.814225,-21.002351, -0.000001,-44.888234, 13.268523
103.445773, 66.905634,-21.053346, -0.000001,-44.872959, 13.274259
103.456002, 66.993217,-21.104342, -0.000001,-44.857422, 13.279921
103.465240, 67.076790,-21.155340, -0.000001,-44.841614, 13.285508
103.473483, 67.156186,-21.206338, -0.000001,-44.825525, 13.291021
103.480727, 67.231253,-21.257337, -0.000001,-44.809149, 13.296458
103.486976, 67.301860,-21.308337, -0.000001,-44.792483, 13.301820
103.492236, 67.367894,-21.359337, -0.000001,-44.775526, 13.307107
103.496519, 67.429260,-21.410338, -0.000001,-44.758278, 13.312319
103.499841, 67.485882,-21.461338, -0.000001,-44.740745, 13.317454
103.502223, 67.537704,-21.512338, -0.000001,-44.722932, 13.322515
103.503689, 67.584688,-21.563337, -0.000001,-44.704849, 13.327499
103.504267, 67.626816,-21.614336, -0.000001,-44.686505, 13.332407
103.503991, 67.664091,-21.665335, -0.000001,-44.667915, 13.337239
103.502894, 67.696531,-21.716332, -0.000001,-44.649092, 13.341994
103.501017, 67.724176,-21.767328, -0.000001,-44.630055, 13.346673
103.498402, 67.747085,-21.818323, -0.000001,-44.610821, 13.351275
103.495093, 67.765332,-21.869316, -0.000001,-44.591409, 13.355801
103.491138, 67.779012,-21.920307, -0.000001,-44.571843, 13.360249
103.486586, 67.788236,-21.971296, -0.000001,-44.552142, 13.364620
103.481489, 67.793131,-22.022284, -0.000001,-44.532332, 13.368914
103.475901, 67.793842,-22.073269, -0.000001,-44.512435, 13.373131
103.469875, 67.790527,-22.124251, -0.000001,-44.492476, 13.377269
103.463469, 67.783361,-22.175231, -0.000001,-44.472480, 13.381330
103.456738, 67.772531,-22.226207, -0.000001,-44.452470, 13.385313
103.449740, 67.758239,-22.277181, -0.000001,-44.432473, 13.389218
103.442532, 67.740698,-22.328151, -0.000001,-44.412511, 13.393045
103.435172, 67.720132,-22.379117, -0.000001,-44.392609, 13.396793
103.427716, 67.696776,-22.430080, -0.000001,-44.372790, 13.400462
103.420220, 67.670875,-22.481038, -0.000001,-44.353076, 13.404053
103.412741, 67.642680,-22.531992, -0.000001,-44.333487, 13.407565
103.405332, 67.612451,-22.582942, -0.000001,-44.314043, 13.410998
103.398047, 67.580454,-22.633887, -0.000001,-44.294764, 13.414352
103.390935, 67.546960,-22.684827, -0.000001,-44.275666, 13.417626
103.384046, 67.512244,-22.735761, -0.000001,-44.256764, 13.420821
103.377427, 67.476584,-22.786691, -0.000001,-44.238072, 13.423936
103.371123, 67.440258,-22.837614, -0.000001,-44.219602, 13.426971
103.365175, 67.403549,-22.888531, -0.000001,-44.201364, 13.429926
103.359623, 67.366734,-22.939443, -0.000001,-44.183366, 13.432802
103.354503, 67.330093,-22.990347, -0.000001,-44.165613, 13.435597
103.349848, 67.293901,-23.041245, -0.000001,-44.148111, 13.438311
103.345688, 67.258430,-23.092136, -0.000001,-44.130861, 13.440945
103.342050, 67.223948,-23.143019, -0.000001,-44.113863, 13.443498
103.338958, 67.190715,-23.193895, -0.000001,-44.097115, 13.445970
103.336431, 67.158987,-23.244763, -0.000001,-44.080615, 13.448361
103.334485, 67.129011,-23.295623, -0.000001,-44.064356, 13.450671
103.333134, 67.101024,-23.346474, -0.000001,-44.048330, 13.452899
103.332386, 67.075258,-23.397316, -0.000001,-44.032530, 13.455046
103.332247, 67.051929,-23.448149, -0.000001,-44.016944, 13.457111
103.332720, 67.031246,-23.498973, -0.000001,-44.001561, 13.459094
103.333802, 67.013404,-23.549788, -0.000001,-43.986366, 13.460996
103.335488, 66.998588,-23.600592, -0.000001,-43.971346, 13.462815
103.337771, 66.986967,-23.651385, -0.000001,-43.956485, 13.464551
103.340639, 66.978697,-23.702169, -0.000001,-43.941765, 13.466206
103.344076, 66.973922,-23.752941, -0.000001,-43.927170, 13.467777
103.348065, 66.972768,-23.803702, -0.000001,-43.912682, 13.469266
103.352585, 66.975348,-23.854451, -0.000001,-43.898282, 13.470672
103.357611, 66.981759,-23.905188, -0.000001,-43.883951, 13.471994
103.363117, 66.992083,-23.955913, -0.000001,-43.869670, 13.473234
103.369075, 67.006385,-24.006625, -0.000001,-43.855420, 13.474390
103.375452, 67.024715,-24.057325, -0.000001,-43.841183, 13.475462
103.382215, 67.047105,-24.108011, -0.000001,-43.826940, 13.476450
103.389330, 67.073574,-24.158683, -0.000001,-43.812673, 13.477355
103.396757, 67.104121,-24.209341, -0.000001,-43.798365, 13.478175
103.404460, 67.138733,-24.259985, -0.000001,-43.783999, 13.478912
103.412397, 67.177378,-24.310615, -0.000001,-43.769559, 13.479564
103.420528, 67.220011,-24.361229, -0.000001,-43.755030, 13.480131
103.428810, 67.266569,-24.411828, -0.000001,-43.740400, 13.480614
103.437202, 67.316976,-24.462411, -0.000001,-43.725655, 13.481012
103.445659, 67.371141,-24.512978, -0.000001,-43.710784, 13.481324
103.454138, 67.428958,-24.563529, -0.000001,-43.695778, 13.481552
103.462596, 67.490310,-24.614062, -0.000001,-43.680628, 13.481694
103.470990, 67.555063,-24.664579, -0.000001,-43.665327, 13.481751
103.479278, 67.623075,-24.715078, -0.000001,-43.649870, 13.481722
103.487417, 67.694188,-24.765560, -0.000001,-43.634252, 13.481608
103.495366, 67.768236,-24.816023, -0.000001,-43.618473, 13.481407
103.503085, 67.845042,-24.866467, -0.000001,-43.602530, 13.481120
103.510535, 67.924419,-24.916893, -0.000001,-43.586424, 13.480747
103.517680, 68.006171,-24.967300, -0.000001,-43.570159, 13.480288
103.524482, 68.090094,-25.017687, -0.000001,-43.553736, 13.479742
103.530908, 68.175978,-25.068054, -0.000001,-43.537163, 13.479110
103.536926, 68.263606,-25.118400, -0.000001,-43.520444, 13.478390
103.542506, 68.352756,-25.168727, -0.000001,-43.503588, 13.477584
103.547619, 68.443201,-25.219032, -0.000001,-43.486604, 13.476690
103.552240, 68.534711,-25.269316, -0.000001,-43.469502, 13.475709
103.556346, 68.627054,-25.319578, -0.000001,-43.452292, 13.474641
103.559916, 68.719995,-25.369819, -0.000001,-43.434987, 13.473485
103.562931, 68.813299,-25.420037, -0.000001,-43.417600, 13.472241
103.565376, 68.906732,-25.470232, -0.000001,-43.400143, 13.470909
103.567238, 69.000060,-25.520405, -0.000001,-43.382631, 13.469489
103.568506, 69.093052,-25.570554, -0.000001,-43.365078, 13.467981
103.569172, 69.185479,-25.620680, -0.000001,-43.347499, 13.466385
103.569232, 69.277115,-25.670782, -0.000001,-43.329909, 13.464700
103.568684, 69.367743,-25.720859, -0.000001,-43.312322, 13.462926
103.567526, 69.457145,-25.770913, -0.000001,-43.294754, 13.461064
103.565764, 69.545115,-25.820941, -0.000001,-43.277220, 13.459112
103.563401, 69.631451,-25.870944, -0.000001,-43.259732, 13.457072
103.560446, 69.715960,-25.920922, -0.000001,-43.242307, 13.454942
103.556909, 69.798457,-25.970874, -0.000001,-43.224957, 13.452723
103.552804, 69.878766,-26.020800, -0.000001,-43.207694, 13.450414
103.548145, 69.956721,-26.070699, -0.000001,-43.190532, 13.448015
103.542949, 70.032167,-26.120572, -0.000001,-43.173481, 13.445527
103.537237, 70.104960,-26.170418, -0.000001,-43.156551, 13.442949
103.531028, 70.174965,-26.220236, -0.000001,-43.139753, 13.440280
103.524346, 70.242063,-26.270028, -0.000001,-43.123095, 13.437521
103.517215, 70.306143,-26.319791, -0.000001,-43.106583, 13.434672
103.509662, 70.367109,-26.369526, -0.000001,-43.090224, 13.431732
103.501714, 70.424878,-26.419233, -0.000001,-43.074024, 13.428702
103.493399, 70.479379,-26.468911, -0.000001,-43.057986, 13.425580
103.484748, 70.530555,-26.518560, -0.000001,-43.042112, 13.422368
103.475790, 70.578362,-26.568180, -0.000001,-43.026405, 13.419064
103.466557, 70.622769,-26.617771, -0.000001,-43.010864, 13.415669
103.457080, 70.663761,-26.667332, -0.000001,-42.995489, 13.412183
103.447392, 70.701334,-26.716863, -0.000001,-42.980277, 13.408605
103.437525, 70.735497,-26.766363, -0.000001,-42.965225, 13.404935
103.427511, 70.766274,-26.815833, -0.000001,-42.950330, 13.401173
103.417382, 70.793702,-26.865272, -0.000001,-42.935585, 13.397319
103.407170, 70.817830,-26.914680, -0.000001,-42.920985, 13.393373
103.396907, 70.838720,-26.964056, -0.000001,-42.906523, 13.389335
103.386622, 70.856446,-27.013401, -0.000001,-42.892189, 13.385205
103.376347, 70.871094,-27.062715, -0.000001,-42.877977, 13.380981
103.366110, 70.882762,-27.111995, -0.000001,-42.863876, 13.376665
103.355940, 70.891556,-27.161244, -0.000001,-42.849877, 13.372256
103.345862, 70.897598,-27.210460, -0.000001,-42.835968, 13.367754
103.335904, 70.901015,-27.259643, -0.000001,-42.822140, 13.363159
103.326088, 70.901945,-27.308793, -0.000001,-42.808380, 13.358471
103.316438, 70.900535,-27.357909, -0.000001,-42.794679, 13.353689
103.306975, 70.896941,-27.406992, -0.000001,-42.781024, 13.348813
103.297718, 70.891324,-27.456040, -0.000001,-42.767403, 13.343844
103.288685, 70.883854,-27.505055, -0.000001,-42.753806, 13.338781
103.279891, 70.874706,-27.554035, -0.000001,-42.740222, 13.333624
103.271351, 70.864061,-27.602980, -0.000001,-42.726638, 13.328373
103.263076, 70.852102,-27.651890, -0.000001,-42.713046, 13.323027
103.255076, 70.839020,-27.700765, -0.000001,-42.699435, 13.317587
103.247360, 70.825007,-27.749604, -0.000001,-42.685795, 13.312052
103.239933, 70.810255,-27.798408, -0.000001,-42.672117, 13.306423
103.232800, 70.794961,-27.847176, -0.000001,-42.658393, 13.300699
103.225961, 70.779322,-27.895907, -0.000001,-42.644616, 13.294880
103.219418, 70.763533,-27.944602, -0.000001,-42.630778, 13.288966
103.213168, 70.747789,-27.993259, -0.000001,-42.616874, 13.282957
103.207206, 70.732286,-28.041880, -0.000001,-42.602898, 13.276852
103.201528, 70.717213,-28.090464, -0.000001,-42.588846, 13.270651
103.196126, 70.702760,-28.139009, -0.000001,-42.574715, 13.264356
103.190989, 70.689111,-28.187517, -0.000001,-42.560503, 13.257964
103.186107, 70.676445,-28.235986, -0.000001,-42.546207, 13.251476
103.181467, 70.664939,-28.284417, -0.000001,-42.531827, 13.244893
103.177054, 70.654760,-28.332810, -0.000001,-42.517364, 13.238213
103.172853, 70.646072,-28.381163, -0.000001,-42.502819, 13.231437
103.168847, 70.639029,-28.429477, -0.000001,-42.488194, 13.224564
103.165017, 70.633781,-28.477751, -0.000001,-42.473491, 13.217595
103.161343, 70.630466,-28.525985, -0.000001,-42.458716, 13.210529
103.157805, 70.629216,-28.574180, -0.000001,-42.443872, 13.203367
103.154381, 70.630153,-28.622333, -0.000001,-42.428964, 13.196107
103.151049, 70.633389,-28.670446, -0.000001,-42.413999, 13.188751
103.147786, 70.639028,-28.718518, -0.000001,-42.398984, 13.181297
103.144569, 70.647161,-28.766548, -0.000001,-42.383925, 13.173746
103.141373, 70.657871,-28.814537, -0.000001,-42.368830, 13.166097
103.138174, 70.671229,-28.862484, -0.000001,-42.353707, 13.158351
103.134948, 70.687296,-28.910388, -0.000001,-42.338565, 13.150507
103.131671, 70.706120,-28.958250, -0.000001,-42.323412, 13.142565
103.128317, 70.727740,-29.006070, -0.000001,-42.308257, 13.134526
103.124863, 70.752182,-29.053845, -0.000001,-42.293109, 13.126388
103.121285, 70.779461,-29.101578, -0.000001,-42.277978, 13.118152
103.117560, 70.809582,-29.149266, -0.000001,-42.262871, 13.109818
103.113665, 70.842538,-29.196911, -0.000001,-42.247799, 13.101386
103.109576, 70.878311,-29.244511, -0.000001,-42.232770, 13.092855
103.105274, 70.916870,-29.292066, -0.000001,-42.217792, 13.084225
103.100737, 70.958176,-29.339576, -0.000001,-42.202874, 13.075496
103.095946, 71.002178,-29.387041, -0.000001,-42.188023, 13.066669
103.090882, 71.048816,-29.434460, -0.000001,-42.173246, 13.057742
103.085528, 71.098019,-29.481833, -0.000001,-42.158552, 13.048717
103.079867, 71.149705,-29.529159, -0.000001,-42.143945, 13.039592
103.073884, 71.203785,-29.576439, -0.000001,-42.129432, 13.030368
103.067566, 71.260162,-29.623672, -0.000001,-42.115019, 13.021044
103.060901, 71.318726,-29.670857, -0.000001,-42.100709, 13.011621
103.053876, 71.379365,-29.717995, -0.000001,-42.086506, 13.002098
103.046483, 71.441955,-29.765085, -0.000001,-42.072414, 12.992475
103.038715, 71.506367,-29.812126, -0.000001,-42.058435, 12.982752
103.030563, 71.572466,-29.859119, -0.000001,-42.044571, 12.972929
103.022024, 71.640111,-29.906063, -0.000001,-42.030822, 12.963006
103.013094, 71.709155,-29.952957, -0.000001,-42.017190, 12.952983
103.003770, 71.779448,-29.999802, -0.000001,-42.003673, 12.942860
102.994053, 71.850834,-30.046596, -0.000001,-41.990271, 12.932636
102.983943, 71.923155,-30.093340, -0.000001,-41.976981, 12.922311
102.973444, 71.996252,-30.140034, -0.000001,-41.963802, 12.911886
102.962558, 72.069960,-30.186676, -0.000001,-41.950729, 12.901360
102.951291, 72.144117,-30.233268, -0.000001,-41.937760, 12.890733
102.939650, 72.218556,-30.279807, -0.000001,-41.924891, 12.880005
102.927643, 72.293114,-30.326294, -0.000001,-41.912115, 12.869176
102.915279, 72.367627,-30.372729, -0.000001,-41.899429, 12.858245
102.902568, 72.441931,-30.419112, -0.000001,-41.886827, 12.847214
102.889522, 72.515865,-30.465441, -0.000001,-41.874302, 12.836080
102.876153, 72.589271,-30.511717, -0.000001,-41.861849, 12.824846
102.862475, 72.661993,-30.557939, -0.000001,-41.849460, 12.813510
102.848502, 72.733880,-30.604107, -0.000001,-41.837130, 12.802072
102.834249, 72.804784,-30.650221, -0.000001,-41.824851, 12.790532
102.819732, 72.874563,-30.696280, -0.000001,-41.812617, 12.778890
102.804968, 72.943078,-30.742283, -0.000001,-41.800421, 12.767147
102.789974, 73.010198,-30.788232, -0.000001,-41.788255, 12.755301
102.774766, 73.075799,-30.834125, -0.000001,-41.776113, 12.743353
102.759363, 73.139761,-30.879962, -0.000001,-41.763989, 12.731302
102.743782, 73.201973,-30.925742, -0.000001,-41.751875, 12.719150
102.728042, 73.262332,-30.971466, -0.000001,-41.739767, 12.706895
102.712161, 73.320741,-31.017132, -0.000001,-41.727658, 12.694537
102.696157, 73.377112,-31.062742, -0.000001,-41.715542, 12.682076
102.680048, 73.431367,-31.108293, -0.000001,-41.703415, 12.669513
102.663852, 73.483435,-31.153787, -0.000001,-41.691272, 12.656847
102.647586, 73.533255,-31.199222, -0.000001,-41.679108, 12.644078
102.631267, 73.580773,-31.244599, -0.000001,-41.666921, 12.631206
102.614913, 73.625948,-31.289917, -0.000001,-41.654706, 12.618231
102.598538, 73.668745,-31.335175, -0.000001,-41.642462, 12.605153
102.582159, 73.709140,-31.380374, -0.000001,-41.630186, 12.591971
102.565790, 73.747119,-31.425513, -0.000001,-41.617876, 12.578687
102.549445, 73.782676,-31.470591, -0.000001,-41.605532, 12.565298
102.533138, 73.815815,-31.515609, -0.000001,-41.593153, 12.551806
102.516880, 73.846549,-31.560567, -0.000001,-41.580739, 12.538211
102.500683, 73.874902,-31.605463, -0.000001,-41.568292, 12.524512
102.484557, 73.900905,-31.650297, -0.000001,-41.555811, 12.510709
102.468511, 73.924599,-31.695070, -0.000001,-41.543300, 12.496802
102.452554, 73.946033,-31.739781, -0.000001,-41.530760, 12.482791
102.436693, 73.965265,-31.784429, -0.000001,-41.518193, 12.468677
102.420934, 73.982359,-31.829014, -0.000001,-41.505604, 12.454458
102.405282, 73.997391,-31.873537, -0.000001,-41.492996, 12.440135
102.389741, 74.010441,-31.917996, -0.000001,-41.480372, 12.425708
102.374314, 74.021597,-31.962392, -0.000001,-41.467737, 12.411177
102.359001, 74.030954,-32.006723, -0.000001,-41.455095, 12.396541
102.343804, 74.038613,-32.050991, -0.000001,-41.442452, 12.381801
102.328721, 74.044680,-32.095194, -0.000001,-41.429812, 12.366956
102.313752, 74.049269,-32.139332, -0.000001,-41.417181, 12.352007
102.298893, 74.052495,-32.183405, -0.000001,-41.404564, 12.336954
102.284140, 74.054481,-32.227412, -0.000001,-41.391966, 12.321795
102.269488, 74.055352,-32.271354, -0.000001,-41.379393, 12.306532
102.254932, 74.055236,-32.315230, -0.000001,-41.366850, 12.291164
102.240464, 74.054265,-32.359039, -0.000001,-41.354343, 12.275691
102.226077, 74.052573,-32.402782, -0.000001,-41.341877, 12.260113
102.211762, 74.050295,-32.446458, -0.000001,-41.329458, 12.244431
102.197509, 74.047568,-32.490066, -0.000001,-41.317089, 12.228643
102.183310, 74.044530,-32.533608, -0.000001,-41.304776, 12.212750
102.169153, 74.041319,-32.577081, -0.000001,-41.292524, 12.196752
102.155026, 74.038070,-32.620486, -0.000001,-41.280336, 12.180648
102.140917, 74.034921,-32.663823, -0.000001,-41.268217, 12.164440
102.126815, 74.032005,-32.707092, -0.000001,-41.256170, 12.148126
102.112707, 74.029457,-32.750291, -0.000001,-41.244198, 12.131707
102.098579, 74.027405,-32.793421, -0.000001,-41.232304, 12.115182
102.084418, 74.025977,-32.836481, -0.000001,-41.220491, 12.098552
102.070210, 74.025296,-32.879472, -0.000001,-41.208759, 12.081817
102.055942, 74.025483,-32.922393, -0.000001,-41.197112, 12.064975
102.041600, 74.026652,-32.965243, -0.000001,-41.185550, 12.048029
102.027171, 74.028914,-33.008022, -0.000001,-41.174074, 12.030976
102.012640, 74.032374,-33.050730, -0.000001,-41.162683, 12.013818
101.997993, 74.037132,-33.093367, -0.000001,-41.151378, 11.996554
101.983219, 74.043281,-33.135933, -0.000001,-41.140158, 11.979185
101.968304, 74.050910,-33.178426, -0.000000,-41.129022, 11.961709
101.953235, 74.060098,-33.220848, -0.000000,-41.117969, 11.944128
101.937999, 74.070920,-33.263196, -0.000000,-41.106996, 11.926441
101.922586, 74.083443,-33.305472, -0.000000,-41.096102, 11.908648
101.906984, 74.097726,-33.347675, -0.000000,-41.085284, 11.890749
101.891182, 74.113822,-33.389805, -0.000000,-41.074539, 11.872744
101.875170, 74.131775,-33.431861, -0.000000,-41.063864, 11.854633
101.858939, 74.151622,-33.473842, -0.000000,-41.053256, 11.836416
101.842480, 74.173391,-33.515750, -0.000000,-41.042711, 11.818093
101.825785, 74.197105,-33.557583, -0.000000,-41.032226, 11.799664
101.808846, 74.222775,-33.599341, -0.000000,-41.021796, 11.781129
101.791658, 74.250407,-33.641024, -0.000000,-41.011417, 11.762488
101.774215, 74.279999,-33.682631, -0.000000,-41.001085, 11.743740
101.756511, 74.311539,-33.724163, -0.000000,-40.990797, 11.724887
101.738544, 74.345009,-33.765618, -0.000000,-40.980548, 11.705927
101.720309, 74.380384,-33.806997, -0.000000,-40.970333, 11.686861
101.701804, 74.417630,-33.848299, -0.000000,-40.960149, 11.667688
101.683029, 74.456707,-33.889525, -0.000000,-40.949992, 11.648410
101.663982, 74.497566,-33.930673, -0.000000,-40.939858, 11.629025
101.644664, 74.540153,-33.971743, -0.000000,-40.929742, 11.609534
101.625075, 74.584407,-34.012735, -0.000000,-40.919643, 11.589936
101.605219, 74.630260,-34.053649, -0.000000,-40.909555, 11.570233
101.585097, 74.677640,-34.094485, -0.000000,-40.899476, 11.550423
101.564714, 74.726467,-34.135241, -0.000000,-40.889404, 11.530506
101.544072, 74.776657,-34.175919, -0.000000,-40.879335, 11.510484
101.523178, 74.828121,-34.216517, -0.000000,-40.869268, 11.490355
101.502037, 74.880764,-34.257035, -0.000000,-40.859200, 11.470120
101.480655, 74.934489,-34.297473, -0.000000,-40.849129, 11.449778
101.459039, 74.989194,-34.337830, -0.000000,-40.839055, 11.429330
101.437196, 75.044775,-34.378107, -0.000000,-40.828977, 11.408776
101.415135, 75.101123,-34.418303, -0.000000,-40.818893, 11.388115
101.392864, 75.158128,-34.458417, -0.000000,-40.808804, 11.367349
101.370391, 75.215678,-34.498449, -0.000000,-40.798709, 11.346475
101.347726, 75.273658,-34.538400, -0.000000,-40.788609, 11.325496
101.324879, 75.331955,-34.578268, -0.000000,-40.778504, 11.304410
101.301858, 75.390452,-34.618053, -0.000000,-40.768396, 11.283218
101.278675, 75.449034,-34.657756, -0.000000,-40.758286, 11.261920
101.255339, 75.507586,-34.697375, -0.000000,-40.748175, 11.240516
101.231860, 75.565992,-34.736910, -0.000000,-40.738065, 11.219005
101.208250, 75.624139,-34.776362, -0.000000,-40.727959, 11.197388
101.184517, 75.681916,-34.815729, -0.000000,-40.717858, 11.175665
101.160673, 75.739213,-34.855012, -0.000000,-40.707766, 11.153836
101.136727, 75.795921,-34.894209, -0.000000,-40.697684, 11.131900
101.112689, 75.851938,-34.933322, -0.000000,-40.687617, 11.109859
101.088570, 75.907161,-34.972349, -0.000000,-40.677566, 11.087711
101.064379, 75.961493,-35.011290, -0.000000,-40.667535, 11.065458
101.040125, 76.014840,-35.050145, -0.000000,-40.657528, 11.043098
101.015817, 76.067113,-35.088913, -0.000000,-40.647547, 11.020632
100.991464, 76.118227,-35.127594, -0.000000,-40.637596, 10.998061
100.967073, 76.168103,-35.166189, -0.000000,-40.627678, 10.975383
100.942652, 76.216665,-35.204696, -0.000000,-40.617796, 10.952600
100.918209, 76.263846,-35.243115, -0.000000,-40.607954, 10.929711
100.893751, 76.309581,-35.281445, -0.000000,-40.598154, 10.906715
100.869282, 76.353812,-35.319688, -0.000000,-40.588400, 10.883615
100.844810, 76.396490,-35.357842, -0.000000,-40.578694, 10.860408
100.820338, 76.437567,-35.395906, -0.000000,-40.569040, 10.837096
100.795872, 76.477006,-35.433881, -0.000000,-40.559439, 10.813678
100.771415, 76.514775,-35.471767, -0.000000,-40.549895, 10.790154
100.746971, 76.550847,-35.509562, -0.000000,-40.540408, 10.766525
100.722541, 76.585203,-35.547268, -0.000000,-40.530982, 10.742791
100.698127, 76.617832,-35.584882, -0.000000,-40.521618, 10.718951
100.673732, 76.648726,-35.622406, -0.000000,-40.512317, 10.695005
100.649355, 76.677887,-35.659838, -0.000000,-40.503081, 10.670955
100.624996, 76.705323,-35.697178, -0.000000,-40.493910, 10.646799
100.600655, 76.731046,-35.734427, -0.000000,-40.484805, 10.622538
100.576331, 76.755078,-35.771584, -0.000000,-40.475767, 10.598172
100.552021, 76.777444,-35.808647, -0.000000,-40.466795, 10.573700
100.527724, 76.798177,-35.845619, -0.000000,-40.457891, 10.549124
100.503435, 76.817317,-35.882496, -0.000000,-40.449052, 10.524443
100.479153, 76.834906,-35.919281, -0.000000,-40.440279, 10.499657
100.454871, 76.850996,-35.955972, -0.000000,-40.431571, 10.474766
100.430587, 76.865640,-35.992568, -0.000000,-40.422926, 10.449771
100.406295, 76.878900,-36.029070, -0.000000,-40.414344, 10.424670
100.381990, 76.890840,-36.065478, -0.000000,-40.405823, 10.399466
100.357666, 76.901529,-36.101790, -0.000000,-40.397360, 10.374157
100.333316, 76.911042,-36.138007, -0.000000,-40.388955, 10.348743
100.308934, 76.919455,-36.174129, -0.000000,-40.380605, 10.323225
100.284514, 76.926849,-36.210155, -0.000000,-40.372308, 10.297603
100.260049, 76.933309,-36.246084, -0.000000,-40.364062, 10.271877
100.235530, 76.938922,-36.281917, -0.000000,-40.355864, 10.246047
100.210952, 76.943777,-36.317653, -0.000000,-40.347712, 10.220112
100.186306, 76.947965,-36.353292, -0.000000,-40.339604, 10.194074
100.161585, 76.951580,-36.388834, -0.000000,-40.331536, 10.167933
100.136781, 76.954717,-36.424278, -0.000000,-40.323506, 10.141687
100.111886, 76.957470,-36.459624, -0.000000,-40.315513, 10.115338
100.086894, 76.959937,-36.494871, -0.000000,-40.307552, 10.088886
100.061796, 76.962213,-36.530020, -0.000000,-40.299622, 10.062330
100.036585, 76.964394,-36.565070, -0.000000,-40.291721, 10.035671
100.011254, 76.966577,-36.600021, -0.000000,-40.283846, 10.008908
 99.985796, 76.968855,-36.634873, -0.000000,-40.275995,  9.982043
 99.960204, 76.971323,-36.669625, -0.000000,-40.268165,  9.955075
 99.934471, 76.974071,-36.704276, -0.000000,-40.260356,  9.928004
 99.908591, 76.977189,-36.738828, -0.000000,-40.252564,  9.900830
 99.882558, 76.980766,-36.773279, -0.000000,-40.244789,  9.873554
 99.856366, 76.984884,-36.807628, -0.000000,-40.237030,  9.846175
 99.830010, 76.989627,-36.841877, -0.000000,-40.229284,  9.818694
 99.803485, 76.995073,-36.876024, -0.000000,-40.221551,  9.791111
 99.776786, 77.001295,-36.910070, -0.000000,-40.213830,  9.763425
 99.749910, 77.008366,-36.944013, -0.000000,-40.206120,  9.735638
 99.722853, 77.016352,-36.977854, -0.000000,-40.198421,  9.707749
 99.695611, 77.025316,-37.011592, -0.000000,-40.190733,  9.679758
 99.668181, 77.035316,-37.045228, -0.000000,-40.183055,  9.651666
 99.640562, 77.046404,-37.078760, -0.000000,-40.175388,  9.623472
 99.612752, 77.058630,-37.112189, -0.000000,-40.167732,  9.595177
 99.584749, 77.072036,-37.145514, -0.000000,-40.160088,  9.566781
 99.556552, 77.086661,-37.178735, -0.000000,-40.152456,  9.538283
 99.528161, 77.102537,-37.211852, -0.000000,-40.144837,  9.509685
 99.499577, 77.119692,-37.244864, -0.000000,-40.137233,  9.480986
 99.470799, 77.138147,-37.277771, -0.000000,-40.129644,  9.452187
 99.441830, 77.157919,-37.310573, -0.000000,-40.122072,  9.423287
 99.412669, 77.179019,-37.343270, -0.000000,-40.114519,  9.394287
 99.383320, 77.201452,-37.375861, -0.000000,-40.106985,  9.365187
 99.353785, 77.225216,-37.408346, -0.000000,-40.099474,  9.335987
 99.324066, 77.250308,-37.440725, -0.000000,-40.091986,  9.306687
 99.294166, 77.276714,-37.472997, -0.000000,-40.084523,  9.277288
 99.264090, 77.304419,-37.505162, -0.000000,-40.077087,  9.247789
 99.233841, 77.333401,-37.537220, -0.000000,-40.069681,  9.218191
 99.203424, 77.363632,-37.569171, -0.000000,-40.062306,  9.188494
 99.172842, 77.395081,-37.601014, -0.000000,-40.054964,  9.158697
 99.142101, 77.427710,-37.632750, -0.000000,-40.047657,  9.128802
 99.111206, 77.461478,-37.664377, -0.000000,-40.040388,  9.098809
 99.080161, 77.496339,-37.695895, -0.000000,-40.033156,  9.068717
 99.048973, 77.532242,-37.727305, -0.000000,-40.025966,  9.038526
 99.017648, 77.569134,-37.758606, -0.000000,-40.018818,  9.008238
 98.986190, 77.606955,-37.789798, -0.000000,-40.011714,  8.977852
 98.954605, 77.645646,-37.820880, -0.000000,-40.004655,  8.947368
 98.922901, 77.685140,-37.851852, -0.000000,-39.997643,  8.916787
 98.891082, 77.725369,-37.882714, -0.000000,-39.990679,  8.886108
 98.859154, 77.766263,-37.913465, -0.000000,-39.983765,  8.855332
 98.827124, 77.807750,-37.944106, -0.000000,-39.976901,  8.824460
 98.794998, 77.849753,-37.974636, -0.000000,-39.970088,  8.793490
 98.762781, 77.892196,-38.005055, -0.000000,-39.963327,  8.762424
 98.730479, 77.935001,-38.035362, -0.000000,-39.956619,  8.731262
 98.698098, 77.978087,-38.065557, -0.000000,-39.949963,  8.700003
 98.665644, 78.021375,-38.095641, -0.000000,-39.943361,  8.668649
 98.633120, 78.064783,-38.125612, -0.000000,-39.936812,  8.637199
 98.600533, 78.108230,-38.155470, -0.000000,-39.930316,  8.605654
 98.567888, 78.151636,-38.185216, -0.000000,-39.923872,  8.574013
 98.535189, 78.194919,-38.214848, -0.000000,-39.917481,  8.542277
 98.502441, 78.237999,-38.244367, -0.000000,-39.911143,  8.510447
 98.469646, 78.280798,-38.273773, -0.000000,-39.904855,  8.478521
 98.436811, 78.323238,-38.303064, -0.000000,-39.898618,  8.446502
 98.403937, 78.365243,-38.332241, -0.000000,-39.892430,  8.414388
 98.371028, 78.406739,-38.361304, -0.000000,-39.886291,  8.382180
 98.338087, 78.447654,-38.390252, -0.000000,-39.880199,  8.349878
 98.305116, 78.487919,-38.419085, -0.000000,-39.874153,  8.317484
 98.272117, 78.527468,-38.447802, -0.000000,-39.868152,  8.284995
 98.239093, 78.566236,-38.476404, -0.000000,-39.862194,  8.252414
 98.206044, 78.604164,-38.504891, -0.000000,-39.856279,  8.219740
 98.172972, 78.641194,-38.533261, -0.000000,-39.850403,  8.186973
 98.139877, 78.677272,-38.561514, -0.000000,-39.844566,  8.154115
 98.106760, 78.712349,-38.589652, -0.000000,-39.838767,  8.121164
 98.073620, 78.746379,-38.617672, -0.000000,-39.833003,  8.088121
 98.040458, 78.779321,-38.645575, -0.000000,-39.827273,  8.054987
 98.007272, 78.811137,-38.673360, -0.000000,-39.821576,  8.021761
 97.974062, 78.841794,-38.701028, -0.000000,-39.815910,  7.988445
 97.940826, 78.871263,-38.728578, -0.000000,-39.810273,  7.955037
 97.907563, 78.899521,-38.756009, -0.000000,-39.804664,  7.921540
 97.874270, 78.926547,-38.783323, -0.000000,-39.799083,  7.887951
 97.840946, 78.952326,-38.810517, -0.000000,-39.793526,  7.854273
 97.807587, 78.976850,-38.837592, -0.000000,-39.787994,  7.820506
 97.774192, 79.000111,-38.864548, -0.000000,-39.782485,  7.786648
 97.740757, 79.022109,-38.891385, -0.000000,-39.776998,  7.752702
 97.707279, 79.042848,-38.918101, -0.000000,-39.771533,  7.718666
 97.673755, 79.062335,-38.944698, -0.000000,-39.766087,  7.684542
 97.640180, 79.080585,-38.971174, -0.000000,-39.760662,  7.650330
 97.606553, 79.097613,-38.997530, -0.000000,-39.755255,  7.616029
 97.572868, 79.113441,-39.023765, -0.000000,-39.749867,  7.581641
 97.539122, 79.128095,-39.049879, -0.000000,-39.744498,  7.547165
 97.505311, 79.141605,-39.075871, -0.000000,-39.739147,  7.512602
 97.471431, 79.154004,-39.101742, -0.000000,-39.733814,  7.477952
 97.437478, 79.165330,-39.127491, -0.000000,-39.728499,  7.443216
 97.403448, 79.175624,-39.153117, -0.000000,-39.723202,  7.408393
 97.369336, 79.184930,-39.178622, -0.000000,-39.717924,  7.373484
 97.335139, 79.193296,-39.204004, -0.000000,-39.712665,  7.338489
 97.300853, 79.200773,-39.229263, -0.000000,-39.707426,  7.303409
 97.266474, 79.207414,-39.254399, -0.000000,-39.702207,  7.268243
 97.231998, 79.213275,-39.279411, -0.000000,-39.697008,  7.232993
 97.197421, 79.218414,-39.304300, -0.000000,-39.691831,  7.197658
 97.162741, 79.222892,-39.329065, -0.000000,-39.686677,  7.162239
 97.127953, 79.226770,-39.353706, -0.000000,-39.681546,  7.126736
 97.093054, 79.230113,-39.378223, -0.000000,-39.676439,  7.091150
 97.058041, 79.232985,-39.402615, -0.000000,-39.671358,  7.055480
 97.022912, 79.235452,-39.426882, -0.000000,-39.666303,  7.019727
 96.987664, 79.237582,-39.451025, -0.000000,-39.661276,  6.983892
 96.952294, 79.239441,-39.475042, -0.000000,-39.656277,  6.947974
 96.916801, 79.241097,-39.498933, -0.000000,-39.651309,  6.911975
 96.881182, 79.242617,-39.522699, -0.000000,-39.646371,  6.875893
 96.845436, 79.244068,-39.546338, -0.000000,-39.641466,  6.839731
 96.809560, 79.245517,-39.569852, -0.000000,-39.636594,  6.803487
 96.773556, 79.247030,-39.593239, -0.000000,-39.631756,  6.767163
 96.737420, 79.248671,-39.616499, -0.000000,-39.626954,  6.730758
 96.701153, 79.250503,-39.639632, -0.000000,-39.622188,  6.694274
 96.664755, 79.252588,-39.662639, -0.000000,-39.617460,  6.657709
 96.628225, 79.254986,-39.685518, -0.000000,-39.612770,  6.621066
 96.591563, 79.257755,-39.708269, -0.000000,-39.608119,  6.584344
 96.554770, 79.260950,-39.730892, -0.000000,-39.603508,  6.547542
 96.517848, 79.264625,-39.753388, -0.000000,-39.598938,  6.510663
 96.480796, 79.268830,-39.775755, -0.000000,-39.594409,  6.473706
 96.443616, 79.273613,-39.797994, -0.000000,-39.589922,  6.436671
 96.406310, 79.279018,-39.820103, -0.000000,-39.585477,  6.399560
 96.368879, 79.285088,-39.842085, -0.000000,-39.581074,  6.362371
 96.331326, 79.291860,-39.863936, -0.000000,-39.576714,  6.325106
 96.293652, 79.299370,-39.885659, -0.000000,-39.572396,  6.287765
 96.255860, 79.307648,-39.907252, -0.000000,-39.568122,  6.250348
 96.217952, 79.316723,-39.928715, -0.000000,-39.563890,  6.212856
 96.179932, 79.326619,-39.950048, -0.000000,-39.559701,  6.175288
 96.141802, 79.337355,-39.971251, -0.000000,-39.555554,  6.137647
 96.103566, 79.348949,-39.992324, -0.000000,-39.551449,  6.099930
 96.065225, 79.361412,-40.013265, -0.000000,-39.547386,  6.062141
 96.026785, 79.374754,-40.034076, -0.000000,-39.543364,  6.024277
 95.988247, 79.388979,-40.054756, -0.000000,-39.539382,  5.986340
 95.949616, 79.404088,-40.075304, -0.000000,-39.535441,  5.948331
 95.910895, 79.420077,-40.095720, -0.000000,-39.531539,  5.910248
 95.872088, 79.436941,-40.116004, -0.000000,-39.527676,  5.872094
 95.833198, 79.454667,-40.136155, -0.000000,-39.523850,  5.833867
 95.794228, 79.473242,-40.156174, -0.000000,-39.520062,  5.795569
 95.755184, 79.492648,-40.176059, -0.000000,-39.516309,  5.757199
 95.716067, 79.512862,-40.195810, -0.000000,-39.512593,  5.718758
 95.676881, 79.533860,-40.215427, -0.000000,-39.508911,  5.680247
 95.637630, 79.555613,-40.234909, -0.000000,-39.505263,  5.641664
 95.598318, 79.578089,-40.254257, -0.000000,-39.501647,  5.603011
 95.558947, 79.601254,-40.273468, -0.000000,-39.498064,  5.564288
 95.519521, 79.625070,-40.292543, -0.000000,-39.494513,  5.525495
 95.480042, 79.649496,-40.311481, -0.000000,-39.490991,  5.486633
 95.440515, 79.674490,-40.330282, -0.000000,-39.487500,  5.447700
 95.400941, 79.700005,-40.348944, -0.000000,-39.484038,  5.408699
 95.361323, 79.725996,-40.367468, -0.000000,-39.480604,  5.369628
 95.321663, 79.752412,-40.385852, -0.000000,-39.477199,  5.330489
 95.281965, 79.779201,-40.404096, -0.000000,-39.473820,  5.291280
 95.242230, 79.806312,-40.422198, -0.000000,-39.470469,  5.252004
 95.202460, 79.833689,-40.440159, -0.000000,-39.467143,  5.212659
 95.162657, 79.861278,-40.457978, -0.000000,-39.463844,  5.173247
 95.122823, 79.889022,-40.475653, -0.000000,-39.460570,  5.133766
 95.082958, 79.916864,-40.493184, -0.000000,-39.457322,  5.094219
 95.043065, 79.944747,-40.510569, -0.000000,-39.454099,  5.054604
 95.003143, 79.972613,-40.527809, -0.000000,-39.450901,  5.014922
 94.963195, 80.000405,-40.544902, -0.000000,-39.447728,  4.975174
 94.923221, 80.028065,-40.561847, -0.000000,-39.444581,  4.935359
 94.883220, 80.055536,-40.578644, -0.000000,-39.441458,  4.895479
 94.843194, 80.082762,-40.595291, -0.000000,-39.438361,  4.855533
 94.803142, 80.109687,-40.611788, -0.000000,-39.435289,  4.815523
 94.763065, 80.136258,-40.628133, -0.000000,-39.432243,  4.775447
 94.722961, 80.162421,-40.644326, -0.000000,-39.429224,  4.735307
 94.682831, 80.188125,-40.660366, -0.000000,-39.426230,  4.695104
 94.642674, 80.213319,-40.676252, -0.000000,-39.423264,  4.654837
 94.602488, 80.237956,-40.691982, -0.000000,-39.420325,  4.614507
 94.562274, 80.261989,-40.707557, -0.000000,-39.417415,  4.574115
 94.522030, 80.285376,-40.722975, -0.000000,-39.414532,  4.533661
 94.481755, 80.308074,-40.738236, -0.000000,-39.411679,  4.493146
 94.441447, 80.330045,-40.753337, -0.000000,-39.408855,  4.452570
 94.401105, 80.351253,-40.768280, -0.000000,-39.406061,  4.411934
 94.360728, 80.371663,-40.783062, -0.000000,-39.403298,  4.371239
 94.320314, 80.391246,-40.797683, -0.000000,-39.400567,  4.330485
 94.279862, 80.409973,-40.812142, -0.000000,-39.397867,  4.289673
 94.239369, 80.427820,-40.826438, -0.000000,-39.395200,  4.248803
 94.198834, 80.444766,-40.840571, -0.000000,-39.392567,  4.207877
 94.158255, 80.460792,-40.854540, -0.000000,-39.389967,  4.166895
 94.117631, 80.475884,-40.868345, -0.000000,-39.387401,  4.125857
 94.076959, 80.490029,-40.881984, -0.000000,-39.384870,  4.084766
 94.036237, 80.503219,-40.895456, -0.000000,-39.382375,  4.043620
 93.995465, 80.515449,-40.908763, -0.000000,-39.379915,  4.002421
 93.954640, 80.526718,-40.921902, -0.000000,-39.377491,  3.961171
 93.913761, 80.537026,-40.934874, -0.000000,-39.375104,  3.919869
 93.872825, 80.546379,-40.947678, -0.000000,-39.372754,  3.878516
 93.831831, 80.554784,-40.960313, -0.000000,-39.370441,  3.837114
 93.790779, 80.562253,-40.972779, -0.000000,-39.368165,  3.795663
 93.749665, 80.568800,-40.985077, -0.000000,-39.365926,  3.754164
 93.708490, 80.574442,-40.997205, -0.000000,-39.363725,  3.712617
 93.667251, 80.579199,-41.009164, -0.000000,-39.361562,  3.671024
 93.625948, 80.583095,-41.020953, -0.000000,-39.359436,  3.629385
 93.584580, 80.586156,-41.032572, -0.000000,-39.357347,  3.587702
 93.543145, 80.588409,-41.044021, -0.000000,-39.355296,  3.545975
 93.501644, 80.589886,-41.055301, -0.000000,-39.353282,  3.504204
 93.460075, 80.590620,-41.066410, -0.000000,-39.351304,  3.462391
 93.418438, 80.590646,-41.077350, -0.000000,-39.349364,  3.420537
 93.376732, 80.590002,-41.088120, -0.000000,-39.347459,  3.378641
 93.334958, 80.588728,-41.098721, -0.000000,-39.345590,  3.336706
 93.293115, 80.586864,-41.109153, -0.000000,-39.343757,  3.294731
 93.251204, 80.584453,-41.119416, -0.000000,-39.341958,  3.252718
 93.209225, 80.581539,-41.129511, -0.000000,-39.340193,  3.210667
 93.167179, 80.578168,-41.139438, -0.000000,-39.338462,  3.168579
 93.125065, 80.574385,-41.149197, -0.000000,-39.336765,  3.126455
 93.082884, 80.570238,-41.158789, -0.000000,-39.335099,  3.084295
 93.040639, 80.565774,-41.168215, -0.000000,-39.333466,  3.042100
 92.998329, 80.561041,-41.177475, -0.000000,-39.331864,  2.999871
 92.955955, 80.556089,-41.186570, -0.000000,-39.330292,  2.957608
 92.913520, 80.550964,-41.195500, -0.000000,-39.328750,  2.915312
 92.871024, 80.545716,-41.204267, -0.000000,-39.327237,  2.872984
 92.828469, 80.540392,-41.212871, -0.000000,-39.325752,  2.830624
 92.785857, 80.535041,-41.221313, -0.000000,-39.324295,  2.788234
 92.743189, 80.529708,-41.229594, -0.000000,-39.322865,  2.745812
 92.700468, 80.524439,-41.237715, -0.000000,-39.321461,  2.703361
 92.657695, 80.519280,-41.245676, -0.000000,-39.320083,  2.660881
 92.614873, 80.514275,-41.253480, -0.000000,-39.318730,  2.618371
 92.572004, 80.509465,-41.261126, -0.000000,-39.317401,  2.575834
 92.529089, 80.504891,-41.268616, -0.000000,-39.316096,  2.533269
 92.486131, 80.500593,-41.275952, -0.000000,-39.314815,  2.490676
 92.443133, 80.496608,-41.283134, -0.000000,-39.313556,  2.448057
 92.400097, 80.492972,-41.290163, -0.000000,-39.312320,  2.405412
 92.357025, 80.489717,-41.297040, -0.000000,-39.311106,  2.362741
 92.313920, 80.486875,-41.303768, -0.000000,-39.309913,  2.320045
 92.270784, 80.484475,-41.310346, -0.000000,-39.308741,  2.277325
 92.227620, 80.482544,-41.316777, -0.000000,-39.307590,  2.234580
 92.184430, 80.481105,-41.323062, -0.000000,-39.306460,  2.191812
 92.141216, 80.480180,-41.329201, -0.000000,-39.305350,  2.149020
 92.097982, 80.479788,-41.335197, -0.000000,-39.304260,  2.106206
 92.054728, 80.479946,-41.341050, -0.000000,-39.303191,  2.063369
 92.011459, 80.480666,-41.346762, -0.000000,-39.302141,  2.020511
 91.968175, 80.481961,-41.352335, -0.000000,-39.301111,  1.977631
 91.924880, 80.483837,-41.357769, -0.000000,-39.300102,  1.934731
 91.881574, 80.486301,-41.363065, -0.000000,-39.299112,  1.891810
 91.838261, 80.489355,-41.368226, -0.000000,-39.298142,  1.848870
 91.794943, 80.492998,-41.373252, -0.000000,-39.297193,  1.805910
 91.751621, 80.497229,-41.378146, -0.000000,-39.296264,  1.762931
 91.708297, 80.502040,-41.382907, -0.000000,-39.295355,  1.719933
 91.664972, 80.507426,-41.387538, -0.000000,-39.294467,  1.676918
 91.621649, 80.513373,-41.392039, -0.000000,-39.293600,  1.633885
 91.578329, 80.519869,-41.396413, -0.000000,-39.292754,  1.590835
 91.535014, 80.526899,-41.400660, -0.000000,-39.291930,  1.547768
 91.491704, 80.534443,-41.404781, -0.000000,-39.291127,  1.504685
 91.448400, 80.542482,-41.408778, -0.000000,-39.290347,  1.461587
 91.405105, 80.550993,-41.412652, -0.000000,-39.289588,  1.418473
 91.361818, 80.559950,-41.416404, -0.000000,-39.288852,  1.375345
 91.318540, 80.569328,-41.420035, -0.000000,-39.288140,  1.332203
 91.275273, 80.579097,-41.423547, -0.000000,-39.287450,  1.289047
 91.232016, 80.589228,-41.426940, -0.000000,-39.286784,  1.245878
 91.188771, 80.599687,-41.430215, -0.000000,-39.286142,  1.202697
 91.145537, 80.610442,-41.433374, -0.000000,-39.285523,  1.159503
 91.102314, 80.621458,-41.436418, -0.000000,-39.284930,  1.116298
 91.059104, 80.632699,-41.439347, -0.000000,-39.284360,  1.073081
 91.015905, 80.644129,-41.442162, -0.000000,-39.283816,  1.029854
 90.972717, 80.655708,-41.444865, -0.000000,-39.283296,  0.986616
 90.929541, 80.667399,-41.447455, -0.000000,-39.282802,  0.943369
 90.886376, 80.679163,-41.449935, -0.000000,-39.282333,  0.900112
 90.843221, 80.690960,-41.452304, -0.000000,-39.281889,  0.856847
 90.800076, 80.702751,-41.454563, -0.000000,-39.281471,  0.813573
 90.756941, 80.714495,-41.456713, -0.000000,-39.281078,  0.770292
 90.713814, 80.726153,-41.458755, -0.000000,-39.280711,  0.727004
 90.670696, 80.737686,-41.460689, -0.000000,-39.280370,  0.683708
 90.627584, 80.749054,-41.462516, -0.000000,-39.280055,  0.640406
 90.584480, 80.760218,-41.464235, -0.000000,-39.279765,  0.597099
 90.541380, 80.771142,-41.465849, -0.000000,-39.279500,  0.553786
 90.498285, 80.781787,-41.467356, -0.000000,-39.279261,  0.510468
 90.455193, 80.792118,-41.468758, -0.000000,-39.279047,  0.467145
 90.412104, 80.802099,-41.470054, -0.000000,-39.278859,  0.423818
 90.369017, 80.811698,-41.471245, -0.000000,-39.278695,  0.380488
 90.325930, 80.820881,-41.472331, -0.000000,-39.278556,  0.337154
 90.282843, 80.829617,-41.473312, -0.000000,-39.278441,  0.293818
 90.239753, 80.837877,-41.474188, -0.000000,-39.278351,  0.250479
 90.196662, 80.845634,-41.474960, -0.000000,-39.278285,  0.207138
 90.153566, 80.852862,-41.475626, -0.000000,-39.278243,  0.163796
 90.110466, 80.859536,-41.476188, -0.000000,-39.278224,  0.120452
 90.067361, 80.865634,-41.476645, -0.000000,-39.278229,  0.077108
 90.024249, 80.871137,-41.476997,  0.000000,-39.278256,  0.033764
 89.981130, 80.876026,-41.477244,  0.000000,-39.278307, -0.009581
 89.938003, 80.880286,-41.477385,  0.000000,-39.278379, -0.052925
 89.894867, 80.883903,-41.477420,  0.000000,-39.278474, -0.096269
 89.851722, 80.886866,-41.477349,  0.000000,-39.278591, -0.139611
 89.808566, 80.889165,-41.477171,  0.000000,-39.278729, -0.182951
 89.765400, 80.890793,-41.476886,  0.000000,-39.278888, -0.226290
 89.722222, 80.891747,-41.476494,  0.000000,-39.279069, -0.269627
 89.679034, 80.892023,-41.475993,  0.000000,-39.279270, -0.312960
 89.635833, 80.891622,-41.475385,  0.000000,-39.279492, -0.356291
 89.592620, 80.890546,-41.474667,  0.000000,-39.279735, -0.399618
 89.549395, 80.888799,-41.473840,  0.000000,-39.279998, -0.442942
 89.506157, 80.886389,-41.472902,  0.000000,-39.280280, -0.486261
 89.462908, 80.883324,-41.471854,  0.000000,-39.280583, -0.529576
 89.419646, 80.879615,-41.470694,  0.000000,-39.280905, -0.572886
 89.376372, 80.875275,-41.469422,  0.000000,-39.281247, -0.616191
 89.333087, 80.870319,-41.468037,  0.000000,-39.281609, -0.659490
 89.289790, 80.864765,-41.466538,  0.000000,-39.281990, -0.702783
 89.246483, 80.858631,-41.464926,  0.000000,-39.282390, -0.746070
 89.203165, 80.851937,-41.463198,  0.000000,-39.282810, -0.789350
 89.159839, 80.844707,-41.461354,  0.000000,-39.283250, -0.832623
 89.116503, 80.836963,-41.459395,  0.000000,-39.283709, -0.875888
 89.073159, 80.828731,-41.457317,  0.000000,-39.284187, -0.919146
 89.029808, 80.820038,-41.455122,  0.000000,-39.284685, -0.962395
 88.986451, 80.810911,-41.452808,  0.000000,-39.285203, -1.005636
 88.943089, 80.801380,-41.450375,  0.000000,-39.285740, -1.048867
 88.899724, 80.791473,-41.447821,  0.000000,-39.286298, -1.092089
 88.856355, 80.781223,-41.445146,  0.000000,-39.286876, -1.135301
 88.812985, 80.770660,-41.442350,  0.000000,-39.287474, -1.178502
 88.769615, 80.759817,-41.439430,  0.000000,-39.288093, -1.221693
 88.726245, 80.748725,-41.436387,  0.000000,-39.288732, -1.264873
 88.682878, 80.737419,-41.433220,  0.000000,-39.289393, -1.308041
 88.639515, 80.725932,-41.429928,  0.000000,-39.290075, -1.351197
 88.596158, 80.714295,-41.426510,  0.000000,-39.290779, -1.394340
 88.552807, 80.702543,-41.422966,  0.000000,-39.291505, -1.437470
 88.509465, 80.690709,-41.419294,  0.000000,-39.292253, -1.480587
 88.466132, 80.678825,-41.415494,  0.000000,-39.293023, -1.523690
 88.422811, 80.666923,-41.411566,  0.000000,-39.293816, -1.566778
 88.379502, 80.655035,-41.407507,  0.000000,-39.294633, -1.609852
 88.336209, 80.643192,-41.403319,  0.000000,-39.295473, -1.652910
 88.292931, 80.631423,-41.398999,  0.000000,-39.296337, -1.695952
 88.249670, 80.619759,-41.394548,  0.000000,-39.297226, -1.738978
 88.206429, 80.608227,-41.389965,  0.000000,-39.298138, -1.781987
 88.163208, 80.596855,-41.385248,  0.000000,-39.299076, -1.824979
 88.120009, 80.585667,-41.380397,  0.000000,-39.300039, -1.867952
 88.076834, 80.574689,-41.375412,  0.000000,-39.301028, -1.910907
 88.033683, 80.563943,-41.370292,  0.000000,-39.302042, -1.953843
 87.990559, 80.553452,-41.365036,  0.000000,-39.303082, -1.996759
 87.947463, 80.543234,-41.359644,  0.000000,-39.304149, -2.039655
 87.904395, 80.533308,-41.354114,  0.000000,-39.305243, -2.082531
 87.861357, 80.523691,-41.348447,  0.000000,-39.306363, -2.125385
 87.818351, 80.514398,-41.342641,  0.000000,-39.307511, -2.168217
 87.775377, 80.505441,-41.336697,  0.000000,-39.308687, -2.211027
 87.732437, 80.496832,-41.330612,  0.000000,-39.309890, -2.253813
 87.689531, 80.488580,-41.324388,  0.000000,-39.311121, -2.296576
 87.646661, 80.480692,-41.318023,  0.000000,-39.312380, -2.339315
 87.603828, 80.473174,-41.311517,  0.000000,-39.313667, -2.382029
 87.561031, 80.466029,-41.304868,  0.000000,-39.314983, -2.424717
 87.518273, 80.459259,-41.298078,  0.000000,-39.316328, -2.467380
 87.475555, 80.452863,-41.291144,  0.000000,-39.317701, -2.510016
 87.432875, 80.446840,-41.284067,  0.000000,-39.319103, -2.552624
 87.390236, 80.441184,-41.276846,  0.000000,-39.320534, -2.595204
 87.347638, 80.435890,-41.269480,  0.000000,-39.321994, -2.637756
 87.305081, 80.430950,-41.261969,  0.000000,-39.323484, -2.680279
 87.262566, 80.426354,-41.254313,  0.000000,-39.325002, -2.722772
 87.220093, 80.422091,-41.246510,  0.000000,-39.326550, -2.765234
 87.177662, 80.418148,-41.238561,  0.000000,-39.328128, -2.807666
 87.135274, 80.414510,-41.230465,  0.000000,-39.329734, -2.850065
 87.092930, 80.411160,-41.222222,  0.000000,-39.331370, -2.892432
 87.050628, 80.408081,-41.213830,  0.000000,-39.333035, -2.934767
 87.008370, 80.405254,-41.205290,  0.000000,-39.334730, -2.977067
 86.966156, 80.402659,-41.196601,  0.000000,-39.336454, -3.019333
 86.923985, 80.400272,-41.187763,  0.000000,-39.338208, -3.061564
 86.881858, 80.398072,-41.178775,  0.000000,-39.339991, -3.103759
 86.839774, 80.396035,-41.169636,  0.000000,-39.341804, -3.145918
 86.797734, 80.394136,-41.160347,  0.000000,-39.343646, -3.188040
 86.755738, 80.392348,-41.150907,  0.000000,-39.345517, -3.230124
 86.713785, 80.390646,-41.141315,  0.000000,-39.347418, -3.272170
 86.671875, 80.389003,-41.131572,  0.000000,-39.349348, -3.314177
 86.630009, 80.387391,-41.121675,  0.000000,-39.351307, -3.356144
 86.588187, 80.385781,-41.111627,  0.000000,-39.353297, -3.398071
 86.546407, 80.384146,-41.101424,  0.000000,-39.355315, -3.439957
 86.504671, 80.382458,-41.091069,  0.000000,-39.357363, -3.481801
 86.462977, 80.380687,-41.080559,  0.000000,-39.359441, -3.523603
 86.421326, 80.378805,-41.069895,  0.000000,-39.361548, -3.565361
 86.379719, 80.376784,-41.059076,  0.000000,-39.363684, -3.607077
 86.338154, 80.374595,-41.048102,  0.000000,-39.365851, -3.648747
