SHIH-XIAN-YANG/Robotic-vitual-system/run/exp8/log/joint_pos_error.txt
# Joint1, Joint2, Joint3, Joint4, Joint5, Joint6
  0.000000,  0.000000,  0.000000,  0.000000,  0.000000,  0.000000
 90.000000, 52.839001,  0.114000,  0.000000,-52.952999,  0.000000
 89.994771, 52.834891,  0.113915,  0.000000,-52.949890,  0.000000
 89.973897, 52.818470,  0.113576,  0.000000,-52.937490,  0.000000
 89.932318, 52.785705,  0.112900,  0.000000,-52.912830,  0.000000
 89.870326, 52.736731,  0.111894,  0.000000,-52.876153,  0.000000
 89.788254, 52.671700,  0.110566,  0.000000,-52.827733,  0.000000
 89.686428, 52.590766,  0.108923,  0.000000,-52.767838,  0.000000
 89.565169, 52.494076,  0.106974,  0.000000,-52.696732,  0.000000
 89.424794, 52.381782,  0.104730,  0.000000,-52.614669,  0.000000
 89.265614, 52.254029,  0.102200,  0.000000,-52.521901,  0.000000
 89.087935, 52.110963,  0.099398,  0.000000,-52.418671,  0.000000
 88.892057, 51.952730,  0.096334,  0.000000,-52.305219,  0.000000
 88.678277, 51.779473,  0.093021,  0.000000,-52.181779,  0.000000
 88.446886, 51.591334,  0.089473,  0.000000,-52.048578,  0.000000
 88.198170, 51.388452,  0.085704,  0.000000,-51.905839,  0.000000
 87.932412, 51.170967,  0.081727,  0.000000,-51.753782,  0.000000
 87.649888, 50.939018,  0.077557,  0.000000,-51.592617,  0.000000
 87.350872, 50.692741,  0.073210,  0.000000,-51.422554,  0.000000
 87.035633, 50.432271,  0.068701,  0.000000,-51.243796,  0.000001
 86.704436, 50.157741,  0.064046,  0.000000,-51.056541,  0.000005
 86.357541, 49.869286,  0.059260,  0.000000,-50.860983,  0.000012
 85.995207, 49.567036,  0.054359,  0.000000,-50.657313,  0.000024
 85.617684, 49.251122,  0.049361,  0.000000,-50.445715,  0.000042
 85.225222, 48.921673,  0.044281,  0.000000,-50.226372,  0.000067
 84.818065, 48.578816,  0.039135,  0.000000,-49.999458,  0.000100
 84.396452, 48.222678,  0.033941,  0.000000,-49.765149,  0.000142
 83.960622, 47.853385,  0.028714,  0.000000,-49.523612,  0.000194
 83.510806, 47.471061,  0.023470,  0.000000,-49.275012,  0.000257
 83.047234, 47.075829,  0.018225,  0.000000,-49.019512,  0.000331
 82.570130, 46.667810,  0.012996,  0.000000,-48.757268,  0.000419
 82.079717, 46.247126,  0.007797,  0.000000,-48.488435,  0.000519
 81.576211, 45.813897,  0.002644,  0.000000,-48.213164,  0.000633
 81.059829, 45.368240, -0.002448,  0.000000,-47.931601,  0.000761
 80.530780, 44.910273, -0.007465,  0.000000,-47.643890,  0.000904
 79.989272, 44.440112, -0.012393,  0.000000,-47.350172,  0.001061
 79.435510, 43.957872, -0.017217,  0.000000,-47.050583,  0.001234
 78.869694, 43.463669, -0.021926,  0.000000,-46.745259,  0.001422
 78.292023, 42.957613, -0.026506,  0.000000,-46.434329,  0.001625
 77.702690, 42.439818, -0.030946,  0.000000,-46.117923,  0.001844
 77.101887, 41.910395, -0.035233,  0.000000,-45.796165,  0.002078
 76.489802, 41.369452, -0.039357,  0.000000,-45.469178,  0.002326
 75.866620, 40.817100, -0.043308,  0.000000,-45.137080,  0.002589
 75.232524, 40.253445, -0.047076,  0.000000,-44.799989,  0.002866
 74.587693, 39.678594, -0.050653,  0.000000,-44.458019,  0.003157
 73.932303, 39.092654, -0.054030,  0.000000,-44.111281,  0.003462
 73.266528, 38.495728, -0.057199,  0.000000,-43.759885,  0.003779
 72.590538, 37.887921, -0.060154,  0.000000,-43.403936,  0.004108
 71.904502, 37.269336, -0.062890,  0.000000,-43.043538,  0.004448
 71.208584, 36.640073, -0.065400,  0.000000,-42.678794,  0.004800
 70.502947, 36.000235, -0.067680,  0.000000,-42.309802,  0.005161
 69.787752, 35.349921, -0.069726,  0.000000,-41.936660,  0.005532
 69.063155, 34.689229, -0.071536,  0.000000,-41.559463,  0.005911
 68.329311, 34.018259, -0.073106,  0.000000,-41.178302,  0.006297
 67.586373, 33.337106, -0.074437,  0.000000,-40.793269,  0.006691
 66.834490, 32.645867, -0.075526,  0.000000,-40.404452,  0.007090
 66.073811, 31.944638, -0.076373,  0.000000,-40.011938,  0.007495
 65.304479, 31.233513, -0.076981,  0.000000,-39.615811,  0.007904
 64.526638, 30.512584, -0.077349,  0.000000,-39.216153,  0.008317
 63.740429, 29.781946, -0.077480, -0.000000,-38.813045,  0.008733
 62.945988, 29.041689, -0.077376, -0.000000,-38.406566,  0.009151
 62.143453, 28.291905, -0.077042, -0.000000,-37.996793,  0.009571
 61.332957, 27.532683, -0.076482, -0.000000,-37.583801,  0.009991
 60.514632, 26.764112, -0.075699, -0.000000,-37.167664,  0.010412
 59.688606, 25.986282, -0.074700, -0.000000,-36.748453,  0.010833
 58.855008, 25.199278, -0.073490, -0.000000,-36.326240,  0.011253
 58.013963, 24.403189, -0.072077, -0.000000,-35.901091,  0.011671
 57.165594, 23.598100, -0.070466, -0.000000,-35.473075,  0.012089
 56.310022, 22.784095, -0.068665, -0.000000,-35.042257,  0.012504
 55.447366, 21.961260, -0.066683, -0.000000,-34.608700,  0.012917
 54.577745, 21.129677, -0.064528, -0.000000,-34.172468,  0.013328
 53.701274, 20.289429, -0.062209, -0.000000,-33.733622,  0.013736
 52.818066, 19.440598, -0.059734, -0.000000,-33.292220,  0.014141
 51.928233, 18.583266, -0.057114, -0.000000,-32.848322,  0.014544
 51.031886, 17.717512, -0.054359, -0.000000,-32.401985,  0.014945
 50.129132, 16.843416, -0.051478, -0.000000,-31.953264,  0.015343
 49.220078, 15.961056, -0.048483, -0.000000,-31.502213,  0.015738
 48.304830, 15.070512, -0.045383, -0.000000,-31.048886,  0.016131
 47.383489, 14.171860, -0.042189, -0.000000,-30.593335,  0.016523
 46.456158, 13.265178, -0.038913, -0.000000,-30.135610,  0.016913
 45.522936, 12.350540, -0.035566, -0.000000,-29.675762,  0.017301
 44.583922, 11.428022, -0.032158, -0.000000,-29.213838,  0.017688
 43.639213, 10.497699, -0.028701, -0.000000,-28.749886,  0.018075
 42.688903,  9.559644, -0.025206, -0.000000,-28.283952,  0.018462
 41.733086,  8.613930, -0.021685, -0.000000,-27.816082,  0.018850
 40.771854,  7.660631, -0.018147, -0.000000,-27.346319,  0.019238
 39.805298,  6.699817, -0.014605, -0.000000,-26.874707,  0.019627
 38.833507,  5.731559, -0.011069, -0.000000,-26.401288,  0.020019
 37.856568,  4.755929, -0.007550, -0.000000,-25.926104,  0.020413
 36.874569,  3.772995, -0.004059, -0.000000,-25.449193,  0.020810
 35.887593,  2.783637, -0.000605, -0.000000,-24.970596,  0.021211
 34.895725,  1.790505,  0.002801, -0.000000,-24.490352,  0.021615
 33.899046,  0.797363,  0.006149, -0.000000,-24.008497,  0.022024
 32.897638, -0.191897,  0.009430, -0.000000,-23.525069,  0.022439
 31.891580, -1.173421,  0.012635, -0.000000,-23.040103,  0.022859
 30.880951, -2.143416,  0.015755, -0.000000,-22.553634,  0.023285
 29.865827, -3.098159,  0.018781, -0.000000,-22.065697,  0.023718
 28.846285, -4.034014,  0.021705, -0.000000,-21.576324,  0.024157
 27.822399, -4.947629,  0.024519, -0.000000,-21.085550,  0.024604
 26.794242, -5.836829,  0.027217, -0.000000,-20.593404,  0.025059
 25.761887, -6.701113,  0.029791, -0.000000,-20.099920,  0.025522
 24.725405, -7.540713,  0.032235, -0.000000,-19.605126,  0.025994
 23.684866, -8.355862,  0.034543, -0.000000,-19.109054,  0.026474
 22.640339, -9.146791,  0.036709, -0.000000,-18.611731,  0.026962
 21.591891, -9.913727,  0.038730, -0.000000,-18.113187,  0.027460
 20.539589,-10.656898,  0.040599, -0.000000,-17.613449,  0.027968
 19.483499,-11.376527,  0.042313, -0.000000,-17.112545,  0.028484
 18.423685,-12.072837,  0.043869, -0.000000,-16.610500,  0.029010
 17.360211,-12.746048,  0.045264, -0.000000,-16.107340,  0.029545
 16.293140,-13.396378,  0.046495, -0.000000,-15.603092,  0.030090
 15.222532,-14.024042,  0.047560, -0.000000,-15.097778,  0.030643
 14.148448,-14.629254,  0.048458, -0.000000,-14.591425,  0.031207
 13.070949,-15.212227,  0.049188, -0.000000,-14.084055,  0.031779
 11.990092,-15.773170,  0.049749, -0.000000,-13.575691,  0.032360
 10.905935,-16.312290,  0.050142, -0.000000,-13.066356,  0.032950
  9.818535,-16.829794,  0.050367, -0.000000,-12.556071,  0.033548
  8.727948,-17.325885,  0.050425, -0.000000,-12.044859,  0.034154
  7.634228,-17.800766,  0.050317, -0.000000,-11.532739,  0.034769
  6.537431,-18.254636,  0.050046, -0.000000,-11.019733,  0.035391
  5.437609,-18.687693,  0.049615, -0.000000,-10.505861,  0.036021
  4.334814,-19.100135,  0.049024, -0.000000, -9.991141,  0.036657
  3.229366,-19.492154,  0.048279, -0.000000, -9.475594,  0.037300
  2.123236,-19.863944,  0.047383, -0.000000, -8.959237,  0.037950
  1.020886,-20.215695,  0.046339, -0.000000, -8.442090,  0.038605
 -0.072163,-20.547596,  0.045153, -0.000000, -7.924168,  0.039266
 -1.150500,-20.859835,  0.043828, -0.000000, -7.405491,  0.039932
 -2.208855,-21.152596,  0.042370, -0.000000, -6.886075,  0.040604
 -3.242132,-21.426064,  0.040785, -0.000000, -6.365936,  0.041279
 -4.245422,-21.680419,  0.039078, -0.000000, -5.845091,  0.041959
 -5.214560,-21.915843,  0.037254, -0.000000, -5.323555,  0.042642
 -6.147335,-22.132512,  0.035321, -0.000000, -4.801343,  0.043330
 -7.043592,-22.330605,  0.033285, -0.000000, -4.278472,  0.044020
 -7.903915,-22.510296,  0.031152, -0.000000, -3.754955,  0.044713
 -8.728887,-22.671759,  0.028929, -0.000000, -3.230807,  0.045409
 -9.519078,-22.815164,  0.026622, -0.000000, -2.706041,  0.046107
-10.275050,-22.940682,  0.024240, -0.000000, -2.180672,  0.046807
-10.997358,-23.048482,  0.021789, -0.000000, -1.654713,  0.047509
-11.686546,-23.138731,  0.019277, -0.000000, -1.128177,  0.048213
-12.343148,-23.211593,  0.016710, -0.000000, -0.601880,  0.048919
-12.967691,-23.267232,  0.014097, -0.000000, -0.078511,  0.049626
-13.560694,-23.305810,  0.011444, -0.000000,  0.437943,  0.050334
-14.122666,-23.327488,  0.008759, -0.000000,  0.943327,  0.051044
-14.654107,-23.332425,  0.006050, -0.000000,  1.433633,  0.051755
-15.155512,-23.320778,  0.003322, -0.000000,  1.905036,  0.052467
-15.627366,-23.292704,  0.000585, -0.000000,  2.354705,  0.053180
-16.070145,-23.248356, -0.002156, -0.000000,  2.781736,  0.053895
-16.484318,-23.187889, -0.004892, -0.000000,  3.186451,  0.054611
-16.870348,-23.111453, -0.007619, -0.000000,  3.569357,  0.055328
-17.228689,-23.019198, -0.010327, -0.000000,  3.930954,  0.056047
-17.559787,-22.911273, -0.013012, -0.000000,  4.271728,  0.056768
-17.864082,-22.787826, -0.015667, -0.000000,  4.592157,  0.057490
-18.142006,-22.649003, -0.018286, -0.000000,  4.892706,  0.058215
-18.393985,-22.494947, -0.020862, -0.000000,  5.173829,  0.058941
-18.620437,-22.325802, -0.023391, -0.000000,  5.435972,  0.059670
-18.821772,-22.141709, -0.025867, -0.000000,  5.679568,  0.060402
-18.998397,-21.942809, -0.028284, -0.000000,  5.905043,  0.061136
-19.150709,-21.729242, -0.030638, -0.000000,  6.112810,  0.061873
-19.279100,-21.501144, -0.032925, -0.000000,  6.303276,  0.062613
-19.383956,-21.258651, -0.035140, -0.000000,  6.476836,  0.063357
-19.465654,-21.001900, -0.037279, -0.000000,  6.633877,  0.064104
-19.524568,-20.731023, -0.039339, -0.000000,  6.774779,  0.064856
-19.561066,-20.446154, -0.041317, -0.000000,  6.899910,  0.065611
-19.575506,-20.147423, -0.043209, -0.000000,  7.009631,  0.066371
-19.568246,-19.834960, -0.045013, -0.000000,  7.104296,  0.067136
-19.539632,-19.508894, -0.046727, -0.000000,  7.184250,  0.067905
-19.490009,-19.169353, -0.048349, -0.000000,  7.249829,  0.068680
-19.419715,-18.816462, -0.049877, -0.000000,  7.301364,  0.069459
-19.329082,-18.450347, -0.051310, -0.000000,  7.339175,  0.070245
-19.218437,-18.071131, -0.052647, -0.000000,  7.363578,  0.071035
-19.088103,-17.678937, -0.053888, -0.000000,  7.374879,  0.071829
-18.938399,-17.273887, -0.055033, -0.000000,  7.373380,  0.072625
-18.769639,-16.856101, -0.056080, -0.000000,  7.359374,  0.073419
-18.582131,-16.425699, -0.057030, -0.000000,  7.333146,  0.074209
-18.376179,-15.982799, -0.057884, -0.000000,  7.294978,  0.074994
-18.152081,-15.527517, -0.058643, -0.000000,  7.245144,  0.075772
-17.910130,-15.059970, -0.059307, -0.000000,  7.183910,  0.076539
-17.650616,-14.580272, -0.059878, -0.000000,  7.111539,  0.077295
-17.373823,-14.088537, -0.060358, -0.000000,  7.028286,  0.078038
-17.080031,-13.584879, -0.060748, -0.000000,  6.934400,  0.078765
-16.769513,-13.069407, -0.061051, -0.000000,  6.830125,  0.079475
-16.442543,-12.542234, -0.061270, -0.000000,  6.715701,  0.080166
-16.099384,-12.003468, -0.061406, -0.000000,  6.591360,  0.080837
-15.740300,-11.453218, -0.061463, -0.000000,  6.457329,  0.081488
-15.365548,-10.891591, -0.061444, -0.000000,  6.313831,  0.082116
-14.975382,-10.318694, -0.061353, -0.000000,  6.161084,  0.082721
-14.570050, -9.734631, -0.061193, -0.000000,  5.999300,  0.083303
-14.149800, -9.139508, -0.060967, -0.000000,  5.828686,  0.083860
-13.714871, -8.533428, -0.060680, -0.000000,  5.649446,  0.084393
-13.265501, -7.916493, -0.060335, -0.000000,  5.461778,  0.084900
-12.801925, -7.288804, -0.059937, -0.000000,  5.265875,  0.085383
-12.324371, -6.650462, -0.059490, -0.000000,  5.061927,  0.085841
-11.833067, -6.001567, -0.058999, -0.000000,  4.850118,  0.086274
-11.328235, -5.342217, -0.058468, -0.000000,  4.630630,  0.086683
-10.810093, -4.672509, -0.057901, -0.000000,  4.403640,  0.087069
-10.278857, -3.992541, -0.057303, -0.000000,  4.169319,  0.087431
 -9.734739, -3.302886, -0.056680, -0.000000,  3.927837,  0.087772
 -9.177947, -2.605268, -0.056034, -0.000000,  3.679358,  0.088091
 -8.608687, -1.902285, -0.055372, -0.000000,  3.424044,  0.088391
 -8.027160, -1.196728, -0.054698, -0.000000,  3.162052,  0.088672
 -7.433564, -0.491381, -0.054017, -0.000000,  2.893536,  0.088935
 -6.828096,  0.210992, -0.053333, -0.000000,  2.618646,  0.089182
 -6.210947,  0.907660, -0.052651, -0.000000,  2.337528,  0.089414
 -5.582306,  1.595933, -0.051976, -0.000000,  2.050328,  0.089632
 -4.942360,  2.273171, -0.051312, -0.000000,  1.757184,  0.089839
 -4.291291,  2.936799, -0.050663, -0.000000,  1.458234,  0.090035
 -3.629398,  3.584311, -0.050034, -0.000000,  1.153743,  0.090222
 -2.957930,  4.213283, -0.049429, -0.000000,  0.844722,  0.090402
 -2.279686,  4.821621, -0.048853, -0.000000,  0.533292,  0.090576
 -1.598176,  5.408152, -0.048308, -0.000000,  0.222054,  0.090745
 -0.916889,  5.972711, -0.047800, -0.000000, -0.086428,  0.090911
 -0.239267,  6.515504, -0.047331, -0.000000, -0.389648,  0.091075
  0.431312,  7.036738, -0.046906, -0.000000, -0.685181,  0.091239
  1.091548,  7.536619, -0.046527, -0.000000, -0.970698,  0.091404
  1.738235,  8.015348, -0.046198, -0.000000, -1.243988,  0.091571
  2.368278,  8.473128, -0.045922, -0.000000, -1.502974,  0.091741
  2.978706,  8.910155, -0.045701, -0.000000, -1.745725,  0.091915
  3.566686,  9.326629, -0.045538, -0.000000, -1.970930,  0.092094
  4.129535,  9.722744, -0.045436, -0.000000, -2.178360,  0.092279
  4.664908, 10.098694, -0.045397, -0.000000, -2.368376,  0.092471
  5.171474, 10.454669, -0.045422, -0.000000, -2.541372,  0.092670
  5.649170, 10.790861, -0.045514, -0.000000, -2.697736,  0.092876
  6.098463, 11.107456, -0.045674, -0.000000, -2.837846,  0.093091
  6.519816, 11.404642, -0.045903, -0.000000, -2.962073,  0.093314
  6.913684, 11.682602, -0.046203, -0.000000, -3.070779,  0.093545
  7.280513, 11.941520, -0.046573, -0.000000, -3.164315,  0.093785
  7.620745, 12.181576, -0.047016, -0.000000, -3.243028,  0.094033
  7.934813, 12.402949, -0.047532, -0.000000, -3.307255,  0.094289
  8.223143, 12.605818, -0.048120, -0.000000, -3.357325,  0.094553
  8.486154, 12.790358, -0.048780, -0.000000, -3.393560,  0.094825
  8.724258, 12.956743, -0.049513, -0.000000, -3.416275,  0.095103
  8.937861, 13.105145, -0.050317, -0.000000, -3.425778,  0.095388
  9.127362, 13.235737, -0.051193, -0.000000, -3.422368,  0.095679
  9.293153, 13.348687, -0.052139, -0.000000, -3.406340,  0.095975
  9.435621, 13.444162, -0.053155, -0.000000, -3.377980,  0.096276
  9.555145, 13.522330, -0.054238, -0.000000, -3.337569,  0.096579
  9.652098, 13.583354, -0.055388, -0.000000, -3.285380,  0.096886
  9.726849, 13.627398, -0.056603, -0.000000, -3.221681,  0.097194
  9.779758, 13.654623, -0.057882, -0.000000, -3.146734,  0.097503
  9.811181, 13.665188, -0.059221, -0.000000, -3.060795,  0.097811
  9.821468, 13.659253, -0.060619, -0.000000, -2.964112,  0.098118
  9.810963, 13.636975, -0.062074, -0.000000, -2.856931,  0.098423
  9.780004, 13.598508, -0.063583, -0.000000, -2.739489,  0.098725
  9.728925, 13.544007, -0.065144, -0.000000, -2.612019,  0.099022
  9.658051, 13.473624, -0.066753, -0.000000, -2.474750,  0.099314
  9.567707, 13.387510, -0.068409, -0.000000, -2.327903,  0.099599
  9.458208, 13.285815, -0.070108, -0.000000, -2.171696,  0.099878
  9.329866, 13.168687, -0.071847, -0.000000, -2.006342,  0.100148
  9.182988, 13.036273, -0.073623, -0.000000, -1.832047,  0.100409
  9.017875, 12.888718, -0.075433, -0.000000, -1.649016,  0.100661
  8.834824, 12.726167, -0.077274, -0.000000, -1.457445,  0.100902
  8.634126, 12.548761, -0.079141, -0.000000, -1.257662,  0.101132
  8.416069, 12.356642, -0.081033, -0.000000, -1.050525,  0.101350
  8.180935, 12.149951, -0.082945, -0.000000, -0.837581,  0.101556
  7.929002, 11.928825, -0.084874, -0.000000, -0.620665,  0.101749
  7.660542, 11.693403, -0.086817, -0.000000, -0.401623,  0.101929
  7.375825, 11.443819, -0.088770, -0.000000, -0.182291,  0.102095
  7.075115, 11.180209, -0.090729, -0.000000,  0.035520,  0.102248
  6.758672, 10.902707, -0.092692, -0.000000,  0.250036,  0.102386
  6.426751, 10.611443, -0.094654, -0.000000,  0.459539,  0.102511
  6.079604, 10.306550, -0.096613, -0.000000,  0.662373,  0.102621
  5.717478,  9.988157, -0.098564, -0.000000,  0.856964,  0.102718
  5.340618,  9.656393, -0.100506, -0.000000,  1.041828,  0.102801
  4.949262,  9.311383, -0.102434, -0.000000,  1.215582,  0.102869
  4.543645,  8.953256, -0.104346, -0.000000,  1.376955,  0.102925
  4.124000,  8.582134, -0.106237, -0.000000,  1.524797,  0.102967
  3.690803,  8.198143, -0.108106, -0.000000,  1.658092,  0.102997
  3.245324,  7.801403, -0.109950, -0.000000,  1.776235,  0.103014
  2.789681,  7.392038, -0.111765, -0.000000,  1.879266,  0.103020
  2.326307,  6.970166, -0.113548, -0.000000,  1.967529,  0.103014
  1.857646,  6.535906, -0.115298, -0.000000,  2.041362,  0.102997
  1.386136,  6.089378, -0.117012, -0.000000,  2.101095,  0.102971
  0.914197,  5.630696, -0.118687, -0.000000,  2.147053,  0.102935
  0.444223,  5.159977, -0.120322, -0.000000,  2.179552,  0.102890
 -0.021437,  4.677335, -0.121913, -0.000000,  2.198900,  0.102836
 -0.480482,  4.182884, -0.123460, -0.000000,  2.205398,  0.102776
 -0.930677,  3.676960, -0.124959, -0.000000,  2.199343,  0.102708
 -1.369859,  3.160620, -0.126411, -0.000000,  2.181021,  0.102635
 -1.795951,  2.635696, -0.127812, -0.000000,  2.150715,  0.102556
 -2.206965,  2.104308, -0.129163, -0.000000,  2.108699,  0.102472
 -2.601019,  1.568584, -0.130460, -0.000000,  2.055242,  0.102384
 -2.976338,  1.030657, -0.131705, -0.000000,  1.990607,  0.102293
 -3.331267,  0.492653, -0.132894, -0.000000,  1.915050,  0.102199
 -3.664274, -0.043317, -0.134029, -0.000000,  1.828822,  0.102102
 -3.973958, -0.575165, -0.135107, -0.000000,  1.732168,  0.102004
 -4.259054, -1.100833, -0.136129, -0.000000,  1.625327,  0.101905
 -4.518681, -1.618304, -0.137095, -0.000000,  1.508534,  0.101805
 -4.752658, -2.125605, -0.138003, -0.000000,  1.382044,  0.101704
 -4.961292, -2.620818, -0.138855, -0.000000,  1.246394,  0.101603
 -5.144997, -3.102085, -0.139650, -0.000000,  1.102621,  0.101503
 -5.304178, -3.567617, -0.140388, -0.000000,  0.952025,  0.101404
 -5.439237, -4.015700, -0.141071, -0.000000,  0.795950,  0.101305
 -5.550565, -4.444697, -0.141698, -0.000000,  0.635762,  0.101207
 -5.638550, -4.853455, -0.142270, -0.000000,  0.472843,  0.101111
 -5.703573, -5.241690, -0.142788, -0.000000,  0.308578,  0.101016
 -5.746009, -5.609575, -0.143252, -0.000000,  0.144342,  0.100922
 -5.766225, -5.957303, -0.143665, -0.000000, -0.018511,  0.100829
 -5.764585, -6.285063, -0.144027, -0.000000, -0.178656,  0.100738
 -5.741445, -6.593044, -0.144339, -0.000000, -0.334811,  0.100647
 -5.697155, -6.881430, -0.144603, -0.000000, -0.485744,  0.100558
 -5.632062, -7.150408, -0.144820, -0.000000, -0.630285,  0.100469
 -5.546504, -7.400160, -0.144992, -0.000000, -0.767335,  0.100381
 -5.440816, -7.630867, -0.145120, -0.000000, -0.895869,  0.100293
 -5.315327, -7.842709, -0.145207, -0.000000, -1.014951,  0.100205
 -5.170359, -8.035863, -0.145253, -0.000000, -1.123733,  0.100116
 -5.006231, -8.210505, -0.145261, -0.000000, -1.221468,  0.100027
 -4.823255, -8.366811, -0.145233, -0.000000, -1.307508,  0.099936
 -4.621740, -8.504952, -0.145170, -0.000000, -1.381312,  0.099844
 -4.401988, -8.625101, -0.145075, -0.000000, -1.442447,  0.099749
 -4.164298, -8.727426, -0.144950, -0.000000, -1.490592,  0.099653
 -3.909061, -8.812096, -0.144796, -0.000000, -1.525536,  0.099553
 -3.637091, -8.879277, -0.144617, -0.000000, -1.547190,  0.099450
 -3.349769, -8.929134, -0.144413, -0.000000, -1.555623,  0.099343
 -3.048744, -8.961830, -0.144188, -0.000000, -1.551071,  0.099232
 -2.735719, -8.977528, -0.143942, -0.000000, -1.533828,  0.099116
 -2.412432, -8.976388, -0.143679, -0.000000, -1.504183,  0.098995
 -2.080652, -8.958568, -0.143401, -0.000000, -1.462457,  0.098869
 -1.742168, -8.924226, -0.143109, -0.000000, -1.409082,  0.098737
 -1.398781, -8.873518, -0.142806, -0.000000, -1.344643,  0.098598
 -1.052291, -8.806598, -0.142494, -0.000000, -1.269829,  0.098453
 -0.704491, -8.723619, -0.142175, -0.000000, -1.185408,  0.098302
 -0.357158, -8.624731, -0.141852, -0.000000, -1.092214,  0.098146
 -0.012043, -8.510085, -0.141529, -0.000000, -0.991140,  0.097986
  0.329137, -8.379828, -0.141207, -0.000000, -0.883134,  0.097823
  0.664707, -8.234108, -0.140890, -0.000000, -0.769186,  0.097657
  0.993041, -8.073070, -0.140581, -0.000000, -0.650320,  0.097491
  1.312572, -7.896858, -0.140281, -0.000000, -0.527587,  0.097323
  1.621797, -7.705615, -0.139993, -0.000000, -0.402054,  0.097156
  1.919284, -7.499481, -0.139721, -0.000000, -0.274796,  0.096990
  2.203680, -7.278598, -0.139465, -0.000000, -0.146886,  0.096827
  2.473714, -7.043103, -0.139229, -0.000000, -0.019388,  0.096665
  2.728207, -6.793135, -0.139015, -0.000000,  0.106653,  0.096508
  2.966071, -6.528829, -0.138824, -0.000000,  0.230221,  0.096354
  3.186316, -6.250320, -0.138659, -0.000000,  0.350333,  0.096205
  3.388057, -5.957742, -0.138522, -0.000000,  0.466049,  0.096062
  3.570510, -5.651227, -0.138414, -0.000000,  0.576479,  0.095924
  3.733001, -5.330905, -0.138337, -0.000000,  0.680791,  0.095792
  3.874966, -4.996908, -0.138292, -0.000000,  0.778213,  0.095667
  3.995951, -4.649363, -0.138282, -0.000000,  0.868044,  0.095550
  4.095614, -4.288397, -0.138307, -0.000000,  0.949651,  0.095439
  4.173725, -3.914200, -0.138368, -0.000000,  1.022484,  0.095336
  4.230193, -3.527391, -0.138467, -0.000000,  1.086068,  0.095240
  4.265124, -3.129276, -0.138605, -0.000000,  1.140015,  0.095152
  4.278801, -2.721494, -0.138781, -0.000000,  1.184020,  0.095071
  4.271569, -2.305711, -0.138998, -0.000000,  1.217864,  0.094998
  4.243769, -1.883614, -0.139254, -0.000000,  1.241417,  0.094932
  4.195735, -1.456902, -0.139552, -0.000000,  1.254634,  0.094873
  4.127796, -1.027279, -0.139890, -0.000000,  1.257557,  0.094821
  4.040372, -0.596451, -0.140270, -0.000000,  1.250312,  0.094776
  3.934086, -0.166114, -0.140691, -0.000000,  1.233106,  0.094737
  3.809718,  0.262048, -0.141153, -0.000000,  1.206226,  0.094704
  3.668130,  0.686371, -0.141655, -0.000000,  1.170035,  0.094676
  3.510260,  1.105221, -0.142198, -0.000000,  1.124967,  0.094653
  3.337116,  1.516994, -0.142781, -0.000000,  1.071524,  0.094635
  3.149770,  1.920125, -0.143403, -0.000000,  1.010268,  0.094620
  2.949352,  2.313096, -0.144063, -0.000000,  0.941818,  0.094609
  2.737045,  2.694438, -0.144762, -0.000000,  0.866843,  0.094601
  2.514076,  3.062738, -0.145497, -0.000000,  0.786059,  0.094594
  2.281708,  3.416645, -0.146268, -0.000000,  0.700214,  0.094590
  2.041239,  3.754873, -0.147073, -0.000000,  0.610093,  0.094586
  1.793988,  4.076208, -0.147912, -0.000000,  0.516501,  0.094582
  1.541293,  4.379508, -0.148783, -0.000000,  0.420260,  0.094578
  1.284502,  4.663986, -0.149684, -0.000000,  0.322204,  0.094574
  1.024967,  4.929474, -0.150615, -0.000000,  0.223169,  0.094568
  0.764035,  5.176133, -0.151573, -0.000000,  0.123987,  0.094560
  0.503043,  5.404144, -0.152557, -0.000000,  0.025478,  0.094550
  0.243312,  5.613681, -0.153566, -0.000000, -0.071554,  0.094537
 -0.013862,  5.804920, -0.154597, -0.000000, -0.166329,  0.094520
 -0.267210,  5.978035, -0.155649, -0.000000, -0.258098,  0.094500
 -0.515501,  6.133196, -0.156720, -0.000000, -0.346146,  0.094476
 -0.757546,  6.270575, -0.157809, -0.000000, -0.429799,  0.094447
 -0.992200,  6.390340, -0.158912, -0.000000, -0.508431,  0.094413
 -1.218372,  6.492657, -0.160029, -0.000000, -0.581466,  0.094375
 -1.435030,  6.577692, -0.161158, -0.000000, -0.648380,  0.094331
 -1.641199,  6.645609, -0.162296, -0.000000, -0.708709,  0.094281
 -1.835973,  6.696570, -0.163441, -0.000000, -0.762052,  0.094226
 -2.018513,  6.730735, -0.164593, -0.000000, -0.808067,  0.094165
 -2.188056,  6.748263, -0.165747, -0.000000, -0.846480,  0.094099
 -2.343911,  6.749314, -0.166904, -0.000000, -0.877085,  0.094027
 -2.485467,  6.734041, -0.168061, -0.000000, -0.899740,  0.093949
 -2.612193,  6.702601, -0.169215, -0.000000, -0.914373,  0.093866
 -2.723640,  6.655146, -0.170366, -0.000000, -0.920978,  0.093777
 -2.819442,  6.591829, -0.171511, -0.000000, -0.919617,  0.093683
 -2.899315,  6.512799, -0.172649, -0.000000, -0.910414,  0.093584
 -2.963063,  6.418205, -0.173777, -0.000000, -0.893560,  0.093481
 -3.010570,  6.308195, -0.174894, -0.000000, -0.869301,  0.093372
 -3.041808,  6.182916, -0.175999, -0.000000, -0.837945,  0.093260
 -3.056827,  6.042511, -0.177090, -0.000000, -0.799853,  0.093143
 -3.055761,  5.887125, -0.178165, -0.000000, -0.755434,  0.093023
 -3.038825,  5.716898, -0.179223, -0.000000, -0.705146,  0.092900
 -3.006308,  5.531973, -0.180262, -0.000000, -0.649488,  0.092774
 -2.958577,  5.332488, -0.181281, -0.000000, -0.588996,  0.092645
 -2.896069,  5.118581, -0.182280, -0.000000, -0.524238,  0.092515
 -2.819292,  4.890389, -0.183256, -0.000000, -0.455808,  0.092382
 -2.728818,  4.648047, -0.184208, -0.000000, -0.384324,  0.092249
 -2.625283,  4.391690, -0.185137, -0.000000, -0.310418,  0.092114
 -2.509378,  4.121451, -0.186040, -0.000000, -0.234733,  0.091979
 -2.381851,  3.837662, -0.186916, -0.000000, -0.157920,  0.091844
 -2.243496,  3.541138, -0.187766, -0.000000, -0.080627,  0.091709
 -2.095153,  3.233062, -0.188588, -0.000000, -0.003498,  0.091575
 -1.937702,  2.914724, -0.189382, -0.000000,  0.072835,  0.091442
 -1.772057,  2.587447, -0.190148, -0.000000,  0.147754,  0.091310
 -1.599163,  2.252576, -0.190884, -0.000000,  0.220663,  0.091180
 -1.419987,  1.911479, -0.191591, -0.000000,  0.290990,  0.091051
 -1.235517,  1.565538, -0.192268, -0.000000,  0.358194,  0.090925
 -1.046755,  1.216144, -0.192915, -0.000000,  0.421765,  0.090801
 -0.854712,  0.864693, -0.193533, -0.000000,  0.481234,  0.090680
 -0.660402,  0.512578, -0.194121, -0.000000,  0.536171,  0.090561
 -0.464837,  0.161185, -0.194679, -0.000000,  0.586187,  0.090446
 -0.269023, -0.188113, -0.195208, -0.000000,  0.630943,  0.090333
 -0.073954, -0.533960, -0.195707, -0.000000,  0.670147,  0.090224
  0.119393, -0.875024, -0.196178, -0.000000,  0.703557,  0.090118
  0.310060, -1.210000, -0.196620, -0.000000,  0.730981,  0.090015
  0.497119, -1.537618, -0.197035, -0.000000,  0.752281,  0.089915
  0.679668, -1.856644, -0.197422, -0.000000,  0.767371,  0.089818
  0.856842, -2.165887, -0.197783, -0.000000,  0.776216,  0.089724
  1.027814, -2.464202, -0.198118, -0.000000,  0.778835,  0.089634
  1.191799, -2.750497, -0.198428, -0.000000,  0.775298,  0.089546
  1.348056, -3.023733, -0.198714, -0.000000,  0.765723,  0.089461
  1.495896, -3.282930, -0.198977, -0.000000,  0.750277,  0.089378
  1.634677, -3.527170, -0.199217, -0.000000,  0.729174,  0.089298
  1.763814, -3.755601, -0.199436, -0.000000,  0.702670,  0.089221
  1.882779, -3.967437, -0.199635, -0.000000,  0.671063,  0.089145
  1.991100, -4.161965, -0.199815, -0.000000,  0.634688,  0.089071
  2.088365, -4.338573, -0.199977, -0.000000,  0.593914,  0.088998
  2.174226, -4.496921, -0.200122, -0.000000,  0.549143,  0.088927
  2.248394, -4.637025, -0.200252, -0.000000,  0.500803,  0.088857
  2.310644, -4.759056, -0.200368, -0.000000,  0.449343,  0.088788
  2.360815, -4.863185, -0.200470, -0.000000,  0.395235,  0.088719
  2.398809, -4.949579, -0.200561, -0.000000,  0.338964,  0.088650
  2.424589, -5.018407, -0.200641, -0.000000,  0.281026,  0.088581
  2.438183, -5.069834, -0.200712, -0.000000,  0.221924,  0.088512
  2.439677, -5.104022, -0.200775, -0.000000,  0.162163,  0.088443
  2.429221, -5.121136, -0.200832, -0.000000,  0.102245,  0.088372
  2.407021, -5.121335, -0.200884, -0.000000,  0.042669,  0.088301
  2.373339, -5.104778, -0.200931, -0.000000, -0.016080,  0.088228
  2.328494, -5.071624, -0.200977, -0.000000, -0.073527,  0.088153
  2.272856, -5.022028, -0.201021, -0.000000, -0.129216,  0.088077
  2.206845, -4.956146, -0.201065, -0.000000, -0.182715,  0.087999
  2.130929, -4.874131, -0.201110, -0.000000, -0.233611,  0.087919
  2.045617, -4.776135, -0.201157, -0.000000, -0.281523,  0.087837
  1.951463, -4.662308, -0.201209, -0.000000, -0.326097,  0.087752
  1.849057, -4.532798, -0.201265, -0.000000, -0.367015,  0.087665
  1.739021, -4.387755, -0.201327, -0.000000, -0.403989,  0.087575
  1.622011, -4.227324, -0.201396, -0.000000, -0.436772,  0.087483
  1.498707, -4.051691, -0.201474, -0.000000, -0.465154,  0.087387
  1.369814, -3.861264, -0.201560, -0.000000, -0.488963,  0.087289
  1.236056, -3.656769, -0.201657, -0.000000, -0.508069,  0.087188
  1.098170, -3.439107, -0.201764, -0.000000, -0.522381,  0.087085
  0.956908, -3.209223, -0.201884, -0.000000, -0.531850,  0.086978
  0.813027, -2.968106, -0.202016, -0.000000, -0.536467,  0.086869
  0.667287, -2.716779, -0.202162, -0.000000, -0.536263,  0.086757
  0.520449, -2.456299, -0.202322, -0.000000, -0.531310,  0.086643
  0.373269, -2.187751, -0.202497, -0.000000, -0.521717,  0.086526
  0.226496, -1.912246, -0.202687, -0.000000, -0.507628,  0.086406
  0.080866, -1.630911, -0.202893, -0.000000, -0.489225,  0.086284
 -0.062899, -1.344891, -0.203116, -0.000000, -0.466721,  0.086161
 -0.204098, -1.055340, -0.203356, -0.000000, -0.440360,  0.086035
 -0.342049, -0.763417, -0.203613, -0.000000, -0.410415,  0.085907
 -0.476097, -0.470284, -0.203888, -0.000000, -0.377184,  0.085777
 -0.605616, -0.177098, -0.204180, -0.000000, -0.340988,  0.085646
 -0.730008,  0.114992, -0.204491, -0.000000, -0.302167,  0.085514
 -0.848713,  0.404848, -0.204820, -0.000000, -0.261080,  0.085380
 -0.961202,  0.691351, -0.205167, -0.000000, -0.218097,  0.085246
 -1.066989,  0.973400, -0.205532, -0.000000, -0.173599,  0.085110
 -1.165625,  1.249922, -0.205915, -0.000000, -0.127975,  0.084974
 -1.256703,  1.519873, -0.206316, -0.000000, -0.081617,  0.084838
 -1.339862,  1.782239, -0.206736, -0.000000, -0.034917,  0.084701
 -1.414784,  2.036048, -0.207173, -0.000000,  0.011736,  0.084564
 -1.481195,  2.280363, -0.207627, -0.000000,  0.057959,  0.084427
 -1.538872,  2.514296, -0.208098, -0.000000,  0.103376,  0.084290
 -1.587635,  2.737002, -0.208586, -0.000000,  0.147625,  0.084154
 -1.627353,  2.947687, -0.209090, -0.000000,  0.190360,  0.084018
 -1.657943,  3.145612, -0.209610, -0.000000,  0.231250,  0.083883
 -1.679368,  3.330089, -0.210146, -0.000000,  0.269986,  0.083748
 -1.691638,  3.500492, -0.210695, -0.000000,  0.306279,  0.083614
 -1.694812,  3.656252, -0.211259, -0.000000,  0.339867,  0.083482
 -1.688989,  3.796862, -0.211837, -0.000000,  0.370512,  0.083350
 -1.674316,  3.921879, -0.212427, -0.000000,  0.398004,  0.083219
 -1.650983,  4.030921, -0.213029, -0.000000,  0.422163,  0.083089
 -1.619220,  4.123676, -0.213642, -0.000000,  0.442840,  0.082961
 -1.579296,  4.199894, -0.214266, -0.000000,  0.459913,  0.082833
 -1.531519,  4.259401, -0.214900, -0.000000,  0.473296,  0.082707
 -1.476233,  4.302147, -0.215543, -0.000000,  0.482931,  0.082582
 -1.413816,  4.328228, -0.216193, -0.000000,  0.488795,  0.082458
 -1.344675,  4.337801, -0.216851, -0.000000,  0.490893,  0.082336
 -1.269247,  4.331022, -0.217515, -0.000000,  0.489265,  0.082214
 -1.187996,  4.308048, -0.218185, -0.000000,  0.483977,  0.082094
 -1.101408,  4.269030, -0.218859, -0.000000,  0.475127,  0.081974
 -1.009990,  4.214122, -0.219537, -0.000000,  0.462839,  0.081856
 -0.914269,  4.143503, -0.220218, -0.000000,  0.447267,  0.081738
 -0.814784,  4.057458, -0.220900, -0.000000,  0.428585,  0.081621
 -0.712088,  3.956403, -0.221584, -0.000000,  0.406995,  0.081505
 -0.606742,  3.840842, -0.222267, -0.000000,  0.382716,  0.081389
 -0.499314,  3.711331, -0.222950, -0.000000,  0.355988,  0.081274
 -0.390375,  3.568476, -0.223631, -0.000000,  0.327068,  0.081159
 -0.280495,  3.412931, -0.224310, -0.000000,  0.296227,  0.081044
 -0.170244,  3.245398, -0.224985, -0.000000,  0.263746,  0.080929
 -0.060184,  3.066617, -0.225656, -0.000000,  0.229919,  0.080815
  0.049130,  2.877371, -0.226322, -0.000000,  0.195045,  0.080700
  0.157153,  2.678475, -0.226983, -0.000000,  0.159426,  0.080585
  0.263356,  2.470777, -0.227636, -0.000000,  0.123368,  0.080469
  0.367223,  2.255156, -0.228283, -0.000000,  0.087175,  0.080353
  0.468260,  2.032512, -0.228921, -0.000000,  0.051148,  0.080237
  0.565991,  1.803769, -0.229551, -0.000000,  0.015582,  0.080119
  0.659963,  1.569868, -0.230172, -0.000000, -0.019235,  0.080001
  0.749750,  1.331762, -0.230782, -0.000000, -0.053027,  0.079882
  0.834949,  1.090415, -0.231382, -0.000000, -0.085529,  0.079762
  0.915190,  0.846798, -0.231971, -0.000000, -0.116492,  0.079641
  0.990129,  0.601881, -0.232549, -0.000000, -0.145681,  0.079518
  1.059455,  0.356636, -0.233114, -0.000000, -0.172881,  0.079394
  1.122888,  0.112025, -0.233667, -0.000000, -0.197897,  0.079269
  1.180184, -0.130994, -0.234207, -0.000000, -0.220552,  0.079143
  1.231132, -0.371481, -0.234734, -0.000000, -0.240695,  0.079015
  1.275554, -0.608510, -0.235247, -0.000000, -0.258193,  0.078886
  1.313309, -0.841174, -0.235747, -0.000000, -0.272942,  0.078755
  1.344292, -1.068593, -0.236232, -0.000000, -0.284858,  0.078622
  1.368433, -1.289910, -0.236703, -0.000000, -0.293884,  0.078489
  1.385696, -1.504301, -0.237160, -0.000000, -0.299986,  0.078353
  1.396084, -1.710973, -0.237603, -0.000000, -0.303157,  0.078216
  1.399631, -1.909170, -0.238031, -0.000000, -0.303411,  0.078078
  1.396406, -2.098174, -0.238444, -0.000000, -0.300789,  0.077938
  1.386514, -2.277308, -0.238843, -0.000000, -0.295354,  0.077797
  1.370088, -2.445939, -0.239227, -0.000000, -0.287189,  0.077654
  1.347296, -2.603479, -0.239597, -0.000000, -0.276403,  0.077510
  1.318334, -2.749389, -0.239952, -0.000000, -0.263120,  0.077364
  1.283428, -2.883177, -0.240294, -0.000000, -0.247487,  0.077218
  1.242830, -3.004404, -0.240621, -0.000000, -0.229665,  0.077070
  1.196819, -3.112684, -0.240935, -0.000000, -0.209833,  0.076921
  1.145695, -3.207682, -0.241236, -0.000000, -0.188184,  0.076771
  1.089783, -3.289119, -0.241523, -0.000000, -0.164921,  0.076620
  1.029427, -3.356771, -0.241798, -0.000000, -0.140259,  0.076468
  0.964988, -3.410470, -0.242060, -0.000000, -0.114421,  0.076316
  0.896844, -3.450102, -0.242310, -0.000000, -0.087638,  0.076162
  0.825387, -3.475612, -0.242549, -0.000000, -0.060143,  0.076008
  0.751021, -3.486998, -0.242777, -0.000000, -0.032172,  0.075854
  0.674158, -3.484316, -0.242993, -0.000000, -0.003964,  0.075698
  0.595219, -3.467673, -0.243200, -0.000000,  0.024247,  0.075543
  0.514628, -3.437235, -0.243397, -0.000000,  0.052229,  0.075387
  0.432814, -3.393216, -0.243585, -0.000000,  0.079753,  0.075231
  0.350207, -3.335886, -0.243765, -0.000000,  0.106601,  0.075075
  0.267232, -3.265561, -0.243936, -0.000000,  0.132561,  0.074918
  0.184314, -3.182610, -0.244100, -0.000000,  0.157433,  0.074762
  0.101871, -3.087447, -0.244257, -0.000000,  0.181026,  0.074606
  0.020312, -2.980529, -0.244408, -0.000000,  0.203166,  0.074449
 -0.059961, -2.862359, -0.244554, -0.000000,  0.223692,  0.074293
 -0.138560, -2.733479, -0.244694, -0.000000,  0.242458,  0.074137
 -0.215111, -2.594471, -0.244829, -0.000000,  0.259335,  0.073981
 -0.289253, -2.445949, -0.244961, -0.000000,  0.274212,  0.073825
 -0.360642, -2.288562, -0.245090, -0.000000,  0.286995,  0.073669
 -0.428955, -2.122992, -0.245216, -0.000000,  0.297610,  0.073514
 -0.493885, -1.949942, -0.245340, -0.000000,  0.306001,  0.073359
 -0.555150, -1.770146, -0.245463, -0.000000,  0.312131,  0.073204
 -0.612486, -1.584355, -0.245584, -0.000000,  0.315983,  0.073050
 -0.665657, -1.393339, -0.245706, -0.000000,  0.317559,  0.072895
 -0.714446, -1.197884, -0.245828, -0.000000,  0.316878,  0.072741
 -0.758666, -0.998787, -0.245950, -0.000000,  0.313980,  0.072588
 -0.798151, -0.796854, -0.246074, -0.000000,  0.308920,  0.072434
 -0.832764, -0.592897, -0.246200, -0.000000,  0.301773,  0.072281
 -0.862393, -0.387729, -0.246329, -0.000000,  0.292628,  0.072127
 -0.886954, -0.182163, -0.246460, -0.000000,  0.281589,  0.071974
 -0.906389,  0.022993, -0.246595, -0.000000,  0.268775,  0.071821
 -0.920666,  0.226937, -0.246733, -0.000000,  0.254319,  0.071668
 -0.929781,  0.428879, -0.246876, -0.000000,  0.238363,  0.071515
 -0.933754,  0.628041, -0.247024, -0.000000,  0.221061,  0.071362
 -0.932633,  0.823662, -0.247176, -0.000000,  0.202575,  0.071208
 -0.926490,  1.015001, -0.247334, -0.000000,  0.183076,  0.071055
 -0.915421,  1.201338, -0.247498, -0.000000,  0.162740,  0.070901
 -0.899547,  1.381978, -0.247668, -0.000000,  0.141746,  0.070747
 -0.879011,  1.556253, -0.247844, -0.000000,  0.120278,  0.070593
 -0.853977,  1.723526, -0.248027, -0.000000,  0.098519,  0.070438
 -0.824632,  1.883189, -0.248216, -0.000000,  0.076655,  0.070283
 -0.791180,  2.034672, -0.248413, -0.000000,  0.054866,  0.070127
 -0.753843,  2.177438, -0.248617, -0.000000,  0.033332,  0.069971
 -0.712863,  2.310989, -0.248828, -0.000000,  0.012228,  0.069814
 -0.668493,  2.434867, -0.249046, -0.000000, -0.008279,  0.069656
 -0.621003,  2.548655, -0.249272, -0.000000, -0.028028,  0.069498
 -0.570675,  2.651978, -0.249506, -0.000000, -0.046866,  0.069339
 -0.517799,  2.744505, -0.249747, -0.000000, -0.064652,  0.069179
 -0.462678,  2.825951, -0.249996, -0.000000, -0.081253,  0.069019
 -0.405619,  2.896073, -0.250253, -0.000000, -0.096549,  0.068857
 -0.346938,  2.954679, -0.250517, -0.000000, -0.110432,  0.068695
 -0.286952,  3.001618, -0.250788, -0.000000, -0.122809,  0.068532
 -0.225983,  3.036791, -0.251067, -0.000000, -0.133599,  0.068368
 -0.164353,  3.060142, -0.251353, -0.000000, -0.142734,  0.068202
 -0.102383,  3.071664, -0.251646, -0.000000, -0.150165,  0.068036
 -0.040392,  3.071395, -0.251946, -0.000000, -0.155853,  0.067869
  0.021306,  3.059421, -0.252253, -0.000000, -0.159777,  0.067701
  0.082402,  3.035870, -0.252566, -0.000000, -0.161930,  0.067532
  0.142593,  3.000918, -0.252886, -0.000000, -0.162319,  0.067362
  0.201587,  2.954782, -0.253212, -0.000000, -0.160966,  0.067191
  0.259098,  2.897722, -0.253543, -0.000000, -0.157907,  0.067019
  0.314855,  2.830040, -0.253880, -0.000000, -0.153192,  0.066846
  0.368597,  2.752077, -0.254221, -0.000000, -0.146884,  0.066673
  0.420077,  2.664210, -0.254568, -0.000000, -0.139057,  0.066498
  0.469064,  2.566855, -0.254919, -0.000000, -0.129798,  0.066322
  0.515341,  2.460461, -0.255274, -0.000000, -0.119203,  0.066146
  0.558707,  2.345510, -0.255633, -0.000000, -0.107379,  0.065969
  0.598981,  2.222512, -0.255995, -0.000000, -0.094440,  0.065791
  0.635998,  2.092007, -0.256361, -0.000000, -0.080510,  0.065612
  0.669611,  1.954560, -0.256728, -0.000000, -0.065718,  0.065432
  0.699693,  1.810760, -0.257098, -0.000000, -0.050197,  0.065252
  0.726137,  1.661216, -0.257470, -0.000000, -0.034086,  0.065071
  0.748855,  1.506555, -0.257843, -0.000000, -0.017526,  0.064890
  0.767780,  1.347419, -0.258217, -0.000000, -0.000660,  0.064707
  0.782863,  1.184465, -0.258591, -0.000000,  0.016369,  0.064525
  0.794078,  1.018359, -0.258966, -0.000000,  0.033418,  0.064342
  0.801415,  0.849776, -0.259340, -0.000000,  0.050347,  0.064158
  0.804888,  0.679393, -0.259713, -0.000000,  0.067018,  0.063974
  0.804528,  0.507892, -0.260086, -0.000000,  0.083297,  0.063789
  0.800385,  0.335955, -0.260456, -0.000000,  0.099056,  0.063604
  0.792528,  0.164257, -0.260825, -0.000000,  0.114173,  0.063419
  0.781043, -0.006528, -0.261192, -0.000000,  0.128533,  0.063233
  0.766035, -0.175737, -0.261556, -0.000000,  0.142029,  0.063047
  0.747623, -0.342717, -0.261916, -0.000000,  0.154561,  0.062861
  0.725945, -0.506829, -0.262274, -0.000000,  0.166041,  0.062675
  0.701151, -0.667449, -0.262627, -0.000000,  0.176390,  0.062488
  0.673405, -0.823972, -0.262976, -0.000000,  0.185538,  0.062301
  0.642885, -0.975813, -0.263321, -0.000000,  0.193428,  0.062114
  0.609780, -1.122408, -0.263661, -0.000000,  0.200013,  0.061927
  0.574290, -1.263220, -0.263996, -0.000000,  0.205259,  0.061739
  0.536625, -1.397736, -0.264326, -0.000000,  0.209140,  0.061551
  0.497002, -1.525475, -0.264650, -0.000000,  0.211646,  0.061364
  0.455645, -1.645981, -0.264968, -0.000000,  0.212775,  0.061176
  0.412786, -1.758834, -0.265280, -0.000000,  0.212539,  0.060987
  0.368659, -1.863644, -0.265586, -0.000000,  0.210959,  0.060799
  0.323504, -1.960057, -0.265885, -0.000000,  0.208068,  0.060610
  0.277560, -2.047754, -0.266177, -0.000000,  0.203909,  0.060421
  0.231069, -2.126451, -0.266463, -0.000000,  0.198535,  0.060232
  0.184273, -2.195905, -0.266741, -0.000000,  0.192008,  0.060043
  0.137411, -2.255906, -0.267012, -0.000000,  0.184398,  0.059853
  0.090720, -2.306287, -0.267276, -0.000000,  0.175785,  0.059663
  0.044434, -2.346917, -0.267533, -0.000000,  0.166253,  0.059473
 -0.001221, -2.377706, -0.267782, -0.000000,  0.155895,  0.059283
 -0.046021, -2.398601, -0.268023, -0.000000,  0.144809,  0.059092
 -0.089754, -2.409591, -0.268258, -0.000000,  0.133096,  0.058901
 -0.132211, -2.410702, -0.268484, -0.000000,  0.120863,  0.058709
 -0.173196, -2.401998, -0.268703, -0.000000,  0.108218,  0.058517
 -0.212522, -2.383584, -0.268915, -0.000000,  0.095271,  0.058325
 -0.250012, -2.355599, -0.269119, -0.000000,  0.082134,  0.058132
 -0.285500, -2.318221, -0.269315, -0.000000,  0.068918,  0.057939
 -0.318835, -2.271661, -0.269505, -0.000000,  0.055733,  0.057745
 -0.349877, -2.216167, -0.269687, -0.000000,  0.042687,  0.057550
 -0.378498, -2.152020, -0.269862, -0.000000,  0.029887,  0.057355
 -0.404587, -2.079532, -0.270030, -0.000000,  0.017434,  0.057160
 -0.428046, -1.999045, -0.270191, -0.000000,  0.005427,  0.056964
 -0.448789, -1.910931, -0.270345, -0.000000, -0.006043,  0.056767
 -0.466750, -1.815589, -0.270493, -0.000000, -0.016887,  0.056569
 -0.481873, -1.713444, -0.270634, -0.000000, -0.027026,  0.056371
 -0.494120, -1.604945, -0.270770, -0.000000, -0.036387,  0.056172
 -0.503466, -1.490560, -0.270899, -0.000000, -0.044902,  0.055973
 -0.509904, -1.370781, -0.271023, -0.000000, -0.052515,  0.055773
 -0.513439, -1.246113, -0.271141, -0.000000, -0.059174,  0.055572
 -0.514092, -1.117081, -0.271254, -0.000000, -0.064839,  0.055370
 -0.511897, -0.984221, -0.271361, -0.000000, -0.069478,  0.055168
 -0.506904, -0.848081, -0.271464, -0.000000, -0.073067,  0.054965
 -0.499174, -0.709217, -0.271563, -0.000000, -0.075591,  0.054761
 -0.488784, -0.568193, -0.271657, -0.000000, -0.077046,  0.054556
 -0.475820, -0.425576, -0.271747, -0.000000, -0.077433,  0.054351
 -0.460384, -0.281938, -0.271834, -0.000000, -0.076767,  0.054144
 -0.442586, -0.137848, -0.271917, -0.000000, -0.075066,  0.053938
 -0.422547,  0.006126, -0.271997, -0.000000, -0.072361,  0.053730
 -0.400398,  0.149421, -0.272073, -0.000000, -0.068687,  0.053521
 -0.376281,  0.291479, -0.272148, -0.000000, -0.064090,  0.053312
 -0.350343,  0.431753, -0.272220, -0.000000, -0.058619,  0.053102
 -0.322740,  0.569705, -0.272290, -0.000000, -0.052334,  0.052892
 -0.293635,  0.704811, -0.272358, -0.000000, -0.045298,  0.052680
 -0.263195,  0.836561, -0.272425, -0.000000, -0.037579,  0.052468
 -0.231592,  0.964464, -0.272490, -0.000000, -0.029251,  0.052256
 -0.199001,  1.088044, -0.272555, -0.000000, -0.020391,  0.052042
 -0.165603,  1.206848, -0.272619, -0.000000, -0.011080,  0.051828
 -0.131577,  1.320444, -0.272682, -0.000000, -0.001402,  0.051614
 -0.097104,  1.428423, -0.272745, -0.000000,  0.008559,  0.051399
 -0.062366,  1.530403, -0.272809, -0.000000,  0.018716,  0.051183
 -0.027543,  1.626025, -0.272872, -0.000000,  0.028983,  0.050966
  0.007188,  1.714960, -0.272936, -0.000000,  0.039274,  0.050749
  0.041649,  1.796907, -0.273001, -0.000000,  0.049503,  0.050532
  0.075670,  1.871593, -0.273067, -0.000000,  0.059586,  0.050313
  0.109083,  1.938778, -0.273134, -0.000000,  0.069444,  0.050095
  0.141725,  1.998250, -0.273202, -0.000000,  0.078998,  0.049876
  0.173441,  2.049833, -0.273272, -0.000000,  0.088173,  0.049656
  0.204081,  2.093378, -0.273344, -0.000000,  0.096900,  0.049436
  0.233502,  2.128773, -0.273417, -0.000000,  0.105113,  0.049215
  0.261571,  2.155936, -0.273492, -0.000000,  0.112751,  0.048994
  0.288162,  2.174819, -0.273570, -0.000000,  0.119760,  0.048773
  0.313158,  2.185407, -0.273649, -0.000000,  0.126091,  0.048551
  0.336452,  2.187717, -0.273731, -0.000000,  0.131703,  0.048328
  0.357948,  2.181798, -0.273815, -0.000000,  0.136558,  0.048105
  0.377558,  2.167733, -0.273902, -0.000000,  0.140628,  0.047882
  0.395207,  2.145634, -0.273992, -0.000000,  0.143891,  0.047658
  0.410830,  2.115643, -0.274084, -0.000000,  0.146331,  0.047434
  0.424372,  2.077936, -0.274178, -0.000000,  0.147940,  0.047210
  0.435791,  2.032715, -0.274276, -0.000000,  0.148718,  0.046985
  0.445055,  1.980210, -0.274376, -0.000000,  0.148669,  0.046760
  0.452145,  1.920678, -0.274478, -0.000000,  0.147805,  0.046534
  0.457051,  1.854403, -0.274584, -0.000000,  0.146147,  0.046308
  0.459775,  1.781692, -0.274692, -0.000000,  0.143719,  0.046081
  0.460330,  1.702877, -0.274803, -0.000000,  0.140551,  0.045854
  0.458741,  1.618310, -0.274916, -0.000000,  0.136682,  0.045627
  0.455043,  1.528362, -0.275032, -0.000000,  0.132152,  0.045399
  0.449279,  1.433426, -0.275150, -0.000000,  0.127009,  0.045171
  0.441505,  1.333908, -0.275271, -0.000000,  0.121304,  0.044942
  0.431784,  1.230231, -0.275394, -0.000000,  0.115092,  0.044713
  0.420190,  1.122832, -0.275519, -0.000000,  0.108432,  0.044483
  0.406805,  1.012158, -0.275646, -0.000000,  0.101385,  0.044253
  0.391717,  0.898667, -0.275776, -0.000000,  0.094015,  0.044022
  0.375025,  0.782823, -0.275907, -0.000000,  0.086387,  0.043791
  0.356832,  0.665097, -0.276039, -0.000000,  0.078567,  0.043559
  0.337248,  0.545966, -0.276174, -0.000000,  0.070623,  0.043327
  0.316389,  0.425905, -0.276309, -0.000000,  0.062623,  0.043094
  0.294376,  0.305392, -0.276446, -0.000000,  0.054632,  0.042861
  0.271334,  0.184905, -0.276584, -0.000000,  0.046717,  0.042627
  0.247392,  0.064914, -0.276723, -0.000000,  0.038941,  0.042392
  0.222681, -0.054113, -0.276863, -0.000000,  0.031367,  0.042157
  0.197334, -0.171716, -0.277003, -0.000000,  0.024054,  0.041922
  0.171487, -0.287443, -0.277143, -0.000000,  0.017059,  0.041685
  0.145277, -0.400853, -0.277284, -0.000000,  0.010435,  0.041449
  0.118838, -0.511519, -0.277425, -0.000000,  0.004230,  0.041211
  0.092307, -0.619025, -0.277565, -0.000000, -0.001510,  0.040973
  0.065818, -0.722972, -0.277705, -0.000000, -0.006745,  0.040734
  0.039502, -0.822977, -0.277845, -0.000000, -0.011439,  0.040495
  0.013490, -0.918676, -0.277983, -0.000000, -0.015560,  0.040255
 -0.012092, -1.009724, -0.278121, -0.000000, -0.019085,  0.040014
 -0.037121, -1.095796, -0.278258, -0.000000, -0.021991,  0.039772
 -0.061480, -1.176589, -0.278393, -0.000000, -0.024265,  0.039530
 -0.085054, -1.251825, -0.278527, -0.000000, -0.025897,  0.039288
 -0.107736, -1.321246, -0.278659, -0.000000, -0.026883,  0.039044
 -0.129424, -1.384623, -0.278789, -0.000000, -0.027223,  0.038800
 -0.150022, -1.441747, -0.278917, -0.000000, -0.026926,  0.038555
 -0.169442, -1.492441, -0.279043, -0.000000, -0.026002,  0.038310
 -0.187601, -1.536549, -0.279166, -0.000000, -0.024468,  0.038064
 -0.204425, -1.573945, -0.279287, -0.000000, -0.022346,  0.037817
 -0.219848, -1.604531, -0.279405, -0.000000, -0.019663,  0.037569
 -0.233811, -1.628233, -0.279521, -0.000000, -0.016448,  0.037321
 -0.246263, -1.645008, -0.279633, -0.000000, -0.012736,  0.037072
 -0.257162, -1.654837, -0.279742, -0.000000, -0.008565,  0.036823
 -0.266475, -1.657733, -0.279847, -0.000000, -0.003976,  0.036573
 -0.274175, -1.653731, -0.279950, -0.000000,  0.000987,  0.036322
 -0.280246, -1.642897, -0.280048, -0.000000,  0.006278,  0.036070
 -0.284680, -1.625320, -0.280143, -0.000000,  0.011848,  0.035818
 -0.287476, -1.601117, -0.280235, -0.000000,  0.017646,  0.035566
 -0.288643, -1.570430, -0.280322, -0.000000,  0.023622,  0.035312
 -0.288197, -1.533424, -0.280405, -0.000000,  0.029723,  0.035058
 -0.286162, -1.490290, -0.280485, -0.000000,  0.035897,  0.034804
 -0.282571, -1.441239, -0.280560, -0.000000,  0.042093,  0.034549
 -0.277463, -1.386505, -0.280631, -0.000000,  0.048258,  0.034293
 -0.270884, -1.326343, -0.280698, -0.000000,  0.054342,  0.034036
 -0.262889, -1.261027, -0.280761, -0.000000,  0.060295,  0.033779
 -0.253537, -1.190850, -0.280819, -0.000000,  0.066071,  0.033522
 -0.242894, -1.116120, -0.280874, -0.000000,  0.071624,  0.033264
 -0.231032, -1.037162, -0.280923, -0.000000,  0.076911,  0.033005
 -0.218028, -0.954317, -0.280969, -0.000000,  0.081893,  0.032746
 -0.203964, -0.867936, -0.281010, -0.000000,  0.086532,  0.032486
 -0.188925, -0.778383, -0.281047, -0.000000,  0.090795,  0.032226
 -0.173003, -0.686031, -0.281079, -0.000000,  0.094653,  0.031965
 -0.156290, -0.591262, -0.281108, -0.000000,  0.098078,  0.031703
 -0.138882, -0.494465, -0.281132, -0.000000,  0.101049,  0.031441
 -0.120877, -0.396032, -0.281152, -0.000000,  0.103548,  0.031179
 -0.102376, -0.296363, -0.281167, -0.000000,  0.105560,  0.030916
 -0.083480, -0.195855, -0.281179, -0.000000,  0.107076,  0.030652
 -0.064290, -0.094910, -0.281186, -0.000000,  0.108091,  0.030388
 -0.044909,  0.006075, -0.281190, -0.000000,  0.108602,  0.030123
 -0.025440,  0.106702, -0.281190, -0.000000,  0.108614,  0.029858
 -0.005982,  0.206581, -0.281186, -0.000000,  0.108132,  0.029593
  0.013365,  0.305324, -0.281178, -0.000000,  0.107168,  0.029326
  0.032503,  0.402553, -0.281166, -0.000000,  0.105736,  0.029060
  0.051336,  0.497897, -0.281152, -0.000000,  0.103855,  0.028792
  0.069772,  0.590995, -0.281133, -0.000000,  0.101547,  0.028524
  0.087721,  0.681500, -0.281112, -0.000000,  0.098836,  0.028256
  0.105098,  0.769073, -0.281087, -0.000000,  0.095750,  0.027987
  0.121820,  0.853393, -0.281059, -0.000000,  0.092320,  0.027718
  0.137811,  0.934151, -0.281028, -0.000000,  0.088580,  0.027448
  0.152997,  1.011057, -0.280994, -0.000000,  0.084564,  0.027177
  0.167311,  1.083836, -0.280958, -0.000000,  0.080308,  0.026906
  0.180689,  1.152232, -0.280919, -0.000000,  0.075852,  0.026635
  0.193076,  1.216008, -0.280878, -0.000000,  0.071235,  0.026362
  0.204420,  1.274946, -0.280834, -0.000000,  0.066497,  0.026090
  0.214675,  1.328849, -0.280788, -0.000000,  0.061678,  0.025816
  0.223803,  1.377542, -0.280740, -0.000000,  0.056819,  0.025542
  0.231770,  1.420871, -0.280690, -0.000000,  0.051961,  0.025268
  0.238549,  1.458703, -0.280638, -0.000000,  0.047143,  0.024993
  0.244122,  1.490929, -0.280584, -0.000000,  0.042404,  0.024717
  0.248472,  1.517463, -0.280529, -0.000000,  0.037782,  0.024441
  0.251593,  1.538240, -0.280473, -0.000000,  0.033312,  0.024164
  0.253484,  1.553219, -0.280415, -0.000000,  0.029030,  0.023886
  0.254149,  1.562384, -0.280356, -0.000000,  0.024968,  0.023608
  0.253599,  1.565739, -0.280296, -0.000000,  0.021156,  0.023329
  0.251851,  1.563312, -0.280235, -0.000000,  0.017620,  0.023050
  0.248929,  1.555153, -0.280173, -0.000000,  0.014387,  0.022770
  0.244861,  1.541335, -0.280110, -0.000000,  0.011478,  0.022489
  0.239681,  1.521952, -0.280047, -0.000000,  0.008912,  0.022208
  0.233427,  1.497120, -0.279983, -0.000000,  0.006704,  0.021926
  0.226145,  1.466974, -0.279919, -0.000000,  0.004869,  0.021643
  0.217882,  1.431670, -0.279854, -0.000000,  0.003414,  0.021360
  0.208692,  1.391382, -0.279790, -0.000000,  0.002347,  0.021076
  0.198631,  1.346305, -0.279725, -0.000000,  0.001670,  0.020792
  0.187761,  1.296649, -0.279659, -0.000000,  0.001383,  0.020506
  0.176145,  1.242640, -0.279594, -0.000000,  0.001482,  0.020221
  0.163851,  1.184522, -0.279529, -0.000000,  0.001961,  0.019934
  0.150948,  1.122550, -0.279464, -0.000000,  0.002809,  0.019647
  0.137507,  1.056997, -0.279399, -0.000000,  0.004014,  0.019359
  0.123602,  0.988143, -0.279335, -0.000000,  0.005561,  0.019071
  0.109307,  0.916282, -0.279270, -0.000000,  0.007431,  0.018782
  0.094700,  0.841718, -0.279206, -0.000000,  0.009605,  0.018492
  0.079856,  0.764761, -0.279142, -0.000000,  0.012059,  0.018202
  0.064852,  0.685730, -0.279079, -0.000000,  0.014769,  0.017911
  0.049764,  0.604951, -0.279015, -0.000000,  0.017708,  0.017619
  0.034668,  0.522752, -0.278953, -0.000000,  0.020849,  0.017327
  0.019640,  0.439465, -0.278890, -0.000000,  0.024162,  0.017034
  0.004753,  0.355424, -0.278828, -0.000000,  0.027618,  0.016740
 -0.009921,  0.270965, -0.278766, -0.000000,  0.031185,  0.016446
 -0.024312,  0.186423, -0.278705, -0.000000,  0.034831,  0.016152
 -0.038352,  0.102127, -0.278644, -0.000000,  0.038526,  0.015856
 -0.051977,  0.018409, -0.278583, -0.000000,  0.042238,  0.015560
 -0.065124, -0.064408, -0.278523, -0.000000,  0.045936,  0.015264
 -0.077734, -0.146007, -0.278463, -0.000000,  0.049588,  0.014966
 -0.089752, -0.226074, -0.278403, -0.000000,  0.053165,  0.014669
 -0.101126, -0.304308, -0.278343, -0.000000,  0.056639,  0.014370
 -0.111809, -0.380413, -0.278283, -0.000000,  0.059981,  0.014071
 -0.121757, -0.454108, -0.278224, -0.000000,  0.063167,  0.013771
 -0.130930, -0.525120, -0.278164, -0.000000,  0.066170,  0.013471
 -0.139294, -0.593189, -0.278104, -0.000000,  0.068970,  0.013170
 -0.146818, -0.658069, -0.278045, -0.000000,  0.071544,  0.012869
 -0.153477, -0.719529, -0.277985, -0.000000,  0.073876,  0.012567
 -0.159250, -0.777351, -0.277925, -0.000000,  0.075948,  0.012264
 -0.164120, -0.831334, -0.277864, -0.000000,  0.077748,  0.011961
 -0.168075, -0.881294, -0.277804, -0.000000,  0.079263,  0.011658
 -0.171110, -0.927064, -0.277742, -0.000000,  0.080486,  0.011353
 -0.173222, -0.968493, -0.277680, -0.000000,  0.081409,  0.011048
 -0.174413, -1.005450, -0.277618, -0.000000,  0.082029,  0.010743
 -0.174692, -1.037821, -0.277555, -0.000000,  0.082346,  0.010437
 -0.174070, -1.065511, -0.277491, -0.000000,  0.082359,  0.010130
 -0.172564, -1.088446, -0.277426, -0.000000,  0.082074,  0.009823
 -0.170193, -1.106569, -0.277360, -0.000000,  0.081496,  0.009515
 -0.166983, -1.119842, -0.277293, -0.000000,  0.080635,  0.009207
 -0.162963, -1.128248, -0.277225, -0.000000,  0.079500,  0.008898
 -0.158164, -1.131789, -0.277156, -0.000000,  0.078105,  0.008589
 -0.152622, -1.130485, -0.277085, -0.000000,  0.076465,  0.008279
 -0.146377, -1.124374, -0.277013, -0.000000,  0.074595,  0.007968
 -0.139470, -1.113516, -0.276940, -0.000000,  0.072516,  0.007657
 -0.131948, -1.097986, -0.276864, -0.000000,  0.070245,  0.007345
 -0.123856, -1.077879, -0.276787, -0.000000,  0.067805,  0.007033
 -0.115246, -1.053304, -0.276709, -0.000000,  0.065217,  0.006720
 -0.106169, -1.024391, -0.276628, -0.000000,  0.062505,  0.006406
 -0.096678, -0.991283, -0.276546, -0.000000,  0.059693,  0.006092
 -0.086829, -0.954140, -0.276461, -0.000000,  0.056803,  0.005777
 -0.076677, -0.913136, -0.276375, -0.000000,  0.053862,  0.005462
 -0.066279, -0.868459, -0.276286, -0.000000,  0.050893,  0.005146
 -0.055692, -0.820310, -0.276195, -0.000000,  0.047921,  0.004830
 -0.044975, -0.768903, -0.276102, -0.000000,  0.044970,  0.004513
 -0.034184, -0.714462, -0.276006, -0.000000,  0.042064,  0.004195
 -0.023377, -0.657222, -0.275908, -0.000000,  0.039225,  0.003877
 -0.012609, -0.597427, -0.275808, -0.000000,  0.036476,  0.003558
 -0.001938, -0.535331, -0.275705, -0.000000,  0.033837,  0.003239
  0.008584, -0.471193, -0.275599, -0.000000,  0.031328,  0.002919
  0.018903, -0.405278, -0.275491, -0.000000,  0.028967,  0.002598
  0.028968, -0.337858, -0.275380, -0.000000,  0.026772,  0.002277
  0.038730, -0.269208, -0.275266, -0.000000,  0.024757,  0.001955
  0.048141, -0.199606, -0.275149, -0.000000,  0.022936,  0.001633
  0.057158, -0.129332, -0.275030, -0.000000,  0.021321,  0.001310
  0.065737, -0.058666, -0.274908, -0.000000,  0.019922,  0.000986
  0.073840,  0.012113, -0.274783, -0.000000,  0.018746,  0.000662
  0.081430,  0.082724, -0.274655,  0.000000,  0.017800,  0.000337
  0.088474,  0.152894, -0.274524, -0.000000,  0.017087,  0.000011
  0.094942,  0.222349, -0.274391, -0.000000,  0.016609, -0.000315
  0.100806,  0.290822, -0.274254, -0.000000,  0.016368, -0.000641
  0.106043,  0.358052, -0.274115,  0.000000,  0.016359, -0.000969
  0.110633,  0.423783, -0.273972, -0.000000,  0.016581, -0.001296
  0.114560,  0.487769, -0.273827, -0.000000,  0.017027, -0.001625
  0.117811,  0.549770, -0.273679, -0.000000,  0.017690, -0.001954
  0.120376,  0.609558, -0.273527,  0.000000,  0.018560, -0.002284
  0.122250,  0.666913, -0.273373, -0.000000,  0.019627, -0.002614
  0.123429,  0.721627, -0.273217, -0.000000,  0.020879, -0.002945
  0.123917,  0.773506, -0.273057, -0.000000,  0.022302, -0.003277
  0.123717,  0.822364, -0.272894,  0.000000,  0.023882, -0.003609
  0.122838,  0.868031, -0.272729,  0.000000,  0.025603, -0.003942
  0.121291,  0.910352, -0.272561, -0.000000,  0.027447, -0.004275
  0.119092,  0.949183, -0.272390, -0.000000,  0.029398, -0.004609
  0.116257,  0.984397, -0.272217,  0.000000,  0.031437, -0.004943
  0.112808,  1.015881, -0.272041,  0.000000,  0.033546, -0.005278
  0.108769,  1.043537, -0.271862,  0.000000,  0.035706, -0.005614
  0.104166,  1.067285, -0.271681, -0.000000,  0.037897, -0.005950
  0.099027,  1.087058, -0.271497, -0.000000,  0.040101, -0.006287
  0.093385,  1.102806, -0.271311,  0.000000,  0.042299, -0.006625
  0.087272,  1.114498, -0.271122,  0.000000,  0.044472, -0.006963
  0.080723,  1.122114, -0.270931,  0.000000,  0.046601, -0.007301
  0.073777,  1.125654, -0.270738, -0.000000,  0.048671, -0.007641
  0.066471,  1.125132, -0.270542, -0.000000,  0.050663, -0.007980
  0.058845,  1.120579, -0.270345,  0.000000,  0.052562, -0.008321
  0.050941,  1.112042, -0.270145,  0.000000,  0.054353, -0.008662
  0.042800,  1.099581, -0.269943,  0.000000,  0.056023, -0.009003
  0.034464,  1.083273, -0.269739,  0.000000,  0.057558, -0.009345
  0.025978,  1.063208, -0.269533, -0.000000,  0.058948, -0.009688
  0.017383,  1.039493, -0.269325, -0.000000,  0.060182, -0.010031
  0.008723,  1.012245, -0.269116,  0.000000,  0.061252, -0.010375
  0.000041,  0.981597, -0.268904,  0.000000,  0.062152, -0.010719
 -0.008620,  0.947691, -0.268691,  0.000000,  0.062874, -0.011064
 -0.017219,  0.910685, -0.268477,  0.000000,  0.063417, -0.011409
 -0.025714,  0.870744, -0.268260,  0.000000,  0.063777, -0.011755
 -0.034066,  0.828046, -0.268042, -0.000000,  0.063952, -0.012101
 -0.042237,  0.782778, -0.267823,  0.000000,  0.063945, -0.012448
 -0.050188,  0.735134, -0.267602,  0.000000,  0.063757, -0.012796
 -0.057884,  0.685319, -0.267380,  0.000000,  0.063391, -0.013144
 -0.065291,  0.633543, -0.267156,  0.000000,  0.062853, -0.013493
 -0.072378,  0.580023, -0.266931,  0.000000,  0.062149, -0.013842
 -0.079114,  0.524980, -0.266705,  0.000000,  0.061286, -0.014192
 -0.085471,  0.468641, -0.266478,  0.000000,  0.060274, -0.014542
 -0.091424,  0.411236, -0.266250, -0.000000,  0.059122, -0.014893
 -0.096950,  0.352997, -0.266020, -0.000000,  0.057842, -0.015244
 -0.102028,  0.294158, -0.265790,  0.000000,  0.056444, -0.015596
 -0.106639,  0.234955, -0.265558,  0.000000,  0.054942, -0.015948
 -0.110769,  0.175621, -0.265325,  0.000000,  0.053349, -0.016301
 -0.114404,  0.116390, -0.265092,  0.000000,  0.051679, -0.016655
 -0.117534,  0.057493, -0.264857,  0.000000,  0.049946, -0.017009
 -0.120151, -0.000841, -0.264622,  0.000000,  0.048165, -0.017363
 -0.122251, -0.058388, -0.264386,  0.000000,  0.046350, -0.017718
 -0.123832, -0.114928, -0.264149,  0.000000,  0.044517, -0.018074
 -0.124893, -0.170246, -0.263911,  0.000000,  0.042680, -0.018430
 -0.125439, -0.224135, -0.263672,  0.000000,  0.040853, -0.018787
 -0.125473, -0.276393, -0.263432, -0.000000,  0.039052, -0.019144
 -0.125006, -0.326827, -0.263192, -0.000000,  0.037289, -0.019502
 -0.124047, -0.375253, -0.262951,  0.000000,  0.035578, -0.019860
 -0.122609, -0.421495, -0.262709,  0.000000,  0.033933, -0.020219
 -0.120708, -0.465387, -0.262466,  0.000000,  0.032365, -0.020578
 -0.118361, -0.506775, -0.262222,  0.000000,  0.030884, -0.020938
 -0.115587, -0.545513, -0.261978,  0.000000,  0.029502, -0.021298
 -0.112407, -0.581469, -0.261733,  0.000000,  0.028228, -0.021659
 -0.108846, -0.614522, -0.261487,  0.000000,  0.027071, -0.022021
 -0.104926, -0.644563, -0.261241,  0.000000,  0.026036, -0.022383
 -0.100676, -0.671495, -0.260993,  0.000000,  0.025131, -0.022745
 -0.096121, -0.695235, -0.260745,  0.000000,  0.024360, -0.023108
 -0.091291, -0.715713, -0.260496,  0.000000,  0.023728, -0.023472
 -0.086217, -0.732871, -0.260246,  0.000000,  0.023236, -0.023836
 -0.080927, -0.746667, -0.259995,  0.000000,  0.022887, -0.024200
 -0.075454, -0.757070, -0.259743,  0.000000,  0.022680, -0.024566
 -0.069829, -0.764063, -0.259490,  0.000000,  0.022614, -0.024931
 -0.064086, -0.767644, -0.259236,  0.000000,  0.022687, -0.025297
 -0.058255, -0.767822, -0.258981,  0.000000,  0.022897, -0.025664
 -0.052369, -0.764622, -0.258726,  0.000000,  0.023237, -0.026031
 -0.046462, -0.758079, -0.258469,  0.000000,  0.023704, -0.026399
 -0.040564, -0.748244, -0.258211,  0.000000,  0.024291, -0.026767
 -0.034707, -0.735179, -0.257952,  0.000000,  0.024991, -0.027135
 -0.028923, -0.718957, -0.257692,  0.000000,  0.025795, -0.027505
 -0.023241, -0.699665, -0.257430,  0.000000,  0.026694, -0.027874
 -0.017690, -0.677401, -0.257167,  0.000000,  0.027680, -0.028244
 -0.012299, -0.652274, -0.256903,  0.000000,  0.028743, -0.028615
 -0.007095, -0.624401, -0.256638,  0.000000,  0.029871, -0.028986
 -0.002103, -0.593913, -0.256371,  0.000000,  0.031054, -0.029358
  0.002652, -0.560947, -0.256103,  0.000000,  0.032280, -0.029730
  0.007148, -0.525651, -0.255834,  0.000000,  0.033538, -0.030103
  0.011362, -0.488179, -0.255563,  0.000000,  0.034818, -0.030476
  0.015276, -0.448695, -0.255290,  0.000000,  0.036106, -0.030849
  0.018872, -0.407368, -0.255016,  0.000000,  0.037392, -0.031223
  0.022134, -0.364372, -0.254740,  0.000000,  0.038664, -0.031598
  0.025048, -0.319890, -0.254463,  0.000000,  0.039912, -0.031973
  0.027602, -0.274105, -0.254184,  0.000000,  0.041124, -0.032348
  0.029786, -0.227207, -0.253903,  0.000000,  0.042292, -0.032724
  0.031591, -0.179389, -0.253620,  0.000000,  0.043404, -0.033101
  0.033012, -0.130844, -0.253336,  0.000000,  0.044452, -0.033477
  0.034044, -0.081768, -0.253050,  0.000000,  0.045427, -0.033855
  0.034686, -0.032359, -0.252762,  0.000000,  0.046323, -0.034233
  0.034937,  0.017189, -0.252471,  0.000000,  0.047131, -0.034611
  0.034799,  0.066679, -0.252179,  0.000000,  0.047846, -0.034989
  0.034277,  0.115916, -0.251885,  0.000000,  0.048463, -0.035368
  0.033375,  0.164711, -0.251589,  0.000000,  0.048977, -0.035748
  0.032102,  0.212873, -0.251291,  0.000000,  0.049385, -0.036128
  0.030466,  0.260218, -0.250991,  0.000000,  0.049683, -0.036508
  0.028480,  0.306566, -0.250689,  0.000000,  0.049872, -0.036889
  0.026155,  0.351742, -0.250384,  0.000000,  0.049949, -0.037270
  0.023506,  0.395577, -0.250078,  0.000000,  0.049916, -0.037652
  0.020549,  0.437907, -0.249769,  0.000000,  0.049773, -0.038034
  0.017300,  0.478578, -0.249458,  0.000000,  0.049523, -0.038417
  0.013778,  0.517440, -0.249144,  0.000000,  0.049167, -0.038800
  0.010003,  0.554354, -0.248829,  0.000000,  0.048711, -0.039183
  0.005995,  0.589189, -0.248511,  0.000000,  0.048159, -0.039567
  0.001775,  0.621822, -0.248191,  0.000000,  0.047515, -0.039951
 -0.002634,  0.652140, -0.247869,  0.000000,  0.046786, -0.040335
 -0.007210,  0.680041, -0.247544,  0.000000,  0.045979, -0.040720
 -0.011929,  0.705432, -0.247217,  0.000000,  0.045099, -0.041106
 -0.016768,  0.728230, -0.246888,  0.000000,  0.044156, -0.041492
 -0.021701,  0.748363, -0.246557,  0.000000,  0.043156, -0.041878
 -0.026706,  0.765773, -0.246223,  0.000000,  0.042109, -0.042264
 -0.031757,  0.780408, -0.245887,  0.000000,  0.041023, -0.042651
 -0.036830,  0.792231, -0.245548,  0.000000,  0.039906, -0.043039
 -0.041902,  0.801215, -0.245208,  0.000000,  0.038767, -0.043426
 -0.046948,  0.807344, -0.244865,  0.000000,  0.037617, -0.043814
 -0.051945,  0.810614, -0.244519,  0.000000,  0.036462, -0.044203
 -0.056871,  0.811032, -0.244172,  0.000000,  0.035313, -0.044592
 -0.061703,  0.808615, -0.243822,  0.000000,  0.034178, -0.044981
 -0.066420,  0.803394, -0.243470,  0.000000,  0.033065, -0.045370
 -0.071002,  0.795408, -0.243115,  0.000000,  0.031983, -0.045760
 -0.075428,  0.784706, -0.242759,  0.000000,  0.030939, -0.046151
 -0.079682,  0.771351, -0.242400,  0.000000,  0.029941, -0.046541
 -0.083744,  0.755412, -0.242039,  0.000000,  0.028994, -0.046932
 -0.087599,  0.736969, -0.241675,  0.000000,  0.028107, -0.047324
 -0.091233,  0.716114, -0.241310,  0.000000,  0.027284, -0.047716
 -0.094631,  0.692943, -0.240942,  0.000000,  0.026531, -0.048108
 -0.097780,  0.667563, -0.240573,  0.000000,  0.025851, -0.048500
 -0.100672,  0.640090, -0.240201,  0.000000,  0.025249, -0.048893
 -0.103295,  0.610644, -0.239827,  0.000000,  0.024728, -0.049286
 -0.105643,  0.579356, -0.239451,  0.000000,  0.024291, -0.049680
 -0.107708,  0.546360, -0.239073,  0.000000,  0.023938, -0.050073
 -0.109486,  0.511798, -0.238693,  0.000000,  0.023671, -0.050468
 -0.110973,  0.475815, -0.238311,  0.000000,  0.023490, -0.050862
 -0.112168,  0.438562, -0.237928,  0.000000,  0.023394, -0.051257
 -0.113070,  0.400193, -0.237542,  0.000000,  0.023383, -0.051652
 -0.113680,  0.360867, -0.237154,  0.000000,  0.023454, -0.052047
 -0.114001,  0.320744, -0.236765,  0.000000,  0.023606, -0.052443
 -0.114038,  0.279987, -0.236373,  0.000000,  0.023833, -0.052839
 -0.113794,  0.238759, -0.235980,  0.000000,  0.024134, -0.053236
 -0.113278,  0.197224, -0.235585,  0.000000,  0.024503, -0.053632
 -0.112497,  0.155548, -0.235188,  0.000000,  0.024937, -0.054029
 -0.111460,  0.113894, -0.234790,  0.000000,  0.025429, -0.054426
 -0.110179,  0.072425, -0.234390,  0.000000,  0.025973, -0.054824
 -0.108663,  0.031302, -0.233988,  0.000000,  0.026565, -0.055222
 -0.106927, -0.009317, -0.233584,  0.000000,  0.027197, -0.055620
 -0.104984, -0.049277, -0.233179,  0.000000,  0.027863, -0.056018
 -0.102847, -0.088426, -0.232772,  0.000000,  0.028557, -0.056417
 -0.100533, -0.126617, -0.232364,  0.000000,  0.029271, -0.056816
 -0.098058, -0.163708, -0.231954,  0.000000,  0.029998, -0.057215
 -0.095436, -0.199561, -0.231543,  0.000000,  0.030731, -0.057614
 -0.092687, -0.234044, -0.231130,  0.000000,  0.031465, -0.058014
 -0.089827, -0.267034, -0.230716,  0.000000,  0.032190, -0.058414
 -0.086875, -0.298412, -0.230300,  0.000000,  0.032902, -0.058814
 -0.083847, -0.328066, -0.229883,  0.000000,  0.033594, -0.059215
 -0.080763, -0.355892, -0.229464,  0.000000,  0.034259, -0.059615
 -0.077641, -0.381796, -0.229044,  0.000000,  0.034891, -0.060016
 -0.074498, -0.405690, -0.228622,  0.000000,  0.035485, -0.060417
 -0.071354, -0.427495, -0.228199,  0.000000,  0.036037, -0.060819
 -0.068225, -0.447140, -0.227775,  0.000000,  0.036540, -0.061220
 -0.065130, -0.464565, -0.227349,  0.000000,  0.036992, -0.061622
 -0.062086, -0.479717, -0.226922,  0.000000,  0.037387, -0.062024
 -0.059108, -0.492553, -0.226494,  0.000000,  0.037724, -0.062426
 -0.056214, -0.503041, -0.226064,  0.000000,  0.037998, -0.062829
 -0.053419, -0.511155, -0.225633,  0.000000,  0.038209, -0.063231
 -0.050738, -0.516882, -0.225201,  0.000000,  0.038354, -0.063634
 -0.048185, -0.520216, -0.224768,  0.000000,  0.038433, -0.064037
 -0.045772, -0.521163, -0.224333,  0.000000,  0.038444, -0.064440
 -0.043513, -0.519734, -0.223896,  0.000000,  0.038389, -0.064844
 -0.041418, -0.515955, -0.223459,  0.000000,  0.038267, -0.065247
 -0.039499, -0.509856, -0.223020,  0.000000,  0.038081, -0.065651
 -0.037764, -0.501478, -0.222580,  0.000000,  0.037830, -0.066055
 -0.036222, -0.490871, -0.222138,  0.000000,  0.037519, -0.066459
 -0.034879, -0.478093, -0.221696,  0.000000,  0.037148, -0.066863
 -0.033744, -0.463210, -0.221252,  0.000000,  0.036723, -0.067267
 -0.032819, -0.446296, -0.220806,  0.000000,  0.036245, -0.067671
 -0.032109, -0.427432, -0.220359,  0.000000,  0.035719, -0.068076
 -0.031618, -0.406705, -0.219911,  0.000000,  0.035150, -0.068481
 -0.031346, -0.384213, -0.219462,  0.000000,  0.034541, -0.068885
 -0.031294, -0.360054, -0.219011,  0.000000,  0.033897, -0.069290
 -0.031461, -0.334338, -0.218559,  0.000000,  0.033224, -0.069695
 -0.031846, -0.307176, -0.218106,  0.000000,  0.032527, -0.070101
 -0.032446, -0.278685, -0.217651,  0.000000,  0.031810, -0.070506
 -0.033256, -0.248987, -0.217194,  0.000000,  0.031080, -0.070911
 -0.034273, -0.218209, -0.216737,  0.000000,  0.030342, -0.071317
 -0.035490, -0.186478, -0.216277,  0.000000,  0.029601, -0.071722
 -0.036901, -0.153926, -0.215817,  0.000000,  0.028862, -0.072128
 -0.038497, -0.120689, -0.215355,  0.000000,  0.028131, -0.072534
 -0.040271, -0.086901, -0.214891,  0.000000,  0.027414, -0.072939
 -0.042212, -0.052699, -0.214426,  0.000000,  0.026713, -0.073345
 -0.044312, -0.018222, -0.213959,  0.000000,  0.026036, -0.073751
 -0.046558,  0.016394, -0.213491,  0.000000,  0.025385, -0.074157
 -0.048941,  0.051010, -0.213021,  0.000000,  0.024766, -0.074563
 -0.051447,  0.085490, -0.212550,  0.000000,  0.024181, -0.074969
 -0.054065,  0.119700, -0.212077,  0.000000,  0.023635, -0.075375
 -0.056782,  0.153505, -0.211603,  0.000000,  0.023131, -0.075782
 -0.059585,  0.186777, -0.211127,  0.000000,  0.022671, -0.076188
 -0.062460,  0.219388, -0.210649,  0.000000,  0.022258, -0.076594
 -0.065394,  0.251213, -0.210169,  0.000000,  0.021893, -0.077000
 -0.068374,  0.282133, -0.209688,  0.000000,  0.021579, -0.077407
 -0.071385,  0.312032, -0.209205,  0.000000,  0.021316, -0.077813
 -0.074414,  0.340800, -0.208721,  0.000000,  0.021105, -0.078219
 -0.077447,  0.368330, -0.208235,  0.000000,  0.020945, -0.078625
 -0.080471,  0.394524, -0.207747,  0.000000,  0.020838, -0.079032
 -0.083473,  0.419287, -0.207257,  0.000000,  0.020782, -0.079438
 -0.086439,  0.442531, -0.206765,  0.000000,  0.020775, -0.079844
 -0.089357,  0.464175, -0.206272,  0.000000,  0.020817, -0.080250
 -0.092215,  0.484145, -0.205777,  0.000000,  0.020906, -0.080657
 -0.095001,  0.502374, -0.205280,  0.000000,  0.021039, -0.081063
 -0.097704,  0.518801, -0.204781,  0.000000,  0.021214, -0.081469
 -0.100313,  0.533375, -0.204281,  0.000000,  0.021429, -0.081875
 -0.102818,  0.546051, -0.203778,  0.000000,  0.021679, -0.082281
 -0.105210,  0.556791, -0.203274,  0.000000,  0.021961, -0.082687
 -0.107480,  0.565566, -0.202767,  0.000000,  0.022273, -0.083093
 -0.109619,  0.572355, -0.202259,  0.000000,  0.022609, -0.083499
 -0.111622,  0.577145, -0.201749,  0.000000,  0.022967, -0.083904
 -0.113481,  0.579930, -0.201237,  0.000000,  0.023342, -0.084310
 -0.115190,  0.580713, -0.200723,  0.000000,  0.023729, -0.084715
 -0.116746,  0.579504, -0.200207,  0.000000,  0.024126, -0.085121
 -0.118143,  0.576321, -0.199690,  0.000000,  0.024527, -0.085526
 -0.119380,  0.571190, -0.199170,  0.000000,  0.024928, -0.085931
 -0.120453,  0.564143, -0.198648,  0.000000,  0.025325, -0.086337
 -0.121361,  0.555222, -0.198125,  0.000000,  0.025715, -0.086742
 -0.122104,  0.544473, -0.197599,  0.000000,  0.026093, -0.087146
 -0.122681,  0.531951, -0.197072,  0.000000,  0.026455, -0.087551
 -0.123095,  0.517717, -0.196543,  0.000000,  0.026798, -0.087956
 -0.123347,  0.501838, -0.196011,  0.000000,  0.027119, -0.088360
 -0.123439,  0.484387, -0.195478,  0.000000,  0.027414, -0.088764
 -0.123376,  0.465442, -0.194943,  0.000000,  0.027681, -0.089168
 -0.123161,  0.445088, -0.194406,  0.000000,  0.027916, -0.089572
 -0.122800,  0.423414, -0.193867,  0.000000,  0.028118, -0.089976
 -0.122297,  0.400513, -0.193326,  0.000000,  0.028285, -0.090380
 -0.121660,  0.376482, -0.192783,  0.000000,  0.028415, -0.090783
 -0.120895,  0.351424, -0.192238,  0.000000,  0.028506, -0.091186
 -0.120010,  0.325443, -0.191691,  0.000000,  0.028558, -0.091589
 -0.119012,  0.298647, -0.191142,  0.000000,  0.028570, -0.091992
 -0.117910,  0.271145, -0.190592,  0.000000,  0.028542, -0.092394
 -0.116713,  0.243049, -0.190040,  0.000000,  0.028473, -0.092796
 -0.115429,  0.214473, -0.189485,  0.000000,  0.028363, -0.093198
 -0.114069,  0.185533, -0.188929,  0.000000,  0.028215, -0.093600
 -0.112642,  0.156342, -0.188371,  0.000000,  0.028028, -0.094002
 -0.111158,  0.127016, -0.187811,  0.000000,  0.027804, -0.094403
 -0.109628,  0.097671, -0.187250,  0.000000,  0.027545, -0.094804
 -0.108060,  0.068420, -0.186686,  0.000000,  0.027251, -0.095205
 -0.106467,  0.039378, -0.186121,  0.000000,  0.026926, -0.095605
 -0.104858,  0.010655, -0.185554,  0.000000,  0.026572, -0.096005
 -0.103242, -0.017640, -0.184985,  0.000000,  0.026191, -0.096405
 -0.101632, -0.045397, -0.184415,  0.000000,  0.025786, -0.096805
 -0.100035, -0.072515, -0.183842,  0.000000,  0.025360, -0.097204
 -0.098462, -0.098891, -0.183268,  0.000000,  0.024915, -0.097603
 -0.096924, -0.124429, -0.182693,  0.000000,  0.024456, -0.098002
 -0.095427, -0.149035, -0.182115,  0.000000,  0.023984, -0.098400
 -0.093983, -0.172620, -0.181536,  0.000000,  0.023504, -0.098798
 -0.092599, -0.195099, -0.180955,  0.000000,  0.023019, -0.099196
 -0.091283, -0.216394, -0.180373,  0.000000,  0.022532, -0.099593
 -0.090043, -0.236429, -0.179789,  0.000000,  0.022045, -0.099990
 -0.088885, -0.255137, -0.179203,  0.000000,  0.021564, -0.100386
 -0.087818, -0.272453, -0.178616,  0.000000,  0.021089, -0.100782
 -0.086846, -0.288321, -0.178027,  0.000000,  0.020625, -0.101178
 -0.085976, -0.302690, -0.177436,  0.000000,  0.020175, -0.101574
 -0.085212, -0.315515, -0.176844,  0.000000,  0.019740, -0.101969
 -0.084558, -0.326758, -0.176251,  0.000000,  0.019324, -0.102363
 -0.084019, -0.336385, -0.175656,  0.000000,  0.018929, -0.102757
 -0.083597, -0.344373, -0.175059,  0.000000,  0.018557, -0.103151
 -0.083295, -0.350701, -0.174461,  0.000000,  0.018210, -0.103544
 -0.083114, -0.355359, -0.173861,  0.000000,  0.017890, -0.103937
 -0.083056, -0.358339, -0.173260,  0.000000,  0.017598, -0.104330
 -0.083122, -0.359645, -0.172658,  0.000000,  0.017335, -0.104722
 -0.083311, -0.359282, -0.172054,  0.000000,  0.017103, -0.105113
 -0.083622, -0.357265, -0.171448,  0.000000,  0.016901, -0.105504
 -0.084054, -0.353615, -0.170841,  0.000000,  0.016731, -0.105895
 -0.084606, -0.348359, -0.170233,  0.000000,  0.016592, -0.106285
 -0.085274, -0.341529, -0.169623,  0.000000,  0.016485, -0.106675
 -0.086056, -0.333164, -0.169012,  0.000000,  0.016409, -0.107064
 -0.086948, -0.323309, -0.168400,  0.000000,  0.016363, -0.107452
 -0.087946, -0.312013, -0.167786,  0.000000,  0.016347, -0.107840
 -0.089045, -0.299333, -0.167170,  0.000000,  0.016359, -0.108228
 -0.090240, -0.285329, -0.166554,  0.000000,  0.016399, -0.108615
 -0.091526, -0.270066, -0.165936,  0.000000,  0.016463, -0.109001
 -0.092897, -0.253613, -0.165316,  0.000000,  0.016552, -0.109387
 -0.094346, -0.236045, -0.164696,  0.000000,  0.016663, -0.109773
 -0.095867, -0.217440, -0.164073,  0.000000,  0.016794, -0.110157
 -0.097453, -0.197878, -0.163450,  0.000000,  0.016943, -0.110542
 -0.099097, -0.177444, -0.162825,  0.000000,  0.017107, -0.110925
 -0.100792, -0.156225, -0.162199,  0.000000,  0.017285, -0.111308
 -0.102531, -0.134311, -0.161572,  0.000000,  0.017473, -0.111691
 -0.104304, -0.111794, -0.160943,  0.000000,  0.017670, -0.112073
 -0.106106, -0.088768, -0.160313,  0.000000,  0.017872, -0.112454
 -0.107928, -0.065327, -0.159682,  0.000000,  0.018077, -0.112835
 -0.109763, -0.041567, -0.159049,  0.000000,  0.018283, -0.113215
 -0.111603, -0.017584, -0.158415,  0.000000,  0.018487, -0.113594
 -0.113439,  0.006524, -0.157780,  0.000000,  0.018687, -0.113973
 -0.115266,  0.030662, -0.157143,  0.000000,  0.018880, -0.114351
 -0.117074,  0.054733, -0.156505,  0.000000,  0.019064, -0.114728
 -0.118858,  0.078642, -0.155866,  0.000000,  0.019237, -0.115105
 -0.120610,  0.102297, -0.155225,  0.000000,  0.019397, -0.115481
 -0.122323,  0.125605, -0.154583,  0.000000,  0.019541, -0.115856
 -0.123992,  0.148475, -0.153940,  0.000000,  0.019669, -0.116231
 -0.125609,  0.170821, -0.153295,  0.000000,  0.019778, -0.116605
 -0.127169,  0.192557, -0.152649,  0.000000,  0.019868, -0.116978
 -0.128666,  0.213601, -0.152002,  0.000000,  0.019936, -0.117350
 -0.130096,  0.233875, -0.151353,  0.000000,  0.019982, -0.117722
 -0.131454,  0.253304, -0.150703,  0.000000,  0.020005, -0.118093
 -0.132736,  0.271816, -0.150052,  0.000000,  0.020004, -0.118463
 -0.133937,  0.289344, -0.149399,  0.000000,  0.019980, -0.118833
 -0.135054,  0.305825, -0.148745,  0.000000,  0.019931, -0.119201
 -0.136085,  0.321201, -0.148090,  0.000000,  0.019857, -0.119569
 -0.137027,  0.335419, -0.147433,  0.000000,  0.019760, -0.119936
 -0.137878,  0.348429, -0.146775,  0.000000,  0.019639, -0.120303
 -0.138637,  0.360189, -0.146115,  0.000000,  0.019494, -0.120668
 -0.139302,  0.370659, -0.145455,  0.000000,  0.019327, -0.121033
 -0.139873,  0.379807, -0.144792,  0.000000,  0.019139, -0.121397
 -0.140351,  0.387605, -0.144129,  0.000000,  0.018930, -0.121760
 -0.140735,  0.394031, -0.143464,  0.000000,  0.018702, -0.122122
 -0.141026,  0.399069, -0.142797,  0.000000,  0.018456, -0.122484
 -0.141226,  0.402707, -0.142129,  0.000000,  0.018194, -0.122844
 -0.141337,  0.404939, -0.141460,  0.000000,  0.017917, -0.123204
 -0.141360,  0.405767, -0.140789,  0.000000,  0.017627, -0.123562
 -0.141299,  0.405195, -0.140117,  0.000000,  0.017326, -0.123920
 -0.141156,  0.403235, -0.139444,  0.000000,  0.017016, -0.124277
 -0.140935,  0.399902, -0.138769,  0.000000,  0.016699, -0.124633
 -0.140639,  0.395219, -0.138093,  0.000000,  0.016376, -0.124989
 -0.140273,  0.389212, -0.137415,  0.000000,  0.016050, -0.125343
 -0.139841,  0.381913, -0.136736,  0.000000,  0.015722, -0.125696
 -0.139347,  0.373359, -0.136055,  0.000000,  0.015395, -0.126049
 -0.138797,  0.363591, -0.135373,  0.000000,  0.015070, -0.126400
 -0.138195,  0.352655, -0.134690,  0.000000,  0.014750, -0.126750
 -0.137547,  0.340600, -0.134005,  0.000000,  0.014436, -0.127100
 -0.136858,  0.327481, -0.133319,  0.000000,  0.014130, -0.127448
 -0.136134,  0.313355, -0.132631,  0.000000,  0.013833, -0.127796
 -0.135380,  0.298284, -0.131942,  0.000000,  0.013548, -0.128143
 -0.134602,  0.282333, -0.131251,  0.000000,  0.013275, -0.128488
 -0.133807,  0.265569, -0.130559,  0.000000,  0.013016, -0.128833
 -0.132999,  0.248062, -0.129866,  0.000000,  0.012772, -0.129176
 -0.132184,  0.229886, -0.129171,  0.000000,  0.012544, -0.129519
 -0.131368,  0.211114, -0.128475,  0.000000,  0.012333, -0.129860
 -0.130558,  0.191824, -0.127777,  0.000000,  0.012140, -0.130201
 -0.129758,  0.172094, -0.127078,  0.000000,  0.011965, -0.130540
 -0.128973,  0.152003, -0.126377,  0.000000,  0.011809, -0.130878
 -0.128210,  0.131631, -0.125675,  0.000000,  0.011672, -0.131215
 -0.127473,  0.111059, -0.124972,  0.000000,  0.011554, -0.131552
 -0.126767,  0.090368, -0.124267,  0.000000,  0.011456, -0.131887
 -0.126096,  0.069639, -0.123561,  0.000000,  0.011376, -0.132221
 -0.125466,  0.048952, -0.122853,  0.000000,  0.011314, -0.132553
 -0.124879,  0.028386, -0.122144,  0.000000,  0.011271, -0.132885
 -0.124341,  0.008020, -0.121434,  0.000000,  0.011245, -0.133216
 -0.123854, -0.012067, -0.120723,  0.000000,  0.011236, -0.133545
 -0.123423, -0.031802, -0.120009,  0.000000,  0.011242, -0.133873
 -0.123049, -0.051110, -0.119295,  0.000000,  0.011263, -0.134201
 -0.122735, -0.069920, -0.118579,  0.000000,  0.011298, -0.134527
 -0.122484, -0.088162, -0.117862,  0.000000,  0.011345, -0.134851
 -0.122297, -0.105770, -0.117144,  0.000000,  0.011403, -0.135175
 -0.122177, -0.122682, -0.116424,  0.000000,  0.011470, -0.135497
 -0.122123, -0.138836, -0.115703,  0.000000,  0.011546, -0.135819
 -0.122137, -0.154176, -0.114981,  0.000000,  0.011629, -0.136139
 -0.122220, -0.168649, -0.114257,  0.000000,  0.011717, -0.136457
 -0.122371, -0.182205, -0.113532,  0.000000,  0.011809, -0.136775
 -0.122591, -0.194800, -0.112806,  0.000000,  0.011903, -0.137091
 -0.122878, -0.206390, -0.112079,  0.000000,  0.011997, -0.137406
 -0.123232, -0.216940, -0.111350,  0.000000,  0.012091, -0.137720
 -0.123651, -0.226417, -0.110620,  0.000000,  0.012182, -0.138033
 -0.124133, -0.234792, -0.109889,  0.000000,  0.012270, -0.138344
 -0.124678, -0.242041, -0.109157,  0.000000,  0.012352, -0.138654
 -0.125282, -0.248145, -0.108423,  0.000000,  0.012428, -0.138963
 -0.125943, -0.253090, -0.107689,  0.000000,  0.012497, -0.139270
 -0.126659, -0.256865, -0.106953,  0.000000,  0.012556, -0.139577
 -0.127425, -0.259466, -0.106216,  0.000000,  0.012606, -0.139881
 -0.128240, -0.260891, -0.105477,  0.000000,  0.012644, -0.140185
 -0.129100, -0.261145, -0.104738,  0.000000,  0.012671, -0.140487
 -0.130000, -0.260236, -0.103998,  0.000000,  0.012685, -0.140788
 -0.130938, -0.258176, -0.103256,  0.000000,  0.012685, -0.141087
 -0.131909, -0.254985, -0.102513,  0.000000,  0.012672, -0.141385
 -0.132909, -0.250683, -0.101770,  0.000000,  0.012645, -0.141682
 -0.133935, -0.245296, -0.101025,  0.000000,  0.012604, -0.141977
 -0.134981, -0.238854, -0.100279,  0.000000,  0.012548, -0.142271
 -0.136043, -0.231392, -0.099532,  0.000000,  0.012477, -0.142564
 -0.137118, -0.222947, -0.098784,  0.000000,  0.012392, -0.142855
 -0.138200, -0.213560, -0.098035,  0.000000,  0.012292, -0.143145
 -0.139286, -0.203276, -0.097285,  0.000000,  0.012178, -0.143433
 -0.140370, -0.192143, -0.096534,  0.000000,  0.012051, -0.143720
 -0.141450, -0.180212, -0.095782,  0.000000,  0.011911, -0.144005
 -0.142520, -0.167537, -0.095029,  0.000000,  0.011759, -0.144289
 -0.143577, -0.154173, -0.094275,  0.000000,  0.011594, -0.144572
 -0.144616, -0.140181, -0.093520,  0.000000,  0.011419, -0.144853
 -0.145634, -0.125619, -0.092764,  0.000000,  0.011235, -0.145133
 -0.146627, -0.110550, -0.092007,  0.000000,  0.011041, -0.145411
 -0.147591, -0.095039, -0.091249,  0.000000,  0.010839, -0.145687
 -0.148524, -0.079151, -0.090491,  0.000000,  0.010631, -0.145962
 -0.149421, -0.062951, -0.089731,  0.000000,  0.010417, -0.146236
 -0.150280, -0.046508, -0.088970,  0.000000,  0.010198, -0.146508
 -0.151099, -0.029888, -0.088209,  0.000000,  0.009976, -0.146779
 -0.151874, -0.013159, -0.087447,  0.000000,  0.009752, -0.147048
 -0.152604,  0.003611, -0.086684,  0.000000,  0.009527, -0.147315
 -0.153286,  0.020355, -0.085920,  0.000000,  0.009302, -0.147581
 -0.153919,  0.037006, -0.085155,  0.000000,  0.009079, -0.147846
 -0.154501,  0.053498, -0.084389,  0.000000,  0.008858, -0.148108
 -0.155032,  0.069766, -0.083623,  0.000000,  0.008641, -0.148370
 -0.155509,  0.085747, -0.082855,  0.000000,  0.008428, -0.148629
 -0.155933,  0.101378, -0.082087,  0.000000,  0.008222, -0.148887
 -0.156303,  0.116600, -0.081318,  0.000000,  0.008022, -0.149144
 -0.156618,  0.131354, -0.080549,  0.000000,  0.007829, -0.149399
 -0.156880,  0.145585, -0.079778,  0.000000,  0.007645, -0.149652
 -0.157088,  0.159240, -0.079007,  0.000000,  0.007470, -0.149903
 -0.157243,  0.172266, -0.078235,  0.000000,  0.007304, -0.150153
 -0.157347,  0.184617, -0.077462,  0.000000,  0.007149, -0.150402
 -0.157399,  0.196247, -0.076688,  0.000000,  0.007005, -0.150648
 -0.157402,  0.207114, -0.075914,  0.000000,  0.006872, -0.150893
 -0.157357,  0.217180, -0.075138,  0.000000,  0.006750, -0.151137
 -0.157266,  0.226410, -0.074362,  0.000000,  0.006639, -0.151379
 -0.157132,  0.234770, -0.073582,  0.000000,  0.006540, -0.151619
 -0.156956,  0.242231, -0.072799,  0.000000,  0.006451, -0.151859
 -0.156742,  0.248770, -0.072012,  0.000000,  0.006374, -0.152098
 -0.156493,  0.254365, -0.071220,  0.000000,  0.006307, -0.152337
 -0.156210,  0.258998, -0.070422,  0.000000,  0.006250, -0.152575
 -0.155898,  0.262656, -0.069617,  0.000000,  0.006202, -0.152813
 -0.155559,  0.265329, -0.068805,  0.000000,  0.006163, -0.153051
 -0.155196,  0.267013, -0.067984,  0.000000,  0.006133, -0.153289
 -0.154812,  0.267705, -0.067156,  0.000000,  0.006110, -0.153526
 -0.154412,  0.267407, -0.066318,  0.000000,  0.006094, -0.153765
 -0.153997,  0.266127, -0.065470,  0.000000,  0.006084, -0.154003
 -0.153572,  0.263873, -0.064612,  0.000000,  0.006079, -0.154241
 -0.153139,  0.260660, -0.063743,  0.000000,  0.006078, -0.154480
 -0.152703,  0.256504, -0.062864,  0.000000,  0.006081, -0.154718
 -0.152265,  0.251428, -0.061973,  0.000000,  0.006087, -0.154957
 -0.151830,  0.245455, -0.061070,  0.000000,  0.006094, -0.155196
 -0.151401,  0.238614, -0.060156,  0.000000,  0.006102, -0.155435
 -0.150980,  0.230935, -0.059229,  0.000000,  0.006110, -0.155673
 -0.150570,  0.222452, -0.058290,  0.000000,  0.006117, -0.155911
 -0.150174,  0.213204, -0.057339,  0.000000,  0.006123, -0.156149
 -0.149795,  0.203228, -0.056375,  0.000000,  0.006126, -0.156385
 -0.149436,  0.192568, -0.055399,  0.000000,  0.006125, -0.156621
 -0.149098,  0.181269, -0.054411,  0.000000,  0.006121, -0.156856
 -0.148785,  0.169377, -0.053411,  0.000000,  0.006112, -0.157090
 -0.148497,  0.156942, -0.052399,  0.000000,  0.006097, -0.157322
 -0.148237,  0.144015, -0.051375,  0.000000,  0.006077, -0.157553
 -0.148007,  0.130647, -0.050340,  0.000000,  0.006050, -0.157781
 -0.147809,  0.116893, -0.049294,  0.000000,  0.006016, -0.158008
 -0.147642,  0.102807, -0.048237,  0.000000,  0.005976, -0.158232
 -0.147509,  0.088446, -0.047170,  0.000000,  0.005927, -0.158453
 -0.147411,  0.073865, -0.046093,  0.000000,  0.005871, -0.158672
 -0.147348,  0.059122, -0.045006,  0.000000,  0.005807, -0.158887
 -0.147321,  0.044275, -0.043911,  0.000000,  0.005735, -0.159099
 -0.147330,  0.029380, -0.042808,  0.000000,  0.005655, -0.159308
 -0.147374,  0.014494, -0.041697,  0.000000,  0.005567, -0.159513
 -0.147455, -0.000325, -0.040578,  0.000000,  0.005471, -0.159714
 -0.147572, -0.015022, -0.039454,  0.000000,  0.005368, -0.159911
 -0.147724, -0.029542, -0.038324,  0.000000,  0.005257, -0.160104
 -0.147910, -0.043830, -0.037189,  0.000000,  0.005139, -0.160292
 -0.148130, -0.057834, -0.036050,  0.000000,  0.005014, -0.160476
 -0.148383, -0.071502, -0.034908,  0.000000,  0.004883, -0.160656
 -0.148667, -0.084785, -0.033763,  0.000000,  0.004747, -0.160830
 -0.148982, -0.097634, -0.032616,  0.000000,  0.004605, -0.161000
 -0.149325, -0.110005, -0.031469,  0.000000,  0.004458, -0.161165
 -0.149695, -0.121853, -0.030321,  0.000000,  0.004307, -0.161325
 -0.150089, -0.133137, -0.029175,  0.000000,  0.004153, -0.161480
 -0.150508, -0.143818, -0.028030,  0.000000,  0.003996, -0.161630
 -0.150947, -0.153860, -0.026887,  0.000000,  0.003837, -0.161776
 -0.151405, -0.163230, -0.025748,  0.000000,  0.003676, -0.161916
 -0.151881, -0.171897, -0.024613,  0.000000,  0.003515, -0.162051
 -0.152371, -0.179833, -0.023483,  0.000000,  0.003354, -0.162182
 -0.152873, -0.187014, -0.022359,  0.000000,  0.003193, -0.162307
 -0.153385, -0.193418, -0.021242,  0.000000,  0.003034, -0.162428
 -0.153905, -0.199028, -0.020132,  0.000000,  0.002876, -0.162545
 -0.154430, -0.203827, -0.019031,  0.000000,  0.002722, -0.162656
 -0.154957, -0.207804, -0.017940,  0.000000,  0.002570, -0.162764
 -0.155485, -0.210951, -0.016858,  0.000000,  0.002423, -0.162867
 -0.156010, -0.213263, -0.015787,  0.000000,  0.002280, -0.162966
 -0.156531, -0.214737, -0.014728,  0.000000,  0.002141, -0.163061
 -0.157045, -0.215374, -0.013681,  0.000000,  0.002009, -0.163153
 -0.157549, -0.215181, -0.012647,  0.000000,  0.001882, -0.163240
 -0.158042, -0.214163, -0.011626,  0.000000,  0.001761, -0.163325
 -0.158522, -0.212333, -0.010620,  0.000000,  0.001647, -0.163406
 -0.158986, -0.209705, -0.009629,  0.000000,  0.001539, -0.163484
 -0.159432, -0.206295, -0.008654,  0.000000,  0.001438, -0.163559
 -0.159858, -0.202123, -0.007694,  0.000000,  0.001345, -0.163631
 -0.160263, -0.197213, -0.006751,  0.000000,  0.001259, -0.163700
 -0.160646, -0.191590, -0.005825,  0.000000,  0.001180, -0.163768
 -0.161003, -0.185282, -0.004917,  0.000000,  0.001109, -0.163832
 -0.161335, -0.178320, -0.004027,  0.000000,  0.001044, -0.163895
 -0.161640, -0.170736, -0.003154,  0.000000,  0.000987, -0.163956
 -0.161916, -0.162567, -0.002301,  0.000000,  0.000937, -0.164015
 -0.162164, -0.153849, -0.001466,  0.000000,  0.000893, -0.164073
 -0.162381, -0.144621, -0.000650,  0.000000,  0.000856, -0.164129
 -0.162567, -0.134924,  0.000147,  0.000000,  0.000825, -0.164183
 -0.162723, -0.124801,  0.000924,  0.000000,  0.000800, -0.164236
 -0.162847, -0.114294,  0.001681,  0.000000,  0.000780, -0.164288
 -0.162939, -0.103450,  0.002419,  0.000000,  0.000765, -0.164339
 -0.162999, -0.092313,  0.003137,  0.000000,  0.000754, -0.164389
 -0.163028, -0.080931,  0.003836,  0.000000,  0.000748, -0.164438
 -0.163026, -0.069350,  0.004515,  0.000000,  0.000744, -0.164487
 -0.162992, -0.057620,  0.005174,  0.000000,  0.000744, -0.164534
 -0.162928, -0.045786,  0.005814,  0.000000,  0.000747, -0.164581
 -0.162834, -0.033898,  0.006435,  0.000000,  0.000751, -0.164627
 -0.162712, -0.022004,  0.007037,  0.000000,  0.000756, -0.164672
 -0.162561, -0.010150,  0.007620,  0.000000,  0.000763, -0.164716
 -0.162383,  0.001615,  0.008185,  0.000000,  0.000769, -0.164760
 -0.162180,  0.013246,  0.008731,  0.000000,  0.000775, -0.164803
 -0.161952,  0.024698,  0.009260,  0.000000,  0.000781, -0.164845
 -0.161701,  0.035925,  0.009771,  0.000000,  0.000785, -0.164887
 -0.161429,  0.046884,  0.010266,  0.000000,  0.000787, -0.164927
 -0.161137,  0.057534,  0.010744,  0.000000,  0.000787, -0.164967
 -0.160826,  0.067834,  0.011206,  0.000000,  0.000784, -0.165006
 -0.160499,  0.077745,  0.011652,  0.000000,  0.000778, -0.165044
 -0.160157,  0.087231,  0.012084,  0.000000,  0.000769, -0.165080
 -0.159801,  0.096256,  0.012501,  0.000000,  0.000755, -0.165116
 -0.159435,  0.104788,  0.012905,  0.000000,  0.000738, -0.165151
 -0.159059,  0.112795,  0.013295,  0.000000,  0.000717, -0.165184
 -0.158676,  0.120250,  0.013673,  0.000000,  0.000691, -0.165216
 -0.158287,  0.127126,  0.014040,  0.000000,  0.000660, -0.165247
 -0.157895,  0.133400,  0.014395,  0.000000,  0.000624, -0.165276
 -0.157500,  0.139050,  0.014739,  0.000000,  0.000584, -0.165304
 -0.157106,  0.144059,  0.015074,  0.000000,  0.000538, -0.165330
 -0.156714,  0.148409,  0.015400,  0.000000,  0.000488, -0.165355
 -0.156325,  0.152088,  0.015718,  0.000000,  0.000433, -0.165377
 -0.155942,  0.155086,  0.016028,  0.000000,  0.000373, -0.165398
 -0.155566,  0.157395,  0.016332,  0.000000,  0.000308, -0.165418
 -0.155199,  0.159010,  0.016630,  0.000000,  0.000239, -0.165435
 -0.154842,  0.159928,  0.016922,  0.000000,  0.000165, -0.165450
 -0.154497,  0.160151,  0.017210,  0.000000,  0.000088, -0.165464
 -0.154166,  0.159681,  0.017495,  0.000000,  0.000007, -0.165475
 -0.153848,  0.158525,  0.017776,  0.000000, -0.000078, -0.165485
 -0.153547,  0.156691,  0.018056,  0.000000, -0.000166, -0.165492
 -0.153262,  0.154190,  0.018334,  0.000000, -0.000257, -0.165498
 -0.152996,  0.151037,  0.018612,  0.000000, -0.000350, -0.165501
 -0.152748,  0.147247,  0.018890,  0.000000, -0.000445, -0.165502
 -0.152520,  0.142839,  0.019169,  0.000000, -0.000542, -0.165501
 -0.152312,  0.137834,  0.019450,  0.000000, -0.000640, -0.165498
 -0.152124,  0.132255,  0.019733,  0.000000, -0.000740, -0.165493
 -0.151959,  0.126127,  0.020020,  0.000000, -0.000839, -0.165486
 -0.151814,  0.119477,  0.020310,  0.000000, -0.000939, -0.165477
 -0.151692,  0.112334,  0.020606,  0.000000, -0.001039, -0.165466
 -0.151591,  0.104729,  0.020906,  0.000000, -0.001138, -0.165453
 -0.151513,  0.096694,  0.021213,  0.000000, -0.001235, -0.165439
 -0.151456,  0.088263,  0.021526,  0.000000, -0.001332, -0.165422
 -0.151421,  0.079471,  0.021847,  0.000000, -0.001427, -0.165404
 -0.151406,  0.070353,  0.022175,  0.000000, -0.001519, -0.165384
 -0.151413,  0.060948,  0.022512,  0.000000, -0.001610, -0.165362
 -0.151440,  0.051293,  0.022859,  0.000000, -0.001698, -0.165338
 -0.151486,  0.041427,  0.023215,  0.000000, -0.001783, -0.165313
 -0.151550,  0.031389,  0.023581,  0.000000, -0.001865, -0.165287
 -0.151633,  0.021219,  0.023958,  0.000000, -0.001944, -0.165259
 -0.151732,  0.010957,  0.024347,  0.000000, -0.002019, -0.165230
 -0.151848,  0.000642,  0.024747,  0.000000, -0.002091, -0.165199
 -0.151978, -0.009686,  0.025160,  0.000000, -0.002160, -0.165167
 -0.152122, -0.019986,  0.025586,  0.000000, -0.002225, -0.165134
 -0.152278, -0.030220,  0.026025,  0.000000, -0.002287, -0.165100
 -0.152445, -0.040349,  0.026477,  0.000000, -0.002345, -0.165065
 -0.152622, -0.050336,  0.026944,  0.000000, -0.002400, -0.165028
 -0.152808, -0.060143,  0.027425,  0.000000, -0.002451, -0.164991
 -0.153001, -0.069734,  0.027921,  0.000000, -0.002499, -0.164952
 -0.153199, -0.079074,  0.028432,  0.000000, -0.002544, -0.164913
 -0.153401, -0.088129,  0.028959,  0.000000, -0.002586, -0.164872
 -0.153607, -0.096868,  0.029501,  0.000000, -0.002626, -0.164831
 -0.153813, -0.105259,  0.030060,  0.000000, -0.002663, -0.164789
 -0.154020, -0.113273,  0.030635,  0.000000, -0.002698, -0.164746
 -0.154225, -0.120883,  0.031227,  0.000000, -0.002731, -0.164702
 -0.154427, -0.128063,  0.031835,  0.000000, -0.002762, -0.164657
 -0.154625, -0.134790,  0.032461,  0.000000, -0.002793, -0.164611
 -0.154817, -0.141040,  0.033104,  0.000000, -0.002822, -0.164564
 -0.155002, -0.146794,  0.033763,  0.000000, -0.002851, -0.164516
 -0.155179, -0.152033,  0.034437,  0.000000, -0.002879, -0.164467
 -0.155346, -0.156742,  0.035128,  0.000000, -0.002907, -0.164417
 -0.155502, -0.160906,  0.035833,  0.000000, -0.002935, -0.164366
 -0.155647, -0.164515,  0.036553,  0.000000, -0.002963, -0.164314
 -0.155779, -0.167559,  0.037287,  0.000000, -0.002992, -0.164261
 -0.155897, -0.170031,  0.038034,  0.000000, -0.003021, -0.164207
 -0.156000, -0.171926,  0.038795,  0.000000, -0.003051, -0.164151
 -0.156088, -0.173242,  0.039568,  0.000000, -0.003083, -0.164094
 -0.156159, -0.173980,  0.040353,  0.000000, -0.003116, -0.164035
 -0.156214, -0.174141,  0.041150,  0.000000, -0.003151, -0.163976
 -0.156251, -0.173730,  0.041957,  0.000000, -0.003187, -0.163914
 -0.156270, -0.172755,  0.042776,  0.000000, -0.003226, -0.163852
 -0.156271, -0.171223,  0.043605,  0.000000, -0.003267, -0.163787
 -0.156253, -0.169146,  0.044443,  0.000000, -0.003311, -0.163721
 -0.156217, -0.166537,  0.045290,  0.000000, -0.003357, -0.163654
 -0.156161, -0.163412,  0.046146,  0.000000, -0.003406, -0.163584
 -0.156087, -0.159788,  0.047011,  0.000000, -0.003458, -0.163513
 -0.155994, -0.155683,  0.047883,  0.000000, -0.003513, -0.163440
 -0.155881, -0.151119,  0.048763,  0.000000, -0.003571, -0.163366
 -0.155750, -0.146118,  0.049649,  0.000000, -0.003632, -0.163289
 -0.155601, -0.140704,  0.050542,  0.000000, -0.003696, -0.163210
 -0.155434, -0.134903,  0.051441,  0.000000, -0.003763, -0.163129
 -0.155250, -0.128741,  0.052346,  0.000000, -0.003834, -0.163046
 -0.155048, -0.122246,  0.053255,  0.000000, -0.003908, -0.162961
 -0.154830, -0.115448,  0.054170,  0.000000, -0.003984, -0.162874
 -0.154596, -0.108378,  0.055089,  0.000000, -0.004064, -0.162784
 -0.154348, -0.101065,  0.056013,  0.000000, -0.004147, -0.162692
 -0.154085, -0.093542,  0.056940,  0.000000, -0.004233, -0.162598
 -0.153808, -0.085842,  0.057871,  0.000000, -0.004321, -0.162501
 -0.153519, -0.077997,  0.058805,  0.000000, -0.004412, -0.162401
 -0.153219, -0.070041,  0.059741,  0.000000, -0.004505, -0.162300
 -0.152907, -0.062006,  0.060681,  0.000000, -0.004601, -0.162195
 -0.152586, -0.053928,  0.061622,  0.000000, -0.004699, -0.162088
 -0.152256, -0.045839,  0.062566,  0.000000, -0.004799, -0.161979
 -0.151918, -0.037773,  0.063512,  0.000000, -0.004900, -0.161866
 -0.151573, -0.029762,  0.064459,  0.000000, -0.005003, -0.161751
 -0.151223, -0.021839,  0.065408,  0.000000, -0.005108, -0.161633
 -0.150867, -0.014037,  0.066358,  0.000000, -0.005214, -0.161513
 -0.150508, -0.006387,  0.067309,  0.000000, -0.005320, -0.161390
 -0.150146,  0.001082,  0.068261,  0.000000, -0.005427, -0.161263
 -0.149783,  0.008338,  0.069214,  0.000000, -0.005535, -0.161135
 -0.149419,  0.015354,  0.070167,  0.000000, -0.005644, -0.161003
 -0.149055,  0.022102,  0.071121,  0.000000, -0.005752, -0.160868
 -0.148692,  0.028556,  0.072075,  0.000000, -0.005860, -0.160730
 -0.148331,  0.034691,  0.073030,  0.000000, -0.005968, -0.160590
 -0.147973,  0.040484,  0.073985,  0.000000, -0.006076, -0.160447
 -0.147619,  0.045912,  0.074940,  0.000000, -0.006183, -0.160300
 -0.147269,  0.050955,  0.075896,  0.000000, -0.006290, -0.160151
 -0.146924,  0.055595,  0.076851,  0.000000, -0.006395, -0.159999
 -0.146586,  0.059814,  0.077807,  0.000000, -0.006500, -0.159844
 -0.146254,  0.063597,  0.078762,  0.000000, -0.006604, -0.159686
 -0.145929,  0.066932,  0.079718,  0.000000, -0.006706, -0.159525
 -0.145611,  0.069805,  0.080674,  0.000000, -0.006807, -0.159362
 -0.145302,  0.072207,  0.081630,  0.000000, -0.006907, -0.159195
 -0.145001,  0.074132,  0.082586,  0.000000, -0.007005, -0.159025
 -0.144709,  0.075572,  0.083542,  0.000000, -0.007102, -0.158853
 -0.144426,  0.076524,  0.084498,  0.000000, -0.007198, -0.158677
 -0.144152,  0.076985,  0.085454,  0.000000, -0.007292, -0.158499
 -0.143888,  0.076957,  0.086411,  0.000000, -0.007385, -0.158318
 -0.143633,  0.076440,  0.087368,  0.000000, -0.007476, -0.158134
 -0.143388,  0.075439,  0.088325,  0.000000, -0.007566, -0.157947
 -0.143152,  0.073958,  0.089282,  0.000000, -0.007655, -0.157758
 -0.142925,  0.072007,  0.090240,  0.000000, -0.007742, -0.157565
 -0.142707,  0.069593,  0.091198,  0.000000, -0.007828, -0.157370
 -0.142499,  0.066728,  0.092156,  0.000000, -0.007913, -0.157172
 -0.142299,  0.063425,  0.093115,  0.000000, -0.007998, -0.156971
 -0.142107,  0.059697,  0.094075,  0.000000, -0.008081, -0.156767
 -0.141923,  0.055562,  0.095035,  0.000000, -0.008164, -0.156561
 -0.141747,  0.051036,  0.095995,  0.000000, -0.008246, -0.156352
 -0.141577,  0.046138,  0.096957,  0.000000, -0.008327, -0.156140
 -0.141414,  0.040889,  0.097918,  0.000000, -0.008409, -0.155925
 -0.141257,  0.035309,  0.098881,  0.000000, -0.008490, -0.155708
 -0.141105,  0.029422,  0.099844,  0.000000, -0.008571, -0.155488
 -0.140957,  0.023250,  0.100808,  0.000000, -0.008652, -0.155265
 -0.140814,  0.016819,  0.101773,  0.000000, -0.008733, -0.155040
 -0.140674,  0.010155,  0.102738,  0.000000, -0.008815, -0.154812
 -0.140536,  0.003282,  0.103704,  0.000000, -0.008897, -0.154582
 -0.140401, -0.003772,  0.104670,  0.000000, -0.008980, -0.154348
 -0.140266, -0.010980,  0.105637,  0.000000, -0.009063, -0.154113
 -0.140132, -0.018314,  0.106605,  0.000000, -0.009148, -0.153874
 -0.139997, -0.025745,  0.107573,  0.000000, -0.009233, -0.153633
 -0.139861, -0.033246,  0.108541,  0.000000, -0.009320, -0.153390
 -0.139723, -0.040789,  0.109510,  0.000000, -0.009407, -0.153144
 -0.139583, -0.048344,  0.110479,  0.000000, -0.009496, -0.152895
 -0.139439, -0.055884,  0.111449,  0.000000, -0.009586, -0.152644
